P3
240 240
255
0 0 0  0 0 0  0 0 0  0 0 0  0 0 0  0 0 0
0 0 0  0 0 0  0 0 0  0 0 0  0 0 0  0 0 0
0 0 0  0 0 0  0 0 0  0 0 0  0 0 0  0 0 0
0 0 0  0 0 0  0 0 0  0 0 0  0 0 0  0 0 0
0 0 0  0 0 0  0 0 0  0 0 0  0 0 0  0 0 0
0 0 0  0 0 0  0 0 0  0 0 0  0 0 0  0 0 0
0 0 0  0 0 0  0 0 0  0 0 0  0 0 0  0 0 0
0 0 0  0 0 0  0 0 0  0 0 0  0 0 0  0 0 0
0 0 0  0 0 0  0 0 0  0 0 0  0 0 0  0 0 0
0 0 0  0 0 0  0 0 0  0 0 0  0 0 0  0 0 0
0 0 0  0 0 0  0 0 0  0 0 0  0 0 0  0 0 0
0 0 0  0 0 0  0 0 0  0 0 0  0 0 0  0 0 0
0 0 0  0 0 0  0 0 0  0 0 0  0 0 0  0 0 0
0 0 0  0 0 0  0 0 0  0 0 0  0 0 0  0 0 0
0 0 0  0 0 0  0 0 0  0 0 0  0 0 0  0 0 0
0 0 0  0 0 0  0 0 0  0 0 0  0 0 0  0 0 0
0 0 0  0 0 0  0 0 0  0 0 0  0 0 0  0 0 0
0 0 0  0 0 0  0 0 0  0 0 0  0 0 0  0 0 0
0 0 0  0 0 0  0 0 0  0 0 0  0 0 0  0 0 0
0 0 0  0 0 0  0 0 0  0 0 0  0 0 0  0 0 0
0 0 0  0 0 0  0 0 0  0 0 0  0 0 0  0 0 0
0 0 0  0 0 0  0 0 0  0 0 0  0 0 0  0 0 0
0 0 0  0 0 0  0 0 0  0 0 0  0 0 0  0 0 0
0 0 0  0 0 0  0 0 0  0 0 0  0 0 0  0 0 0
0 0 0  0 0 0  0 0 0  0 0 0  0 0 0  0 0 0
0 0 0  0 0 0  0 0 0  0 0 0  0 0 0  0 0 0
0 0 0  0 0 0  0 0 0  0 0 0  0 0 0  0 0 0
0 0 0  0 0 0  0 0 0  0 0 0  0 0 0  0 0 0
0 0 0  0 0 0  0 0 0  0 0 0  0 0 0  0 0 0
0 0 0  0 0 0  0 0 0  0 0 0  0 0 0  0 0 0
0 0 0  0 0 0  0 0 0  0 0 0  0 0 0  0 0 0
0 0 0  0 0 0  0 0 0  0 0 0  0 0 0  0 0 0
0 0 0  0 0 0  0 0 0  0 0 0  0 0 0  0 0 0
0 0 0  0 0 0  0 0 0  0 0 0  0 0 0  0 0 0
0 0 0  0 0 0  0 0 0  0 0 0  0 0 0  0 0 0
0 0 0  0 0 0  0 0 0  0 0 0  0 0 0  0 0 0
0 0 0  0 0 0  0 0 0  0 0 0  0 0 0  0 0 0
0 0 0  0 0 0  0 0 0  0 0 0  0 0 0  0 0 0
0 0 0  0 0 0  0 0 0  0 0 0  0 0 0  0 0 0
0 0 0  0 0 0  0 0 0  0 0 0  0 0 0  0 0 0
0 0 0  0 0 0  0 0 0  0 0 0  0 0 0  0 0 0
0 0 0  0 0 0  0 0 0  0 0 0  0 0 0  0 0 0
0 0 0  0 0 0  0 0 0  0 0 0  0 0 0  0 0 0
0 0 0  0 0 0  0 0 0  0 0 0  0 0 0  0 0 0
0 0 0  0 0 0  0 0 0  0 0 0  0 0 0  0 0 0
0 0 0  0 0 0  0 0 0  0 0 0  0 0 0  0 0 0
0 0 0  0 0 0  0 0 0  0 0 0  0 0 0  0 0 0
0 0 0  0 0 0  0 0 0  0 0 0  0 0 0  0 0 0
0 0 0  0 0 0  0 0 0  0 0 0  0 0 0  0 0 0
0 0 0  0 0 0  0 0 0  0 0 0  0 0 0  0 0 0
0 0 0  0 0 0  0 0 0  0 0 0  0 0 0  0 0 0
0 0 0  0 0 0  0 0 0  0 0 0  0 0 0  0 0 0
0 0 0  0 0 0  0 0 0  0 0 0  0 0 0  0 0 0
0 0 0  0 0 0  0 0 0  0 0 0  0 0 0  0 0 0
0 0 0  0 0 0  0 0 0  0 0 0  0 0 0  0 0 0
0 0 0  0 0 0  0 0 0  0 0 0  0 0 0  0 0 0
0 0 0  0 0 0  0 0 0  0 0 0  0 0 0  0 0 0
0 0 0  0 0 0  0 0 0  0 0 0  0 0 0  0 0 0
0 0 0  0 0 0  0 0 0  0 0 0  0 0 0  0 0 0
0 0 0  0 0 0  0 0 0  0 0 0  0 0 0  0 0 0
0 0 0  0 0 0  0 0 0  0 0 0  0 0 0  0 0 0
0 0 0  0 0 0  0 0 0  0 0 0  0 0 0  0 0 0
0 0 0  0 0 0  0 0 0  0 0 0  0 0 0  0 0 0
0 0 0  0 0 0  0 0 0  0 0 0  0 0 0  0 0 0
0 0 0  0 0 0  0 0 0  0 0 0  0 0 0  0 0 0
0 0 0  0 0 0  0 0 0  0 0 0  0 0 0  0 0 0
0 0 0  0 0 0  0 0 0  0 0 0  0 0 0  0 0 0
0 0 0  0 0 0  0 0 0  0 0 0  0 0 0  0 0 0
0 0 0  0 0 0  0 0 0  0 0 0  0 0 0  0 0 0
0 0 0  0 0 0  0 0 0  0 0 0  0 0 0  0 0 0
0 0 0  0 0 0  0 0 0  0 0 0  0 0 0  0 0 0
0 0 0  0 0 0  0 0 0  0 0 0  0 0 0  0 0 0
0 0 0  0 0 0  0 0 0  0 0 0  0 0 0  0 0 0
0 0 0  0 0 0  0 0 0  0 0 0  0 0 0  0 0 0
0 0 0  0 0 0  0 0 0  0 0 0  0 0 0  0 0 0
0 0 0  0 0 0  0 0 0  0 0 0  0 0 0  0 0 0
0 0 0  0 0 0  0 0 0  0 0 0  0 0 0  0 0 0
0 0 0  0 0 0  0 0 0  0 0 0  0 0 0  0 0 0
0 0 0  0 0 0  0 0 0  0 0 0  0 0 0  0 0 0
0 0 0  0 0 0  0 0 0  0 0 0  0 0 0  0 0 0
0 0 0  0 0 0  0 0 0  0 0 0  0 0 0  0 0 0
0 0 0  0 0 0  0 0 0  0 0 0  0 0 0  0 0 0
0 0 0  0 0 0  0 0 0  0 0 0  0 0 0  0 0 0
0 0 0  0 0 0  0 0 0  0 0 0  0 0 0  0 0 0
0 0 0  0 0 0  0 0 0  0 0 0  0 0 0  0 0 0
0 0 0  0 0 0  0 0 0  0 0 0  0 0 0  0 0 0
0 0 0  0 0 0  0 0 0  0 0 0  0 0 0  0 0 0
0 0 0  0 0 0  0 0 0  0 0 0  0 0 0  0 0 0
0 0 0  0 0 0  0 0 0  0 0 0  0 0 0  0 0 0
0 0 0  0 0 0  0 0 0  0 0 0  0 0 0  0 0 0
0 0 0  0 0 0  0 0 0  0 0 0  0 0 0  0 0 0
0 0 0  0 0 0  0 0 0  0 0 0  0 0 0  0 0 0
0 0 0  0 0 0  0 0 0  0 0 0  0 0 0  0 0 0
0 0 0  0 0 0  0 0 0  0 0 0  0 0 0  0 0 0
0 0 0  0 0 0  0 0 0  0 0 0  0 0 0  0 0 0
0 0 0  0 0 0  0 0 0  0 0 0  0 0 0  0 0 0
0 0 0  0 0 0  0 0 0  0 0 0  0 0 0  0 0 0
0 0 0  0 0 0  0 0 0  0 0 0  0 0 0  0 0 0
0 0 0  0 0 0  0 0 0  0 0 0  0 0 0  0 0 0
0 0 0  0 0 0  0 0 0  0 0 0  0 0 0  0 0 0
0 0 0  0 0 0  0 0 0  0 0 0  0 0 0  0 0 0
0 0 0  0 0 0  0 0 0  0 0 0  0 0 0  0 0 0
0 0 0  0 0 0  0 0 0  0 0 0  0 0 0  0 0 0
0 0 0  0 0 0  0 0 0  0 0 0  0 0 0  0 0 0
0 0 0  0 0 0  0 0 0  0 0 0  0 0 0  0 0 0
0 0 0  0 0 0  0 0 0  0 0 0  0 0 0  0 0 0
0 0 0  0 0 0  0 0 0  0 0 0  0 0 0  0 0 0
0 0 0  0 0 0  0 0 0  0 0 0  0 0 0  0 0 0
0 0 0  0 0 0  0 0 0  0 0 0  0 0 0  0 0 0
0 0 0  0 0 0  0 0 0  0 0 0  0 0 0  0 0 0
0 0 0  0 0 0  0 0 0  0 0 0  0 0 0  0 0 0
0 0 0  0 0 0  0 0 0  0 0 0  0 0 0  0 0 0
0 0 0  0 0 0  0 0 0  0 0 0  0 0 0  0 0 0
0 0 0  0 0 0  0 0 0  0 0 0  0 0 0  0 0 0
0 0 0  0 0 0  0 0 0  0 0 0  0 0 0  0 0 0
0 0 0  0 0 0  0 0 0  0 0 0  0 0 0  0 0 0
0 0 0  0 0 0  0 0 0  0 0 0  0 0 0  0 0 0
0 0 0  0 0 0  0 0 0  0 0 0  0 0 0  0 0 0
0 0 0  0 0 0  0 0 0  0 0 0  0 0 0  0 0 0
0 0 0  0 0 0  0 0 0  0 0 0  0 0 0  0 0 0
0 0 0  0 0 0  0 0 0  0 0 0  0 0 0  0 0 0
0 0 0  0 0 0  0 0 0  0 0 0  0 0 0  0 0 0
0 0 0  0 0 0  0 0 0  0 0 0  0 0 0  0 0 0
0 0 0  0 0 0  0 0 0  0 0 0  0 0 0  0 0 0
0 0 0  0 0 0  0 0 0  0 0 0  0 0 0  0 0 0
0 0 0  0 0 0  0 0 0  0 0 0  0 0 0  0 0 0
0 0 0  0 0 0  0 0 0  0 0 0  0 0 0  0 0 0
0 0 0  0 0 0  0 0 0  0 0 0  0 0 0  0 0 0
0 0 0  0 0 0  0 0 0  0 0 0  0 0 0  0 0 0
0 0 0  0 0 0  0 0 0  0 0 0  0 0 0  0 0 0
0 0 0  0 0 0  0 0 0  0 0 0  0 0 0  0 0 0
0 0 0  0 0 0  0 0 0  0 0 0  0 0 0  0 0 0
0 0 0  0 0 0  0 0 0  0 0 0  0 0 0  0 0 0
0 0 0  0 0 0  0 0 0  0 0 0  0 0 0  0 0 0
0 0 0  0 0 0  0 0 0  0 0 0  0 0 0  0 0 0
0 0 0  0 0 0  0 0 0  0 0 0  0 0 0  0 0 0
0 0 0  0 0 0  0 0 0  0 0 0  0 0 0  0 0 0
0 0 0  0 0 0  0 0 0  0 0 0  0 0 0  0 0 0
0 0 0  0 0 0  0 0 0  0 0 0  0 0 0  0 0 0
0 0 0  0 0 0  0 0 0  0 0 0  0 0 0  0 0 0
0 0 0  0 0 0  0 0 0  0 0 0  0 0 0  0 0 0
0 0 0  0 0 0  0 0 0  0 0 0  0 0 0  0 0 0
0 0 0  0 0 0  0 0 0  0 0 0  0 0 0  0 0 0
0 0 0  0 0 0  0 0 0  0 0 0  0 0 0  0 0 0
0 0 0  0 0 0  0 0 0  0 0 0  0 0 0  0 0 0
0 0 0  0 0 0  0 0 0  0 0 0  0 0 0  0 0 0
0 0 0  0 0 0  0 0 0  0 0 0  0 0 0  0 0 0
0 0 0  0 0 0  0 0 0  0 0 0  0 0 0  0 0 0
0 0 0  0 0 0  0 0 0  0 0 0  0 0 0  0 0 0
0 0 0  0 0 0  0 0 0  0 0 0  0 0 0  0 0 0
0 0 0  0 0 0  0 0 0  0 0 0  0 0 0  0 0 0
0 0 0  0 0 0  0 0 0  0 0 0  0 0 0  0 0 0
0 0 0  0 0 0  0 0 0  0 0 0  0 0 0  0 0 0
0 0 0  0 0 0  0 0 0  0 0 0  0 0 0  0 0 0
0 0 0  0 0 0  0 0 0  0 0 0  0 0 0  0 0 0
0 0 0  0 0 0  0 0 0  0 0 0  0 0 0  0 0 0
0 0 0  0 0 0  0 0 0  0 0 0  0 0 0  0 0 0
0 0 0  0 0 0  0 0 0  0 0 0  0 0 0  0 0 0
0 0 0  0 0 0  0 0 0  0 0 0  0 0 0  0 0 0
0 0 0  0 0 0  0 0 0  0 0 0  0 0 0  0 0 0
0 0 0  0 0 0  0 0 0  0 0 0  0 0 0  0 0 0
0 0 0  0 0 0  0 0 0  0 0 0  0 0 0  0 0 0
0 0 0  0 0 0  0 0 0  0 0 0  0 0 0  0 0 0
0 0 0  0 0 0  0 0 0  0 0 0  0 0 0  0 0 0
0 0 0  0 0 0  0 0 0  0 0 0  0 0 0  0 0 0
0 0 0  0 0 0  0 0 0  0 0 0  0 0 0  0 0 0
0 0 0  0 0 0  0 0 0  0 0 0  0 0 0  0 0 0
0 0 0  0 0 0  0 0 0  0 0 0  0 0 0  0 0 0
0 0 0  0 0 0  0 0 0  0 0 0  0 0 0  0 0 0
0 0 0  0 0 0  0 0 0  0 0 0  0 0 0  0 0 0
0 0 0  0 0 0  0 0 0  0 0 0  0 0 0  0 0 0
0 0 0  0 0 0  0 0 0  0 0 0  0 0 0  0 0 0
0 0 0  0 0 0  0 0 0  0 0 0  0 0 0  0 0 0
0 0 0  0 0 0  0 0 0  0 0 0  0 0 0  0 0 0
0 0 0  0 0 0  0 0 0  0 0 0  0 0 0  0 0 0
0 0 0  0 0 0  0 0 0  0 0 0  0 0 0  0 0 0
0 0 0  0 0 0  0 0 0  0 0 0  0 0 0  0 0 0
0 0 0  0 0 0  0 0 0  0 0 0  0 0 0  0 0 0
0 0 0  0 0 0  0 0 0  0 0 0  0 0 0  0 0 0
0 0 0  0 0 0  0 0 0  0 0 0  0 0 0  0 0 0
0 0 0  0 0 0  0 0 0  0 0 0  0 0 0  0 0 0
0 0 0  0 0 0  0 0 0  0 0 0  0 0 0  0 0 0
0 0 0  0 0 0  0 0 0  0 0 0  0 0 0  0 0 0
0 0 0  0 0 0  0 0 0  0 0 0  0 0 0  0 0 0
0 0 0  0 0 0  0 0 0  0 0 0  0 0 0  0 0 0
0 0 0  0 0 0  0 0 0  0 0 0  0 0 0  0 0 0
0 0 0  0 0 0  0 0 0  0 0 0  0 0 0  0 0 0
0 0 0  0 0 0  0 0 0  0 0 0  0 0 0  0 0 0
0 0 0  0 0 0  0 0 0  0 0 0  0 0 0  0 0 0
0 0 0  0 0 0  0 0 0  0 0 0  0 0 0  0 0 0
0 0 0  0 0 0  0 0 0  0 0 0  0 0 0  0 0 0
0 0 0  0 0 0  0 0 0  0 0 0  0 0 0  0 0 0
0 0 0  0 0 0  0 0 0  0 0 0  0 0 0  0 0 0
0 0 0  0 0 0  0 0 0  0 0 0  0 0 0  0 0 0
0 0 0  0 0 0  0 0 0  0 0 0  0 0 0  0 0 0
0 0 0  0 0 0  0 0 0  0 0 0  0 0 0  0 0 0
0 0 0  0 0 0  0 0 0  0 0 0  0 0 0  0 0 0
0 0 0  0 0 0  0 0 0  0 0 0  0 0 0  0 0 0
0 0 0  0 0 0  0 0 0  0 0 0  0 0 0  0 0 0
0 0 0  0 0 0  0 0 0  0 0 0  0 0 0  0 0 0
0 0 0  0 0 0  0 0 0  0 0 0  0 0 0  0 0 0
0 0 0  0 0 0  0 0 0  0 0 0  0 0 0  0 0 0
0 0 0  0 0 0  0 0 0  0 0 0  0 0 0  0 0 0
0 0 0  0 0 0  0 0 0  0 0 0  0 0 0  0 0 0
0 0 0  0 0 0  0 0 0  0 0 0  0 0 0  0 0 0
0 0 0  0 0 0  0 0 0  0 0 0  0 0 0  0 0 0
0 0 0  0 0 0  0 0 0  0 0 0  0 0 0  0 0 0
0 0 0  0 0 0  0 0 0  0 0 0  0 0 0  0 0 0
0 0 0  0 0 0  0 0 0  0 0 0  0 0 0  0 0 0
0 0 0  0 0 0  0 0 0  0 0 0  0 0 0  0 0 0
0 0 0  0 0 0  0 0 0  0 0 0  0 0 0  0 0 0
0 0 0  0 0 0  0 0 0  0 0 0  0 0 0  0 0 0
0 0 0  0 0 0  0 0 0  0 0 0  0 0 0  0 0 0
0 0 0  0 0 0  0 0 0  0 0 0  0 0 0  0 0 0
0 0 0  0 0 0  0 0 0  0 0 0  0 0 0  0 0 0
0 0 0  0 0 0  0 0 0  0 0 0  0 0 0  0 0 0
0 0 0  0 0 0  0 0 0  0 0 0  0 0 0  0 0 0
0 0 0  0 0 0  0 0 0  0 0 0  0 0 0  0 0 0
0 0 0  0 0 0  0 0 0  0 0 0  0 0 0  0 0 0
0 0 0  0 0 0  0 0 0  0 0 0  0 0 0  0 0 0
0 0 0  0 0 0  0 0 0  0 0 0  0 0 0  0 0 0
0 0 0  0 0 0  0 0 0  0 0 0  0 0 0  0 0 0
0 0 0  0 0 0  0 0 0  0 0 0  0 0 0  0 0 0
0 0 0  0 0 0  0 0 0  0 0 0  0 0 0  0 0 0
0 0 0  0 0 0  0 0 0  0 0 0  0 0 0  0 0 0
0 0 0  0 0 0  0 0 0  0 0 0  0 0 0  0 0 0
0 0 0  0 0 0  0 0 0  0 0 0  0 0 0  0 0 0
0 0 0  0 0 0  0 0 0  0 0 0  0 0 0  0 0 0
0 0 0  0 0 0  0 0 0  0 0 0  0 0 0  0 0 0
0 0 0  0 0 0  0 0 0  0 0 0  0 0 0  0 0 0
0 0 0  0 0 0  0 0 0  0 0 0  0 0 0  0 0 0
0 0 0  0 0 0  0 0 0  0 0 0  0 0 0  0 0 0
0 0 0  0 0 0  0 0 0  0 0 0  0 0 0  0 0 0
0 0 0  0 0 0  0 0 0  0 0 0  0 0 0  0 0 0
0 0 0  0 0 0  0 0 0  0 0 0  0 0 0  0 0 0
0 0 0  0 0 0  0 0 0  0 0 0  0 0 0  0 0 0
0 0 0  0 0 0  0 0 0  0 0 0  0 0 0  0 0 0
0 0 0  0 0 0  0 0 0  0 0 0  0 0 0  0 0 0
0 0 0  0 0 0  0 0 0  0 0 0  0 0 0  0 0 0
0 0 0  0 0 0  0 0 0  0 0 0  0 0 0  0 0 0
0 0 0  0 0 0  0 0 0  0 0 0  0 0 0  0 0 0
0 0 0  0 0 0  0 0 0  0 0 0  0 0 0  0 0 0
0 0 0  0 0 0  0 0 0  0 0 0  0 0 0  0 0 0
0 0 0  0 0 0  0 0 0  0 0 0  0 0 0  0 0 0
0 0 0  0 0 0  0 0 0  0 0 0  0 0 0  0 0 0
0 0 0  0 0 0  0 0 0  0 0 0  0 0 0  0 0 0
0 0 0  0 0 0  0 0 0  0 0 0  0 0 0  0 0 0
0 0 0  0 0 0  0 0 0  0 0 0  0 0 0  0 0 0
0 0 0  0 0 0  0 0 0  0 0 0  0 0 0  0 0 0
0 0 0  0 0 0  0 0 0  0 0 0  0 0 0  0 0 0
0 0 0  0 0 0  0 0 0  0 0 0  0 0 0  0 0 0
0 0 0  0 0 0  0 0 0  0 0 0  0 0 0  0 0 0
0 0 0  0 0 0  0 0 0  0 0 0  0 0 0  0 0 0
0 0 0  0 0 0  0 0 0  0 0 0  0 0 0  0 0 0
0 0 0  0 0 0  0 0 0  0 0 0  0 0 0  0 0 0
0 0 0  0 0 0  0 0 0  0 0 0  0 0 0  0 0 0
0 0 0  0 0 0  0 0 0  0 0 0  0 0 0  0 0 0
0 0 0  0 0 0  0 0 0  0 0 0  0 0 0  0 0 0
0 0 0  0 0 0  0 0 0  0 0 0  0 0 0  0 0 0
0 0 0  0 0 0  0 0 0  0 0 0  0 0 0  0 0 0
0 0 0  0 0 0  0 0 0  0 0 0  0 0 0  0 0 0
0 0 0  0 0 0  0 0 0  0 0 0  0 0 0  0 0 0
0 0 0  0 0 0  0 0 0  0 0 0  0 0 0  0 0 0
0 0 0  0 0 0  0 0 0  0 0 0  0 0 0  0 0 0
0 0 0  0 0 0  0 0 0  0 0 0  0 0 0  0 0 0
0 0 0  0 0 0  0 0 0  0 0 0  0 0 0  0 0 0
0 0 0  0 0 0  0 0 0  0 0 0  0 0 0  0 0 0
0 0 0  0 0 0  0 0 0  0 0 0  0 0 0  0 0 0
0 0 0  0 0 0  0 0 0  0 0 0  0 0 0  0 0 0
0 0 0  0 0 0  0 0 0  0 0 0  0 0 0  0 0 0
0 0 0  0 0 0  0 0 0  0 0 0  0 0 0  0 0 0
0 0 0  0 0 0  0 0 0  0 0 0  0 0 0  0 0 0
0 0 0  0 0 0  0 0 0  0 0 0  0 0 0  0 0 0
0 0 0  0 0 0  0 0 0  0 0 0  0 0 0  0 0 0
0 0 0  0 0 0  0 0 0  0 0 0  0 0 0  0 0 0
0 0 0  0 0 0  0 0 0  0 0 0  0 0 0  0 0 0
0 0 0  0 0 0  0 0 0  0 0 0  0 0 0  0 0 0
0 0 0  0 0 0  0 0 0  0 0 0  0 0 0  0 0 0
0 0 0  0 0 0  0 0 0  0 0 0  0 0 0  0 0 0
0 0 0  0 0 0  0 0 0  0 0 0  0 0 0  0 0 0
0 0 0  0 0 0  0 0 0  0 0 0  0 0 0  0 0 0
0 0 0  0 0 0  0 0 0  0 0 0  0 0 0  0 0 0
0 0 0  0 0 0  0 0 0  0 0 0  0 0 0  0 0 0
0 0 0  0 0 0  0 0 0  0 0 0  0 0 0  0 0 0
0 0 0  0 0 0  0 0 0  0 0 0  0 0 0  0 0 0
0 0 0  0 0 0  0 0 0  0 0 0  0 0 0  0 0 0
0 0 0  0 0 0  0 0 0  0 0 0  0 0 0  0 0 0
0 0 0  0 0 0  0 0 0  0 0 0  0 0 0  0 0 0
0 0 0  0 0 0  0 0 0  0 0 0  0 0 0  0 0 0
0 0 0  0 0 0  0 0 0  0 0 0  0 0 0  0 0 0
0 0 0  0 0 0  0 0 0  0 0 0  0 0 0  0 0 0
0 0 0  0 0 0  0 0 0  0 0 0  0 0 0  0 0 0
0 0 0  0 0 0  0 0 0  0 0 0  0 0 0  0 0 0
0 0 0  0 0 0  0 0 0  0 0 0  0 0 0  0 0 0
0 0 0  0 0 0  0 0 0  0 0 0  0 0 0  0 0 0
0 0 0  0 0 0  0 0 0  0 0 0  0 0 0  0 0 0
0 0 0  0 0 0  0 0 0  0 0 0  0 0 0  0 0 0
0 0 0  0 0 0  0 0 0  0 0 0  0 0 0  0 0 0
0 0 0  0 0 0  0 0 0  0 0 0  0 0 0  0 0 0
0 0 0  0 0 0  0 0 0  0 0 0  0 0 0  0 0 0
0 0 0  0 0 0  0 0 0  0 0 0  0 0 0  0 0 0
0 0 0  0 0 0  0 0 0  0 0 0  0 0 0  0 0 0
0 0 0  0 0 0  0 0 0  0 0 0  0 0 0  0 0 0
0 0 0  0 0 0  0 0 0  0 0 0  0 0 0  0 0 0
0 0 0  0 0 0  0 0 0  0 0 0  0 0 0  0 0 0
0 0 0  0 0 0  0 0 0  0 0 0  0 0 0  0 0 0
0 0 0  0 0 0  0 0 0  0 0 0  0 0 0  0 0 0
0 0 0  0 0 0  0 0 0  0 0 0  0 0 0  0 0 0
0 0 0  0 0 0  0 0 0  0 0 0  0 0 0  0 0 0
0 0 0  0 0 0  0 0 0  0 0 0  0 0 0  0 0 0
0 0 0  0 0 0  0 0 0  0 0 0  0 0 0  0 0 0
0 0 0  0 0 0  0 0 0  0 0 0  0 0 0  0 0 0
0 0 0  0 0 0  0 0 0  0 0 0  0 0 0  0 0 0
0 0 0  0 0 0  0 0 0  0 0 0  0 0 0  0 0 0
0 0 0  0 0 0  0 0 0  0 0 0  0 0 0  0 0 0
0 0 0  0 0 0  0 0 0  0 0 0  0 0 0  0 0 0
0 0 0  0 0 0  0 0 0  0 0 0  0 0 0  0 0 0
0 0 0  0 0 0  0 0 0  0 0 0  0 0 0  0 0 0
0 0 0  0 0 0  0 0 0  0 0 0  0 0 0  0 0 0
0 0 0  0 0 0  0 0 0  0 0 0  0 0 0  0 0 0
0 0 0  0 0 0  0 0 0  0 0 0  0 0 0  0 0 0
0 0 0  0 0 0  0 0 0  0 0 0  0 0 0  0 0 0
0 0 0  0 0 0  0 0 0  0 0 0  0 0 0  0 0 0
0 0 0  0 0 0  0 0 0  0 0 0  0 0 0  0 0 0
0 0 0  0 0 0  0 0 0  0 0 0  0 0 0  0 0 0
0 0 0  0 0 0  0 0 0  0 0 0  0 0 0  0 0 0
0 0 0  0 0 0  0 0 0  0 0 0  0 0 0  0 0 0
0 0 0  0 0 0  0 0 0  0 0 0  0 0 0  0 0 0
0 0 0  0 0 0  0 0 0  0 0 0  0 0 0  0 0 0
0 0 0  0 0 0  0 0 0  0 0 0  0 0 0  0 0 0
0 0 0  0 0 0  0 0 0  0 0 0  0 0 0  0 0 0
0 0 0  0 0 0  0 0 0  0 0 0  0 0 0  0 0 0
0 0 0  0 0 0  0 0 0  0 0 0  0 0 0  0 0 0
0 0 0  0 0 0  0 0 0  0 0 0  0 0 0  0 0 0
0 0 0  0 0 0  0 0 0  0 0 0  0 0 0  0 0 0
0 0 0  0 0 0  0 0 0  0 0 0  0 0 0  0 0 0
0 0 0  0 0 0  0 0 0  0 0 0  0 0 0  0 0 0
0 0 0  0 0 0  0 0 0  0 0 0  0 0 0  0 0 0
0 0 0  0 0 0  0 0 0  0 0 0  0 0 0  0 0 0
0 0 0  0 0 0  0 0 0  0 0 0  0 0 0  0 0 0
0 0 0  0 0 0  0 0 0  0 0 0  0 0 0  0 0 0
0 0 0  0 0 0  0 0 0  0 0 0  0 0 0  0 0 0
0 0 0  0 0 0  0 0 0  0 0 0  0 0 0  0 0 0
0 0 0  0 0 0  0 0 0  0 0 0  0 0 0  0 0 0
177 177 177  177 177 177  177 177 177  176 176 176  176 176 176  176 176 176
176 176 176  176 176 176  176 176 176  176 176 176  177 177 177  177 177 177
177 177 177  177 177 177  0 0 0  0 0 0  0 0 0  0 0 0
0 0 0  0 0 0  0 0 0  0 0 0  0 0 0  0 0 0
0 0 0  0 0 0  0 0 0  0 0 0  0 0 0  0 0 0
177 177 177  177 177 177  177 177 177  176 176 176  176 176 176  176 176 176
176 176 176  176 176 176  176 176 176  176 176 176  176 176 176  176 176 176
177 177 177  177 177 177  0 0 0  0 0 0  0 0 0  0 0 0
0 0 0  0 0 0  0 0 0  0 0 0  0 0 0  0 0 0
0 0 0  0 0 0  0 0 0  0 0 0  0 0 0  0 0 0
0 0 0  0 0 0  0 0 0  0 0 0  0 0 0  0 0 0
0 0 0  0 0 0  0 0 0  0 0 0  0 0 0  0 0 0
0 0 0  0 0 0  0 0 0  0 0 0  0 0 0  0 0 0
0 0 0  0 0 0  0 0 0  0 0 0  0 0 0  0 0 0
0 0 0  0 0 0  0 0 0  0 0 0  0 0 0  0 0 0
0 0 0  0 0 0  0 0 0  0 0 0  0 0 0  0 0 0
0 0 0  0 0 0  0 0 0  0 0 0  0 0 0  0 0 0
0 0 0  0 0 0  0 0 0  0 0 0  0 0 0  0 0 0
0 0 0  0 0 0  0 0 0  0 0 0  0 0 0  0 0 0
0 0 0  0 0 0  0 0 0  0 0 0  0 0 0  0 0 0
0 0 0  0 0 0  0 0 0  0 0 0  0 0 0  0 0 0
0 0 0  0 0 0  0 0 0  0 0 0  0 0 0  0 0 0
0 0 0  0 0 0  0 0 0  0 0 0  0 0 0  0 0 0
0 0 0  0 0 0  0 0 0  0 0 0  0 0 0  0 0 0
0 0 0  0 0 0  0 0 0  0 0 0  0 0 0  0 0 0
0 0 0  0 0 0  0 0 0  0 0 0  0 0 0  0 0 0
0 0 0  0 0 0  0 0 0  0 0 0  0 0 0  0 0 0
0 0 0  0 0 0  0 0 0  0 0 0  0 0 0  0 0 0
0 0 0  0 0 0  0 0 0  0 0 0  0 0 0  0 0 0
0 0 0  0 0 0  0 0 0  0 0 0  0 0 0  0 0 0
0 0 0  0 0 0  0 0 0  0 0 0  0 0 0  0 0 0
0 0 0  0 0 0  0 0 0  0 0 0  0 0 0  0 0 0
0 0 0  0 0 0  0 0 0  0 0 0  0 0 0  0 0 0
0 0 0  0 0 0  0 0 0  0 0 0  0 0 0  0 0 0
0 0 0  0 0 0  0 0 0  0 0 0  0 0 0  0 0 0
0 0 0  0 0 0  0 0 0  0 0 0  0 0 0  0 0 0
0 0 0  0 0 0  0 0 0  0 0 0  0 0 0  0 0 0
0 0 0  0 0 0  0 0 0  0 0 0  0 0 0  0 0 0
0 0 0  0 0 0  0 0 0  0 0 0  0 0 0  0 0 0
0 0 0  0 0 0  178 178 178  178 178 178  178 178 178  178 178 178
178 178 178  178 178 178  177 177 177  177 177 177  177 177 177  177 177 177
177 177 177  177 177 177  177 177 177  177 177 177  177 177 177  177 177 177
178 178 178  178 178 178  178 178 178  178 178 178  178 178 178  178 178 178
0 0 0  0 0 0  0 0 0  0 0 0  0 0 0  0 0 0
0 0 0  0 0 0  178 178 178  178 178 178  178 178 178  178 178 178
178 178 178  178 178 178  177 177 177  177 177 177  177 177 177  177 177 177
177 177 177  177 177 177  177 177 177  177 177 177  177 177 177  177 177 177
177 177 177  178 178 178  178 178 178  178 178 178  178 178 178  178 178 178
0 0 0  0 0 0  0 0 0  0 0 0  0 0 0  0 0 0
0 0 0  0 0 0  0 0 0  0 0 0  0 0 0  0 0 0
0 0 0  0 0 0  0 0 0  0 0 0  0 0 0  0 0 0
0 0 0  0 0 0  0 0 0  0 0 0  0 0 0  0 0 0
0 0 0  0 0 0  0 0 0  0 0 0  0 0 0  0 0 0
0 0 0  0 0 0  0 0 0  0 0 0  0 0 0  0 0 0
0 0 0  0 0 0  0 0 0  0 0 0  0 0 0  0 0 0
0 0 0  0 0 0  0 0 0  0 0 0  0 0 0  0 0 0
0 0 0  0 0 0  0 0 0  0 0 0  0 0 0  0 0 0
0 0 0  0 0 0  0 0 0  0 0 0  0 0 0  0 0 0
0 0 0  0 0 0  0 0 0  0 0 0  0 0 0  0 0 0
0 0 0  0 0 0  0 0 0  0 0 0  0 0 0  0 0 0
0 0 0  0 0 0  0 0 0  0 0 0  0 0 0  0 0 0
0 0 0  0 0 0  0 0 0  0 0 0  0 0 0  0 0 0
0 0 0  0 0 0  0 0 0  0 0 0  0 0 0  0 0 0
0 0 0  0 0 0  0 0 0  0 0 0  0 0 0  0 0 0
0 0 0  0 0 0  0 0 0  0 0 0  0 0 0  0 0 0
0 0 0  0 0 0  0 0 0  0 0 0  0 0 0  0 0 0
0 0 0  0 0 0  0 0 0  0 0 0  0 0 0  0 0 0
0 0 0  0 0 0  0 0 0  0 0 0  0 0 0  0 0 0
0 0 0  0 0 0  0 0 0  0 0 0  0 0 0  0 0 0
0 0 0  0 0 0  0 0 0  0 0 0  0 0 0  0 0 0
0 0 0  0 0 0  0 0 0  0 0 0  0 0 0  0 0 0
0 0 0  0 0 0  0 0 0  0 0 0  0 0 0  0 0 0
0 0 0  0 0 0  0 0 0  0 0 0  0 0 0  0 0 0
0 0 0  0 0 0  0 0 0  0 0 0  0 0 0  0 0 0
0 0 0  0 0 0  0 0 0  0 0 0  0 0 0  0 0 0
0 0 0  0 0 0  0 0 0  0 0 0  0 0 0  0 0 0
0 0 0  0 0 0  0 0 0  0 0 0  0 0 0  0 0 0
0 0 0  0 0 0  0 0 0  0 0 0  0 0 0  0 0 0
0 0 0  0 0 0  0 0 0  0 0 0  0 0 0  0 0 0
179 179 179  179 179 179  179 179 179  179 179 179  178 178 178  179 179 179
178 178 178  178 178 178  178 178 178  178 178 178  178 178 178  178 178 178
178 178 178  178 178 178  178 178 178  178 178 178  178 178 178  178 178 178
178 178 178  178 178 178  178 178 178  178 178 178  179 179 179  179 179 179
179 179 179  179 179 179  179 179 179  0 0 0  0 0 0  179 179 179
179 179 179  179 179 179  178 178 178  179 179 179  178 178 178  178 178 178
178 178 178  178 178 178  178 178 178  178 178 178  178 178 178  178 178 178
178 178 178  178 178 178  178 178 178  178 178 178  178 178 178  178 178 178
178 178 178  178 178 178  178 178 178  178 178 178  178 178 178  179 179 179
178 178 178  179 179 179  179 179 179  0 0 0  0 0 0  0 0 0
0 0 0  0 0 0  0 0 0  0 0 0  0 0 0  0 0 0
0 0 0  0 0 0  0 0 0  0 0 0  0 0 0  0 0 0
0 0 0  0 0 0  0 0 0  0 0 0  0 0 0  0 0 0
0 0 0  0 0 0  0 0 0  0 0 0  0 0 0  0 0 0
0 0 0  0 0 0  0 0 0  0 0 0  0 0 0  0 0 0
0 0 0  0 0 0  0 0 0  0 0 0  0 0 0  0 0 0
0 0 0  0 0 0  0 0 0  0 0 0  0 0 0  0 0 0
0 0 0  0 0 0  0 0 0  0 0 0  0 0 0  0 0 0
0 0 0  0 0 0  0 0 0  0 0 0  0 0 0  0 0 0
0 0 0  0 0 0  0 0 0  0 0 0  0 0 0  0 0 0
0 0 0  0 0 0  0 0 0  0 0 0  0 0 0  0 0 0
0 0 0  0 0 0  0 0 0  0 0 0  0 0 0  0 0 0
0 0 0  0 0 0  0 0 0  0 0 0  0 0 0  0 0 0
0 0 0  0 0 0  0 0 0  0 0 0  0 0 0  0 0 0
0 0 0  0 0 0  0 0 0  0 0 0  0 0 0  0 0 0
0 0 0  0 0 0  0 0 0  0 0 0  0 0 0  0 0 0
0 0 0  0 0 0  0 0 0  0 0 0  0 0 0  0 0 0
0 0 0  0 0 0  0 0 0  0 0 0  0 0 0  0 0 0
0 0 0  0 0 0  0 0 0  0 0 0  0 0 0  0 0 0
0 0 0  0 0 0  0 0 0  0 0 0  0 0 0  0 0 0
0 0 0  0 0 0  0 0 0  0 0 0  0 0 0  0 0 0
0 0 0  0 0 0  0 0 0  0 0 0  0 0 0  0 0 0
0 0 0  0 0 0  0 0 0  0 0 0  0 0 0  0 0 0
0 0 0  0 0 0  0 0 0  0 0 0  0 0 0  0 0 0
0 0 0  0 0 0  0 0 0  0 0 0  0 0 0  0 0 0
0 0 0  0 0 0  0 0 0  0 0 0  0 0 0  0 0 0
0 0 0  0 0 0  0 0 0  0 0 0  0 0 0  0 0 0
0 0 0  0 0 0  0 0 0  0 0 0  0 0 0  0 0 0
0 0 0  0 0 0  0 0 0  0 0 0  0 0 0  0 0 0
0 0 0  0 0 0  0 0 0  0 0 0  179 179 179  179 179 179
179 179 179  179 179 179  179 179 179  179 179 179  179 179 179  179 179 179
179 179 179  178 178 178  178 178 178  178 178 178  178 178 178  178 178 178
178 178 178  178 178 178  178 178 178  178 178 178  178 178 178  178 178 178
178 178 178  178 178 178  179 179 179  179 179 179  179 179 179  179 179 179
179 179 179  179 179 179  179 179 179  179 179 179  179 179 179  179 179 179
179 179 179  179 179 179  179 179 179  179 179 179  179 179 179  179 179 179
179 179 179  179 179 179  178 178 178  178 178 178  178 178 178  178 178 178
178 178 178  178 178 178  178 178 178  178 178 178  178 178 178  178 178 178
178 178 178  179 179 179  179 179 179  179 179 179  179 179 179  179 179 179
179 179 179  179 179 179  179 179 179  179 179 179  179 179 179  0 0 0
0 0 0  0 0 0  0 0 0  0 0 0  0 0 0  0 0 0
0 0 0  0 0 0  0 0 0  0 0 0  0 0 0  0 0 0
0 0 0  0 0 0  0 0 0  0 0 0  0 0 0  0 0 0
0 0 0  0 0 0  0 0 0  0 0 0  0 0 0  0 0 0
0 0 0  0 0 0  0 0 0  0 0 0  0 0 0  0 0 0
0 0 0  0 0 0  0 0 0  0 0 0  0 0 0  0 0 0
0 0 0  0 0 0  0 0 0  0 0 0  0 0 0  0 0 0
0 0 0  0 0 0  0 0 0  0 0 0  0 0 0  0 0 0
0 0 0  0 0 0  0 0 0  0 0 0  0 0 0  0 0 0
0 0 0  0 0 0  0 0 0  0 0 0  0 0 0  0 0 0
0 0 0  0 0 0  0 0 0  0 0 0  0 0 0  0 0 0
0 0 0  0 0 0  0 0 0  0 0 0  0 0 0  0 0 0
0 0 0  0 0 0  0 0 0  0 0 0  0 0 0  0 0 0
0 0 0  0 0 0  0 0 0  0 0 0  0 0 0  0 0 0
0 0 0  0 0 0  0 0 0  0 0 0  0 0 0  0 0 0
0 0 0  0 0 0  0 0 0  0 0 0  0 0 0  0 0 0
0 0 0  0 0 0  0 0 0  0 0 0  0 0 0  0 0 0
0 0 0  0 0 0  0 0 0  0 0 0  0 0 0  0 0 0
0 0 0  0 0 0  0 0 0  0 0 0  0 0 0  0 0 0
0 0 0  0 0 0  0 0 0  0 0 0  0 0 0  0 0 0
0 0 0  0 0 0  0 0 0  0 0 0  0 0 0  0 0 0
0 0 0  0 0 0  0 0 0  0 0 0  0 0 0  0 0 0
0 0 0  0 0 0  0 0 0  0 0 0  0 0 0  0 0 0
0 0 0  0 0 0  0 0 0  0 0 0  0 0 0  0 0 0
0 0 0  0 0 0  0 0 0  0 0 0  0 0 0  0 0 0
0 0 0  0 0 0  0 0 0  0 0 0  0 0 0  0 0 0
0 0 0  0 0 0  0 0 0  0 0 0  0 0 0  0 0 0
0 0 0  0 0 0  0 0 0  0 0 0  0 0 0  0 0 0
0 0 0  0 0 0  0 0 0  0 0 0  0 0 0  0 0 0
0 0 0  0 0 0  178 178 178  179 179 179  179 179 179  179 179 179
179 179 179  179 179 179  179 179 179  179 179 179  179 179 179  179 179 179
179 179 179  178 178 178  178 178 178  178 178 178  178 178 178  178 178 178
178 178 178  178 178 178  178 178 178  178 178 178  178 178 178  178 178 178
178 178 178  178 178 178  179 179 179  179 179 179  179 179 179  179 179 179
179 179 179  179 179 179  179 179 179  179 179 179  179 179 179  179 179 179
179 179 179  179 179 179  179 179 179  179 179 179  179 179 179  179 179 179
179 179 179  178 178 178  178 178 178  178 178 178  178 178 178  178 178 178
178 178 178  178 178 178  178 178 178  178 178 178  178 178 178  178 178 178
178 178 178  178 178 178  179 179 179  179 179 179  179 179 179  179 179 179
179 179 179  179 179 179  179 179 179  179 179 179  179 179 179  179 179 179
0 0 0  0 0 0  0 0 0  0 0 0  0 0 0  0 0 0
0 0 0  0 0 0  0 0 0  0 0 0  0 0 0  0 0 0
0 0 0  0 0 0  0 0 0  0 0 0  0 0 0  0 0 0
0 0 0  0 0 0  0 0 0  0 0 0  0 0 0  0 0 0
0 0 0  0 0 0  0 0 0  0 0 0  0 0 0  0 0 0
0 0 0  0 0 0  0 0 0  0 0 0  0 0 0  0 0 0
0 0 0  0 0 0  0 0 0  0 0 0  0 0 0  0 0 0
0 0 0  0 0 0  0 0 0  0 0 0  0 0 0  0 0 0
0 0 0  0 0 0  0 0 0  0 0 0  0 0 0  0 0 0
0 0 0  0 0 0  0 0 0  0 0 0  0 0 0  0 0 0
0 0 0  0 0 0  0 0 0  0 0 0  0 0 0  0 0 0
0 0 0  0 0 0  0 0 0  0 0 0  0 0 0  0 0 0
0 0 0  0 0 0  0 0 0  0 0 0  0 0 0  0 0 0
0 0 0  0 0 0  0 0 0  0 0 0  0 0 0  0 0 0
0 0 0  0 0 0  0 0 0  0 0 0  0 0 0  0 0 0
0 0 0  0 0 0  0 0 0  0 0 0  0 0 0  0 0 0
0 0 0  0 0 0  0 0 0  0 0 0  0 0 0  0 0 0
0 0 0  0 0 0  0 0 0  0 0 0  0 0 0  0 0 0
0 0 0  0 0 0  0 0 0  0 0 0  0 0 0  0 0 0
0 0 0  0 0 0  0 0 0  0 0 0  0 0 0  0 0 0
0 0 0  0 0 0  0 0 0  0 0 0  0 0 0  0 0 0
0 0 0  0 0 0  0 0 0  0 0 0  0 0 0  0 0 0
0 0 0  0 0 0  0 0 0  0 0 0  0 0 0  0 0 0
0 0 0  0 0 0  0 0 0  0 0 0  0 0 0  0 0 0
0 0 0  0 0 0  0 0 0  0 0 0  0 0 0  0 0 0
0 0 0  0 0 0  0 0 0  0 0 0  0 0 0  0 0 0
0 0 0  0 0 0  0 0 0  0 0 0  0 0 0  0 0 0
0 0 0  0 0 0  0 0 0  0 0 0  0 0 0  0 0 0
0 0 0  0 0 0  0 0 0  0 0 0  0 0 0  0 0 0
0 0 0  179 179 179  178 178 178  179 179 179  179 179 179  179 179 179
179 179 179  179 179 179  179 179 179  179 179 179  179 179 179  179 179 179
179 179 179  178 178 178  178 178 178  178 178 178  178 178 178  178 178 178
178 178 178  178 178 178  178 178 178  178 178 178  178 178 178  178 178 178
178 178 178  178 178 178  179 179 179  179 179 179  179 179 179  179 179 179
179 179 179  179 179 179  179 179 179  179 179 179  179 179 179  179 179 179
179 179 179  179 179 179  179 179 179  179 179 179  179 179 179  179 179 179
179 179 179  178 178 178  178 178 178  178 178 178  178 178 178  178 178 178
178 178 178  178 178 178  178 178 178  178 178 178  178 178 178  178 178 178
178 178 178  178 178 178  179 179 179  179 179 179  179 179 179  179 179 179
179 179 179  179 179 179  179 179 179  179 179 179  179 179 179  179 179 179
178 178 178  179 179 179  0 0 0  0 0 0  0 0 0  0 0 0
0 0 0  0 0 0  0 0 0  0 0 0  0 0 0  0 0 0
0 0 0  0 0 0  0 0 0  0 0 0  0 0 0  0 0 0
0 0 0  0 0 0  0 0 0  0 0 0  0 0 0  0 0 0
0 0 0  0 0 0  0 0 0  0 0 0  0 0 0  0 0 0
0 0 0  0 0 0  0 0 0  0 0 0  0 0 0  0 0 0
0 0 0  0 0 0  0 0 0  0 0 0  0 0 0  0 0 0
0 0 0  0 0 0  0 0 0  0 0 0  0 0 0  0 0 0
0 0 0  0 0 0  0 0 0  0 0 0  0 0 0  0 0 0
0 0 0  0 0 0  0 0 0  0 0 0  0 0 0  0 0 0
0 0 0  0 0 0  0 0 0  0 0 0  0 0 0  0 0 0
0 0 0  0 0 0  0 0 0  0 0 0  0 0 0  0 0 0
0 0 0  0 0 0  0 0 0  0 0 0  0 0 0  0 0 0
0 0 0  0 0 0  0 0 0  0 0 0  0 0 0  0 0 0
0 0 0  0 0 0  0 0 0  0 0 0  0 0 0  0 0 0
0 0 0  0 0 0  0 0 0  0 0 0  0 0 0  0 0 0
0 0 0  0 0 0  0 0 0  0 0 0  0 0 0  0 0 0
0 0 0  0 0 0  0 0 0  0 0 0  0 0 0  0 0 0
0 0 0  0 0 0  0 0 0  0 0 0  0 0 0  0 0 0
0 0 0  0 0 0  0 0 0  0 0 0  0 0 0  0 0 0
0 0 0  0 0 0  0 0 0  0 0 0  0 0 0  0 0 0
0 0 0  0 0 0  0 0 0  0 0 0  0 0 0  0 0 0
0 0 0  0 0 0  0 0 0  0 0 0  0 0 0  0 0 0
0 0 0  0 0 0  0 0 0  0 0 0  0 0 0  0 0 0
0 0 0  0 0 0  0 0 0  0 0 0  0 0 0  0 0 0
0 0 0  0 0 0  0 0 0  0 0 0  0 0 0  0 0 0
0 0 0  0 0 0  0 0 0  0 0 0  0 0 0  0 0 0
0 0 0  0 0 0  0 0 0  0 0 0  0 0 0  0 0 0
0 0 0  0 0 0  0 0 0  0 0 0  0 0 0  0 0 0
179 179 179  179 179 179  178 178 178  179 179 179  179 179 179  179 179 179
179 179 179  179 179 179  179 179 179  179 179 179  179 179 179  179 179 179
179 179 179  178 178 178  178 178 178  178 178 178  178 178 178  178 178 178
178 178 178  178 178 178  178 178 178  178 178 178  178 178 178  178 178 178
178 178 178  179 179 179  179 179 179  179 179 179  179 179 179  179 179 179
179 179 179  179 179 179  179 179 179  179 179 179  179 179 179  179 179 179
179 179 179  179 179 179  179 179 179  179 179 179  179 179 179  179 179 179
179 179 179  179 179 179  178 178 178  178 178 178  178 178 178  178 178 178
178 178 178  178 178 178  178 178 178  178 178 178  178 178 178  178 178 178
178 178 178  179 179 179  179 179 179  179 179 179  179 179 179  179 179 179
179 179 179  179 179 179  179 179 179  179 179 179  179 179 179  179 179 179
178 178 178  179 179 179  179 179 179  0 0 0  0 0 0  0 0 0
0 0 0  0 0 0  0 0 0  0 0 0  0 0 0  0 0 0
0 0 0  0 0 0  0 0 0  0 0 0  0 0 0  0 0 0
0 0 0  0 0 0  0 0 0  0 0 0  0 0 0  0 0 0
0 0 0  0 0 0  0 0 0  0 0 0  0 0 0  0 0 0
0 0 0  0 0 0  0 0 0  0 0 0  0 0 0  0 0 0
0 0 0  0 0 0  0 0 0  0 0 0  0 0 0  0 0 0
0 0 0  0 0 0  0 0 0  0 0 0  0 0 0  0 0 0
0 0 0  0 0 0  0 0 0  0 0 0  0 0 0  0 0 0
0 0 0  0 0 0  0 0 0  0 0 0  0 0 0  0 0 0
0 0 0  0 0 0  0 0 0  0 0 0  0 0 0  0 0 0
0 0 0  0 0 0  0 0 0  0 0 0  0 0 0  0 0 0
0 0 0  0 0 0  0 0 0  0 0 0  0 0 0  0 0 0
0 0 0  0 0 0  0 0 0  0 0 0  0 0 0  0 0 0
0 0 0  0 0 0  0 0 0  0 0 0  0 0 0  0 0 0
0 0 0  0 0 0  0 0 0  0 0 0  0 0 0  0 0 0
0 0 0  0 0 0  0 0 0  0 0 0  0 0 0  0 0 0
0 0 0  0 0 0  0 0 0  0 0 0  0 0 0  0 0 0
0 0 0  0 0 0  0 0 0  0 0 0  0 0 0  0 0 0
0 0 0  0 0 0  0 0 0  0 0 0  0 0 0  0 0 0
0 0 0  0 0 0  0 0 0  0 0 0  0 0 0  0 0 0
0 0 0  0 0 0  0 0 0  0 0 0  0 0 0  0 0 0
0 0 0  0 0 0  0 0 0  0 0 0  0 0 0  0 0 0
0 0 0  0 0 0  0 0 0  0 0 0  0 0 0  0 0 0
0 0 0  0 0 0  0 0 0  0 0 0  0 0 0  0 0 0
0 0 0  0 0 0  0 0 0  0 0 0  0 0 0  0 0 0
0 0 0  0 0 0  0 0 0  0 0 0  0 0 0  0 0 0
0 0 0  0 0 0  0 0 0  0 0 0  0 0 0  0 0 0
0 0 0  0 0 0  0 0 0  0 0 0  0 0 0  179 179 179
179 179 179  179 179 179  178 178 178  179 179 179  179 179 179  179 179 179
179 179 179  179 179 179  179 179 179  179 179 179  179 179 179  179 179 179
179 179 179  179 179 179  179 179 179  179 179 179  179 179 179  178 178 178
178 178 178  178 178 178  178 178 178  179 179 179  179 179 179  179 179 179
179 179 179  179 179 179  179 179 179  179 179 179  179 179 179  179 179 179
179 179 179  179 179 179  179 179 179  179 179 179  179 179 179  179 179 179
179 179 179  179 179 179  179 179 179  179 179 179  179 179 179  179 179 179
179 179 179  179 179 179  179 179 179  179 179 179  179 179 179  178 178 178
178 178 178  178 178 178  178 178 178  178 178 178  179 179 179  179 179 179
179 179 179  179 179 179  179 179 179  179 179 179  179 179 179  179 179 179
179 179 179  179 179 179  179 179 179  179 179 179  179 179 179  179 179 179
178 178 178  179 179 179  179 179 179  179 179 179  0 0 0  0 0 0
0 0 0  0 0 0  0 0 0  0 0 0  0 0 0  0 0 0
0 0 0  0 0 0  0 0 0  0 0 0  0 0 0  0 0 0
0 0 0  0 0 0  0 0 0  0 0 0  0 0 0  0 0 0
0 0 0  0 0 0  0 0 0  0 0 0  0 0 0  0 0 0
0 0 0  0 0 0  0 0 0  0 0 0  0 0 0  0 0 0
0 0 0  0 0 0  0 0 0  0 0 0  0 0 0  0 0 0
0 0 0  0 0 0  0 0 0  0 0 0  0 0 0  0 0 0
0 0 0  0 0 0  0 0 0  0 0 0  0 0 0  0 0 0
0 0 0  0 0 0  0 0 0  0 0 0  0 0 0  0 0 0
0 0 0  0 0 0  0 0 0  0 0 0  0 0 0  0 0 0
0 0 0  0 0 0  0 0 0  0 0 0  0 0 0  0 0 0
0 0 0  0 0 0  0 0 0  0 0 0  0 0 0  0 0 0
0 0 0  0 0 0  0 0 0  0 0 0  0 0 0  0 0 0
0 0 0  0 0 0  0 0 0  0 0 0  0 0 0  0 0 0
0 0 0  0 0 0  0 0 0  0 0 0  0 0 0  0 0 0
0 0 0  0 0 0  0 0 0  0 0 0  0 0 0  0 0 0
0 0 0  0 0 0  0 0 0  0 0 0  0 0 0  0 0 0
0 0 0  0 0 0  0 0 0  0 0 0  0 0 0  0 0 0
0 0 0  0 0 0  0 0 0  0 0 0  0 0 0  0 0 0
0 0 0  0 0 0  0 0 0  0 0 0  0 0 0  0 0 0
0 0 0  0 0 0  0 0 0  0 0 0  0 0 0  0 0 0
0 0 0  0 0 0  0 0 0  0 0 0  0 0 0  0 0 0
0 0 0  0 0 0  0 0 0  0 0 0  0 0 0  0 0 0
0 0 0  0 0 0  0 0 0  0 0 0  0 0 0  0 0 0
0 0 0  0 0 0  0 0 0  0 0 0  0 0 0  0 0 0
0 0 0  0 0 0  0 0 0  0 0 0  0 0 0  0 0 0
0 0 0  0 0 0  0 0 0  0 0 0  0 0 0  0 0 0
0 0 0  0 0 0  0 0 0  0 0 0  179 179 179  179 179 179
179 179 179  179 179 179  178 178 178  179 179 179  179 179 179  179 179 179
179 179 179  179 179 179  179 179 179  179 179 179  179 179 179  179 179 179
179 179 179  179 179 179  179 179 179  179 179 179  179 179 179  179 179 179
179 179 179  179 179 179  179 179 179  179 179 179  179 179 179  179 179 179
179 179 179  179 179 179  179 179 179  179 179 179  179 179 179  179 179 179
179 179 179  179 179 179  179 179 179  179 179 179  179 179 179  179 179 179
179 179 179  179 179 179  179 179 179  179 179 179  179 179 179  179 179 179
179 179 179  179 179 179  179 179 179  179 179 179  179 179 179  179 179 179
179 179 179  179 179 179  179 179 179  179 179 179  179 179 179  179 179 179
179 179 179  179 179 179  179 179 179  179 179 179  179 179 179  179 179 179
179 179 179  179 179 179  179 179 179  179 179 179  179 179 179  179 179 179
178 178 178  179 179 179  179 179 179  179 179 179  179 179 179  0 0 0
0 0 0  0 0 0  0 0 0  0 0 0  0 0 0  0 0 0
0 0 0  0 0 0  0 0 0  0 0 0  0 0 0  0 0 0
0 0 0  0 0 0  0 0 0  0 0 0  0 0 0  0 0 0
0 0 0  0 0 0  0 0 0  0 0 0  0 0 0  0 0 0
0 0 0  0 0 0  0 0 0  0 0 0  0 0 0  0 0 0
0 0 0  0 0 0  0 0 0  0 0 0  0 0 0  0 0 0
0 0 0  0 0 0  0 0 0  0 0 0  0 0 0  0 0 0
0 0 0  0 0 0  0 0 0  0 0 0  0 0 0  0 0 0
0 0 0  0 0 0  0 0 0  0 0 0  0 0 0  0 0 0
0 0 0  0 0 0  0 0 0  0 0 0  0 0 0  0 0 0
0 0 0  0 0 0  0 0 0  0 0 0  0 0 0  0 0 0
0 0 0  0 0 0  0 0 0  0 0 0  0 0 0  0 0 0
0 0 0  0 0 0  0 0 0  0 0 0  0 0 0  0 0 0
0 0 0  0 0 0  0 0 0  0 0 0  0 0 0  0 0 0
0 0 0  0 0 0  0 0 0  0 0 0  0 0 0  0 0 0
0 0 0  0 0 0  0 0 0  0 0 0  0 0 0  0 0 0
0 0 0  0 0 0  0 0 0  0 0 0  0 0 0  0 0 0
0 0 0  0 0 0  0 0 0  0 0 0  0 0 0  0 0 0
0 0 0  0 0 0  0 0 0  0 0 0  0 0 0  0 0 0
0 0 0  0 0 0  0 0 0  0 0 0  0 0 0  0 0 0
0 0 0  0 0 0  0 0 0  0 0 0  0 0 0  0 0 0
0 0 0  0 0 0  0 0 0  0 0 0  0 0 0  0 0 0
0 0 0  0 0 0  0 0 0  0 0 0  0 0 0  0 0 0
0 0 0  0 0 0  0 0 0  0 0 0  0 0 0  0 0 0
0 0 0  0 0 0  0 0 0  0 0 0  0 0 0  0 0 0
0 0 0  0 0 0  0 0 0  0 0 0  0 0 0  0 0 0
0 0 0  0 0 0  0 0 0  0 0 0  0 0 0  0 0 0
0 0 0  0 0 0  0 0 0  179 179 179  179 179 179  179 179 179
179 179 179  179 179 179  179 179 179  179 179 179  179 179 179  179 179 179
179 179 179  179 179 179  179 179 179  179 179 179  179 179 179  179 179 179
179 179 179  179 179 179  179 179 179  179 179 179  179 179 179  179 179 179
179 179 179  179 179 179  179 179 179  179 179 179  179 179 179  179 179 179
179 179 179  179 179 179  179 179 179  179 179 179  179 179 179  179 179 179
179 179 179  179 179 179  179 179 179  179 179 179  179 179 179  179 179 179
179 179 179  179 179 179  179 179 179  179 179 179  179 179 179  179 179 179
179 179 179  179 179 179  179 179 179  179 179 179  179 179 179  179 179 179
179 179 179  179 179 179  179 179 179  179 179 179  179 179 179  179 179 179
179 179 179  179 179 179  179 179 179  179 179 179  179 179 179  179 179 179
179 179 179  179 179 179  179 179 179  179 179 179  179 179 179  179 179 179
179 179 179  179 179 179  179 179 179  179 179 179  179 179 179  179 179 179
0 0 0  0 0 0  0 0 0  0 0 0  0 0 0  0 0 0
0 0 0  0 0 0  0 0 0  0 0 0  0 0 0  0 0 0
0 0 0  0 0 0  0 0 0  0 0 0  0 0 0  0 0 0
0 0 0  0 0 0  0 0 0  0 0 0  0 0 0  0 0 0
0 0 0  0 0 0  0 0 0  0 0 0  0 0 0  0 0 0
0 0 0  0 0 0  0 0 0  0 0 0  0 0 0  0 0 0
0 0 0  0 0 0  0 0 0  0 0 0  0 0 0  0 0 0
0 0 0  0 0 0  0 0 0  0 0 0  0 0 0  0 0 0
0 0 0  0 0 0  0 0 0  0 0 0  0 0 0  0 0 0
0 0 0  0 0 0  0 0 0  0 0 0  0 0 0  0 0 0
0 0 0  0 0 0  0 0 0  0 0 0  0 0 0  0 0 0
0 0 0  0 0 0  0 0 0  0 0 0  0 0 0  0 0 0
0 0 0  0 0 0  0 0 0  0 0 0  0 0 0  0 0 0
0 0 0  0 0 0  0 0 0  0 0 0  0 0 0  0 0 0
0 0 0  0 0 0  0 0 0  0 0 0  0 0 0  0 0 0
0 0 0  0 0 0  0 0 0  0 0 0  0 0 0  0 0 0
0 0 0  0 0 0  0 0 0  0 0 0  0 0 0  0 0 0
0 0 0  0 0 0  0 0 0  0 0 0  0 0 0  0 0 0
0 0 0  0 0 0  0 0 0  0 0 0  0 0 0  0 0 0
0 0 0  0 0 0  0 0 0  0 0 0  0 0 0  0 0 0
0 0 0  0 0 0  0 0 0  0 0 0  0 0 0  0 0 0
0 0 0  0 0 0  0 0 0  0 0 0  0 0 0  0 0 0
0 0 0  0 0 0  0 0 0  0 0 0  0 0 0  0 0 0
0 0 0  0 0 0  0 0 0  0 0 0  0 0 0  0 0 0
0 0 0  0 0 0  0 0 0  0 0 0  0 0 0  0 0 0
0 0 0  0 0 0  0 0 0  0 0 0  0 0 0  0 0 0
0 0 0  0 0 0  0 0 0  0 0 0  0 0 0  0 0 0
0 0 0  0 0 0  179 179 179  179 179 179  179 179 179  179 179 179
179 179 179  179 179 179  179 179 179  179 179 179  179 179 179  179 179 179
179 179 179  179 179 179  179 179 179  179 179 179  179 179 179  179 179 179
179 179 179  179 179 179  179 179 179  179 179 179  179 179 179  179 179 179
179 179 179  179 179 179  179 179 179  179 179 179  179 179 179  179 179 179
179 179 179  179 179 179  179 179 179  179 179 179  179 179 179  179 179 179
179 179 179  179 179 179  179 179 179  179 179 179  179 179 179  179 179 179
179 179 179  179 179 179  179 179 179  179 179 179  179 179 179  179 179 179
179 179 179  179 179 179  179 179 179  179 179 179  179 179 179  179 179 179
179 179 179  179 179 179  179 179 179  179 179 179  179 179 179  179 179 179
179 179 179  179 179 179  179 179 179  179 179 179  179 179 179  179 179 179
179 179 179  179 179 179  179 179 179  179 179 179  179 179 179  179 179 179
179 179 179  179 179 179  179 179 179  179 179 179  179 179 179  179 179 179
179 179 179  0 0 0  0 0 0  0 0 0  0 0 0  0 0 0
0 0 0  0 0 0  0 0 0  0 0 0  0 0 0  0 0 0
0 0 0  0 0 0  0 0 0  0 0 0  0 0 0  0 0 0
0 0 0  0 0 0  0 0 0  0 0 0  0 0 0  0 0 0
0 0 0  0 0 0  0 0 0  0 0 0  0 0 0  0 0 0
0 0 0  0 0 0  0 0 0  0 0 0  0 0 0  0 0 0
0 0 0  0 0 0  0 0 0  0 0 0  0 0 0  0 0 0
0 0 0  0 0 0  0 0 0  0 0 0  0 0 0  0 0 0
0 0 0  0 0 0  0 0 0  0 0 0  0 0 0  0 0 0
0 0 0  0 0 0  0 0 0  0 0 0  0 0 0  0 0 0
0 0 0  0 0 0  0 0 0  0 0 0  0 0 0  0 0 0
0 0 0  0 0 0  0 0 0  0 0 0  0 0 0  0 0 0
0 0 0  0 0 0  0 0 0  0 0 0  0 0 0  0 0 0
0 0 0  0 0 0  0 0 0  0 0 0  0 0 0  0 0 0
0 0 0  0 0 0  0 0 0  0 0 0  0 0 0  0 0 0
0 0 0  0 0 0  0 0 0  0 0 0  0 0 0  0 0 0
0 0 0  0 0 0  0 0 0  0 0 0  0 0 0  0 0 0
0 0 0  0 0 0  0 0 0  0 0 0  0 0 0  0 0 0
0 0 0  0 0 0  0 0 0  0 0 0  0 0 0  0 0 0
0 0 0  0 0 0  0 0 0  0 0 0  0 0 0  0 0 0
0 0 0  0 0 0  0 0 0  0 0 0  0 0 0  0 0 0
0 0 0  0 0 0  0 0 0  0 0 0  0 0 0  0 0 0
0 0 0  0 0 0  0 0 0  0 0 0  0 0 0  0 0 0
0 0 0  0 0 0  0 0 0  0 0 0  0 0 0  0 0 0
0 0 0  0 0 0  0 0 0  0 0 0  0 0 0  0 0 0
0 0 0  0 0 0  0 0 0  0 0 0  0 0 0  0 0 0
0 0 0  0 0 0  0 0 0  0 0 0  0 0 0  0 0 0
0 0 0  179 179 179  179 179 179  179 179 179  179 179 179  179 179 179
179 179 179  179 179 179  179 179 179  179 179 179  179 179 179  179 179 179
179 179 179  179 179 179  179 179 179  179 179 179  179 179 179  179 179 179
179 179 179  179 179 179  179 179 179  179 179 179  179 179 179  179 179 179
179 179 179  179 179 179  179 179 179  179 179 179  179 179 179  179 179 179
179 179 179  179 179 179  179 179 179  179 179 179  179 179 179  179 179 179
179 179 179  179 179 179  179 179 179  179 179 179  179 179 179  179 179 179
179 179 179  179 179 179  179 179 179  179 179 179  179 179 179  179 179 179
179 179 179  179 179 179  179 179 179  179 179 179  179 179 179  179 179 179
179 179 179  179 179 179  179 179 179  179 179 179  179 179 179  179 179 179
179 179 179  179 179 179  179 179 179  179 179 179  179 179 179  179 179 179
179 179 179  179 179 179  179 179 179  179 179 179  179 179 179  179 179 179
179 179 179  179 179 179  179 179 179  179 179 179  179 179 179  179 179 179
179 179 179  0 0 0  0 0 0  0 0 0  0 0 0  0 0 0
0 0 0  0 0 0  0 0 0  0 0 0  0 0 0  0 0 0
0 0 0  0 0 0  0 0 0  0 0 0  0 0 0  0 0 0
0 0 0  0 0 0  0 0 0  0 0 0  0 0 0  0 0 0
0 0 0  0 0 0  0 0 0  0 0 0  0 0 0  0 0 0
0 0 0  0 0 0  0 0 0  0 0 0  0 0 0  0 0 0
0 0 0  0 0 0  0 0 0  0 0 0  0 0 0  0 0 0
0 0 0  0 0 0  0 0 0  0 0 0  0 0 0  0 0 0
0 0 0  0 0 0  0 0 0  0 0 0  0 0 0  0 0 0
0 0 0  0 0 0  0 0 0  0 0 0  0 0 0  0 0 0
0 0 0  0 0 0  0 0 0  0 0 0  0 0 0  0 0 0
0 0 0  0 0 0  0 0 0  0 0 0  0 0 0  0 0 0
0 0 0  0 0 0  0 0 0  0 0 0  0 0 0  0 0 0
0 0 0  0 0 0  0 0 0  0 0 0  0 0 0  0 0 0
0 0 0  0 0 0  0 0 0  0 0 0  0 0 0  0 0 0
0 0 0  0 0 0  0 0 0  0 0 0  0 0 0  0 0 0
0 0 0  0 0 0  0 0 0  0 0 0  0 0 0  0 0 0
0 0 0  0 0 0  0 0 0  0 0 0  0 0 0  0 0 0
0 0 0  0 0 0  0 0 0  0 0 0  0 0 0  0 0 0
0 0 0  0 0 0  0 0 0  0 0 0  0 0 0  0 0 0
0 0 0  0 0 0  0 0 0  0 0 0  0 0 0  0 0 0
0 0 0  0 0 0  0 0 0  0 0 0  0 0 0  0 0 0
0 0 0  0 0 0  0 0 0  0 0 0  0 0 0  0 0 0
0 0 0  0 0 0  0 0 0  0 0 0  0 0 0  0 0 0
0 0 0  0 0 0  0 0 0  0 0 0  0 0 0  0 0 0
0 0 0  0 0 0  0 0 0  0 0 0  0 0 0  0 0 0
0 0 0  0 0 0  0 0 0  0 0 0  0 0 0  0 0 0
0 0 0  179 179 179  179 179 179  179 179 179  179 179 179  179 179 179
179 179 179  179 179 179  179 179 179  179 179 179  179 179 179  179 179 179
179 179 179  179 179 179  179 179 179  179 179 179  179 179 179  179 179 179
179 179 179  179 179 179  179 179 179  179 179 179  179 179 179  179 179 179
179 179 179  179 179 179  179 179 179  179 179 179  179 179 179  179 179 179
179 179 179  179 179 179  179 179 179  179 179 179  179 179 179  179 179 179
179 179 179  179 179 179  179 179 179  179 179 179  179 179 179  179 179 179
179 179 179  179 179 179  179 179 179  179 179 179  179 179 179  179 179 179
179 179 179  179 179 179  179 179 179  179 179 179  179 179 179  179 179 179
179 179 179  179 179 179  179 179 179  179 179 179  179 179 179  179 179 179
179 179 179  179 179 179  179 179 179  179 179 179  179 179 179  179 179 179
179 179 179  179 179 179  179 179 179  179 179 179  179 179 179  179 179 179
179 179 179  179 179 179  179 179 179  179 179 179  179 179 179  179 179 179
179 179 179  179 179 179  0 0 0  0 0 0  0 0 0  0 0 0
0 0 0  0 0 0  0 0 0  0 0 0  0 0 0  0 0 0
0 0 0  0 0 0  0 0 0  0 0 0  0 0 0  0 0 0
0 0 0  0 0 0  0 0 0  0 0 0  0 0 0  0 0 0
0 0 0  0 0 0  0 0 0  0 0 0  0 0 0  0 0 0
0 0 0  0 0 0  0 0 0  0 0 0  0 0 0  0 0 0
0 0 0  0 0 0  0 0 0  0 0 0  0 0 0  0 0 0
0 0 0  0 0 0  0 0 0  0 0 0  0 0 0  0 0 0
0 0 0  0 0 0  0 0 0  0 0 0  0 0 0  0 0 0
0 0 0  0 0 0  0 0 0  0 0 0  0 0 0  0 0 0
0 0 0  0 0 0  0 0 0  0 0 0  0 0 0  0 0 0
0 0 0  0 0 0  0 0 0  0 0 0  0 0 0  0 0 0
0 0 0  0 0 0  0 0 0  0 0 0  0 0 0  0 0 0
0 0 0  0 0 0  0 0 0  0 0 0  0 0 0  0 0 0
0 0 0  0 0 0  0 0 0  0 0 0  0 0 0  0 0 0
0 0 0  0 0 0  0 0 0  0 0 0  0 0 0  0 0 0
0 0 0  0 0 0  0 0 0  0 0 0  0 0 0  0 0 0
0 0 0  0 0 0  0 0 0  0 0 0  0 0 0  0 0 0
0 0 0  0 0 0  0 0 0  0 0 0  0 0 0  0 0 0
0 0 0  0 0 0  0 0 0  0 0 0  0 0 0  0 0 0
0 0 0  0 0 0  0 0 0  0 0 0  0 0 0  0 0 0
0 0 0  0 0 0  0 0 0  0 0 0  0 0 0  0 0 0
0 0 0  0 0 0  0 0 0  0 0 0  0 0 0  0 0 0
0 0 0  0 0 0  0 0 0  0 0 0  0 0 0  0 0 0
0 0 0  0 0 0  0 0 0  0 0 0  0 0 0  0 0 0
0 0 0  0 0 0  0 0 0  0 0 0  0 0 0  0 0 0
0 0 0  0 0 0  0 0 0  0 0 0  0 0 0  0 0 0
179 179 179  179 179 179  179 179 179  179 179 179  179 179 179  179 179 179
179 179 179  179 179 179  179 179 179  179 179 179  179 179 179  179 179 179
179 179 179  179 179 179  179 179 179  179 179 179  179 179 179  179 179 179
179 179 179  179 179 179  179 179 179  179 179 179  179 179 179  179 179 179
179 179 179  179 179 179  179 179 179  179 179 179  179 179 179  179 179 179
179 179 179  179 179 179  179 179 179  179 179 179  179 179 179  179 179 179
179 179 179  179 179 179  179 179 179  179 179 179  179 179 179  179 179 179
179 179 179  179 179 179  179 179 179  179 179 179  179 179 179  179 179 179
179 179 179  179 179 179  179 179 179  179 179 179  179 179 179  179 179 179
179 179 179  179 179 179  179 179 179  179 179 179  179 179 179  179 179 179
179 179 179  179 179 179  179 179 179  179 179 179  179 179 179  179 179 179
179 179 179  179 179 179  179 179 179  179 179 179  179 179 179  179 179 179
179 179 179  179 179 179  179 179 179  179 179 179  179 179 179  179 179 179
179 179 179  179 179 179  179 179 179  0 0 0  0 0 0  0 0 0
0 0 0  0 0 0  0 0 0  0 0 0  0 0 0  0 0 0
0 0 0  0 0 0  0 0 0  0 0 0  0 0 0  0 0 0
0 0 0  0 0 0  0 0 0  0 0 0  0 0 0  0 0 0
0 0 0  0 0 0  0 0 0  0 0 0  0 0 0  0 0 0
0 0 0  0 0 0  0 0 0  0 0 0  0 0 0  0 0 0
0 0 0  0 0 0  0 0 0  0 0 0  0 0 0  0 0 0
0 0 0  0 0 0  0 0 0  0 0 0  0 0 0  0 0 0
0 0 0  0 0 0  0 0 0  0 0 0  0 0 0  0 0 0
0 0 0  0 0 0  0 0 0  0 0 0  0 0 0  0 0 0
0 0 0  0 0 0  0 0 0  0 0 0  0 0 0  0 0 0
0 0 0  0 0 0  0 0 0  0 0 0  0 0 0  0 0 0
0 0 0  0 0 0  0 0 0  0 0 0  0 0 0  0 0 0
0 0 0  0 0 0  0 0 0  0 0 0  0 0 0  0 0 0
0 0 0  0 0 0  0 0 0  0 0 0  0 0 0  0 0 0
0 0 0  0 0 0  0 0 0  0 0 0  0 0 0  0 0 0
0 0 0  0 0 0  0 0 0  0 0 0  0 0 0  0 0 0
0 0 0  0 0 0  0 0 0  0 0 0  0 0 0  0 0 0
0 0 0  0 0 0  0 0 0  0 0 0  0 0 0  0 0 0
0 0 0  0 0 0  0 0 0  0 0 0  0 0 0  0 0 0
0 0 0  0 0 0  0 0 0  0 0 0  0 0 0  0 0 0
0 0 0  0 0 0  0 0 0  0 0 0  0 0 0  0 0 0
0 0 0  0 0 0  0 0 0  0 0 0  0 0 0  0 0 0
0 0 0  0 0 0  0 0 0  0 0 0  0 0 0  0 0 0
0 0 0  0 0 0  0 0 0  0 0 0  0 0 0  0 0 0
0 0 0  0 0 0  0 0 0  0 0 0  0 0 0  0 0 0
0 0 0  0 0 0  0 0 0  0 0 0  0 0 0  0 0 0
179 179 179  179 179 179  179 179 179  179 179 179  179 179 179  179 179 179
179 179 179  179 179 179  179 179 179  179 179 179  179 179 179  179 179 179
179 179 179  179 179 179  179 179 179  179 179 179  179 179 179  179 179 179
179 179 179  179 179 179  179 179 179  179 179 179  179 179 179  179 179 179
179 179 179  179 179 179  179 179 179  179 179 179  179 179 179  179 179 179
179 179 179  179 179 179  179 179 179  179 179 179  179 179 179  179 179 179
179 179 179  179 179 179  179 179 179  179 179 179  179 179 179  179 179 179
179 179 179  179 179 179  179 179 179  179 179 179  179 179 179  179 179 179
179 179 179  179 179 179  179 179 179  179 179 179  179 179 179  179 179 179
179 179 179  179 179 179  179 179 179  179 179 179  179 179 179  179 179 179
179 179 179  179 179 179  179 179 179  179 179 179  179 179 179  179 179 179
179 179 179  179 179 179  179 179 179  179 179 179  179 179 179  179 179 179
179 179 179  179 179 179  179 179 179  179 179 179  179 179 179  179 179 179
179 179 179  179 179 179  179 179 179  0 0 0  0 0 0  0 0 0
0 0 0  0 0 0  0 0 0  0 0 0  0 0 0  0 0 0
0 0 0  0 0 0  0 0 0  0 0 0  0 0 0  0 0 0
0 0 0  0 0 0  0 0 0  0 0 0  0 0 0  0 0 0
0 0 0  0 0 0  0 0 0  0 0 0  0 0 0  0 0 0
0 0 0  0 0 0  0 0 0  0 0 0  0 0 0  0 0 0
0 0 0  0 0 0  0 0 0  0 0 0  0 0 0  0 0 0
0 0 0  0 0 0  0 0 0  0 0 0  0 0 0  0 0 0
0 0 0  0 0 0  0 0 0  0 0 0  0 0 0  0 0 0
0 0 0  0 0 0  0 0 0  0 0 0  0 0 0  0 0 0
0 0 0  0 0 0  0 0 0  0 0 0  0 0 0  0 0 0
0 0 0  0 0 0  0 0 0  0 0 0  0 0 0  0 0 0
0 0 0  0 0 0  0 0 0  0 0 0  0 0 0  0 0 0
0 0 0  0 0 0  0 0 0  0 0 0  0 0 0  0 0 0
0 0 0  0 0 0  0 0 0  0 0 0  0 0 0  0 0 0
0 0 0  0 0 0  0 0 0  0 0 0  0 0 0  0 0 0
0 0 0  0 0 0  0 0 0  0 0 0  0 0 0  0 0 0
0 0 0  0 0 0  0 0 0  0 0 0  0 0 0  0 0 0
0 0 0  0 0 0  0 0 0  0 0 0  0 0 0  0 0 0
0 0 0  0 0 0  0 0 0  0 0 0  0 0 0  0 0 0
0 0 0  0 0 0  0 0 0  0 0 0  0 0 0  0 0 0
0 0 0  0 0 0  0 0 0  0 0 0  0 0 0  0 0 0
0 0 0  0 0 0  0 0 0  0 0 0  0 0 0  0 0 0
0 0 0  0 0 0  0 0 0  0 0 0  0 0 0  0 0 0
0 0 0  0 0 0  0 0 0  0 0 0  0 0 0  0 0 0
0 0 0  0 0 0  0 0 0  0 0 0  0 0 0  0 0 0
0 0 0  0 0 0  0 0 0  0 0 0  0 0 0  179 179 179
179 179 179  179 179 179  179 179 179  179 179 179  179 179 179  179 179 179
179 179 179  179 179 179  179 179 179  179 179 179  179 179 179  179 179 179
179 179 179  179 179 179  179 179 179  179 179 179  179 179 179  179 179 179
179 179 179  179 179 179  179 179 179  179 179 179  179 179 179  179 179 179
179 179 179  179 179 179  179 179 179  179 179 179  179 179 179  179 179 179
179 179 179  179 179 179  179 179 179  179 179 179  179 179 179  179 179 179
179 179 179  179 179 179  179 179 179  179 179 179  179 179 179  179 179 179
179 179 179  179 179 179  179 179 179  179 179 179  179 179 179  179 179 179
179 179 179  179 179 179  179 179 179  179 179 179  179 179 179  177 177 177
176 176 176  179 179 179  179 179 179  179 179 179  179 179 179  179 179 179
179 179 179  179 179 179  179 179 179  179 179 179  179 179 179  179 179 179
179 179 179  179 179 179  179 179 179  179 179 179  179 179 179  179 179 179
179 179 179  179 179 179  179 179 179  179 179 179  179 179 179  179 179 179
179 179 179  179 179 179  179 179 179  179 179 179  0 0 0  0 0 0
0 0 0  0 0 0  0 0 0  0 0 0  0 0 0  0 0 0
0 0 0  0 0 0  0 0 0  0 0 0  0 0 0  0 0 0
0 0 0  0 0 0  0 0 0  0 0 0  0 0 0  0 0 0
0 0 0  0 0 0  0 0 0  0 0 0  0 0 0  0 0 0
0 0 0  0 0 0  0 0 0  0 0 0  0 0 0  0 0 0
0 0 0  0 0 0  0 0 0  0 0 0  0 0 0  0 0 0
0 0 0  0 0 0  0 0 0  0 0 0  0 0 0  0 0 0
0 0 0  0 0 0  0 0 0  0 0 0  0 0 0  0 0 0
0 0 0  0 0 0  0 0 0  0 0 0  0 0 0  0 0 0
0 0 0  0 0 0  0 0 0  0 0 0  0 0 0  0 0 0
0 0 0  0 0 0  0 0 0  0 0 0  0 0 0  0 0 0
0 0 0  0 0 0  0 0 0  0 0 0  0 0 0  0 0 0
0 0 0  0 0 0  0 0 0  0 0 0  0 0 0  0 0 0
0 0 0  0 0 0  0 0 0  0 0 0  0 0 0  0 0 0
0 0 0  0 0 0  0 0 0  0 0 0  0 0 0  0 0 0
0 0 0  0 0 0  0 0 0  0 0 0  0 0 0  0 0 0
0 0 0  0 0 0  0 0 0  0 0 0  0 0 0  0 0 0
0 0 0  0 0 0  0 0 0  0 0 0  0 0 0  0 0 0
0 0 0  0 0 0  0 0 0  0 0 0  0 0 0  0 0 0
0 0 0  0 0 0  0 0 0  0 0 0  0 0 0  0 0 0
0 0 0  0 0 0  0 0 0  0 0 0  0 0 0  0 0 0
0 0 0  0 0 0  0 0 0  0 0 0  0 0 0  0 0 0
0 0 0  0 0 0  0 0 0  0 0 0  0 0 0  0 0 0
0 0 0  0 0 0  0 0 0  0 0 0  0 0 0  0 0 0
0 0 0  0 0 0  0 0 0  0 0 0  0 0 0  0 0 0
0 0 0  0 0 0  0 0 0  0 0 0  0 0 0  179 179 179
179 179 179  179 179 179  179 179 179  179 179 179  179 179 179  179 179 179
179 179 179  179 179 179  179 179 179  179 179 179  179 179 179  179 179 179
179 179 179  179 179 179  179 179 179  179 179 179  179 179 179  179 179 179
179 179 179  179 179 179  179 179 179  171 171 171  171 171 171  175 175 175
163 162 163  172 172 172  163 162 163  179 179 179  179 179 179  179 179 179
173 173 173  179 179 179  179 179 179  179 179 179  179 179 179  179 179 179
179 179 179  179 179 179  179 179 179  179 179 179  179 179 179  179 179 179
179 179 179  179 179 179  179 179 179  179 179 179  179 179 179  179 179 179
179 179 179  179 179 179  174 174 174  178 178 178  179 179 179  179 179 179
173 173 173  163 162 163  176 176 176  179 179 179  179 179 179  179 179 179
175 175 175  177 177 177  179 179 179  179 179 179  179 179 179  179 179 179
179 179 179  179 179 179  179 179 179  179 179 179  179 179 179  179 179 179
179 179 179  179 179 179  179 179 179  179 179 179  179 179 179  179 179 179
179 179 179  179 179 179  179 179 179  179 179 179  0 0 0  0 0 0
0 0 0  0 0 0  0 0 0  0 0 0  0 0 0  0 0 0
0 0 0  0 0 0  0 0 0  0 0 0  0 0 0  0 0 0
0 0 0  0 0 0  0 0 0  0 0 0  0 0 0  0 0 0
0 0 0  0 0 0  0 0 0  0 0 0  0 0 0  0 0 0
0 0 0  0 0 0  0 0 0  0 0 0  0 0 0  0 0 0
0 0 0  0 0 0  0 0 0  0 0 0  0 0 0  0 0 0
0 0 0  0 0 0  0 0 0  0 0 0  0 0 0  0 0 0
0 0 0  0 0 0  0 0 0  0 0 0  0 0 0  0 0 0
0 0 0  0 0 0  0 0 0  0 0 0  0 0 0  0 0 0
0 0 0  0 0 0  0 0 0  0 0 0  0 0 0  0 0 0
0 0 0  0 0 0  0 0 0  0 0 0  0 0 0  0 0 0
0 0 0  0 0 0  0 0 0  0 0 0  0 0 0  0 0 0
0 0 0  0 0 0  0 0 0  0 0 0  0 0 0  0 0 0
0 0 0  0 0 0  0 0 0  0 0 0  0 0 0  0 0 0
0 0 0  0 0 0  0 0 0  0 0 0  0 0 0  0 0 0
0 0 0  0 0 0  0 0 0  0 0 0  0 0 0  0 0 0
0 0 0  0 0 0  0 0 0  0 0 0  0 0 0  0 0 0
0 0 0  0 0 0  0 0 0  0 0 0  0 0 0  0 0 0
0 0 0  0 0 0  0 0 0  0 0 0  0 0 0  0 0 0
0 0 0  0 0 0  0 0 0  0 0 0  0 0 0  0 0 0
0 0 0  0 0 0  0 0 0  0 0 0  0 0 0  0 0 0
0 0 0  0 0 0  0 0 0  0 0 0  0 0 0  0 0 0
0 0 0  0 0 0  0 0 0  0 0 0  0 0 0  0 0 0
0 0 0  0 0 0  0 0 0  0 0 0  0 0 0  0 0 0
0 0 0  0 0 0  0 0 0  0 0 0  0 0 0  0 0 0
0 0 0  0 0 0  0 0 0  0 0 0  179 179 179  179 179 179
179 179 179  179 179 179  179 179 179  179 179 179  179 179 179  179 179 179
179 179 179  179 179 179  179 179 179  179 179 179  179 179 179  179 179 179
179 179 179  179 179 179  179 179 179  179 179 179  179 179 179  179 179 179
179 179 179  156 155 155  109 108 108  48 46 45  28 25 26  21 19 20
20 18 19  19 16 17  20 19 18  25 22 23  38 37 36  86 84 84
145 145 145  178 178 178  179 179 179  179 179 179  179 179 179  179 179 179
179 179 179  179 179 179  179 179 179  179 179 179  179 179 179  179 179 179
179 179 179  179 179 179  179 179 179  179 179 179  179 179 179  179 179 179
179 179 179  165 165 164  119 118 118  63 60 61  32 29 29  22 20 19
19 16 17  18 17 16  19 18 18  21 19 20  33 31 31  65 64 64
129 128 129  171 171 171  179 179 179  179 179 179  179 179 179  179 179 179
179 179 179  179 179 179  179 179 179  179 179 179  179 179 179  179 179 179
179 179 179  179 179 179  179 179 179  179 179 179  179 179 179  179 179 179
179 179 179  179 179 179  179 179 179  179 179 179  179 179 179  0 0 0
0 0 0  0 0 0  0 0 0  0 0 0  0 0 0  0 0 0
0 0 0  0 0 0  0 0 0  0 0 0  0 0 0  0 0 0
0 0 0  0 0 0  0 0 0  0 0 0  0 0 0  0 0 0
0 0 0  0 0 0  0 0 0  0 0 0  0 0 0  0 0 0
0 0 0  0 0 0  0 0 0  0 0 0  0 0 0  0 0 0
0 0 0  0 0 0  0 0 0  0 0 0  0 0 0  0 0 0
0 0 0  0 0 0  0 0 0  0 0 0  0 0 0  0 0 0
0 0 0  0 0 0  0 0 0  0 0 0  0 0 0  0 0 0
0 0 0  0 0 0  0 0 0  0 0 0  0 0 0  0 0 0
0 0 0  0 0 0  0 0 0  0 0 0  0 0 0  0 0 0
0 0 0  0 0 0  0 0 0  0 0 0  0 0 0  0 0 0
0 0 0  0 0 0  0 0 0  0 0 0  0 0 0  0 0 0
0 0 0  0 0 0  0 0 0  0 0 0  0 0 0  0 0 0
0 0 0  0 0 0  0 0 0  0 0 0  0 0 0  0 0 0
0 0 0  0 0 0  0 0 0  0 0 0  0 0 0  0 0 0
0 0 0  0 0 0  0 0 0  0 0 0  0 0 0  0 0 0
0 0 0  0 0 0  0 0 0  0 0 0  0 0 0  0 0 0
0 0 0  0 0 0  0 0 0  0 0 0  0 0 0  0 0 0
0 0 0  0 0 0  0 0 0  0 0 0  0 0 0  0 0 0
0 0 0  0 0 0  0 0 0  0 0 0  0 0 0  0 0 0
0 0 0  0 0 0  0 0 0  0 0 0  0 0 0  0 0 0
0 0 0  0 0 0  0 0 0  0 0 0  0 0 0  0 0 0
0 0 0  0 0 0  0 0 0  0 0 0  0 0 0  0 0 0
0 0 0  0 0 0  0 0 0  0 0 0  0 0 0  0 0 0
0 0 0  0 0 0  0 0 0  0 0 0  0 0 0  0 0 0
0 0 0  0 0 0  0 0 0  0 0 0  179 179 179  179 179 179
179 179 179  179 179 179  179 179 179  179 179 179  179 179 179  179 179 179
179 179 179  179 179 179  179 179 179  179 179 179  179 179 179  179 179 179
179 179 179  179 179 179  179 179 179  179 179 179  179 179 179  167 167 167
92 90 91  39 34 34  22 17 18  23 18 19  24 20 21  24 19 20
26 22 21  26 22 21  25 21 20  23 20 18  19 17 16  17 15 13
28 25 26  74 72 73  157 157 157  179 179 179  179 179 179  179 179 179
179 179 179  179 179 179  179 179 179  179 179 179  179 179 179  179 179 179
179 179 179  179 179 179  179 179 179  179 179 179  179 179 179  176 176 176
119 118 118  47 43 44  24 19 20  22 17 18  24 20 19  24 20 19
25 21 20  25 21 20  26 22 21  24 20 19  22 19 18  19 16 17
23 21 22  55 52 53  145 145 145  179 179 179  179 179 179  179 179 179
179 179 179  179 179 179  179 179 179  179 179 179  179 179 179  179 179 179
179 179 179  179 179 179  179 179 179  179 179 179  179 179 179  179 179 179
179 179 179  179 179 179  179 179 179  179 179 179  179 179 179  0 0 0
0 0 0  0 0 0  0 0 0  0 0 0  0 0 0  0 0 0
0 0 0  0 0 0  0 0 0  0 0 0  0 0 0  0 0 0
0 0 0  0 0 0  0 0 0  0 0 0  0 0 0  0 0 0
0 0 0  0 0 0  0 0 0  0 0 0  0 0 0  0 0 0
0 0 0  0 0 0  0 0 0  0 0 0  0 0 0  0 0 0
0 0 0  0 0 0  0 0 0  0 0 0  0 0 0  0 0 0
0 0 0  0 0 0  0 0 0  0 0 0  0 0 0  0 0 0
0 0 0  0 0 0  0 0 0  0 0 0  0 0 0  0 0 0
0 0 0  0 0 0  0 0 0  0 0 0  0 0 0  0 0 0
0 0 0  0 0 0  0 0 0  0 0 0  0 0 0  0 0 0
0 0 0  0 0 0  0 0 0  0 0 0  0 0 0  0 0 0
0 0 0  0 0 0  0 0 0  0 0 0  0 0 0  0 0 0
0 0 0  0 0 0  0 0 0  0 0 0  0 0 0  0 0 0
0 0 0  0 0 0  0 0 0  0 0 0  0 0 0  0 0 0
0 0 0  0 0 0  0 0 0  0 0 0  0 0 0  0 0 0
0 0 0  0 0 0  0 0 0  0 0 0  0 0 0  0 0 0
0 0 0  0 0 0  0 0 0  0 0 0  0 0 0  0 0 0
0 0 0  0 0 0  0 0 0  0 0 0  0 0 0  0 0 0
0 0 0  0 0 0  0 0 0  0 0 0  0 0 0  0 0 0
0 0 0  0 0 0  0 0 0  0 0 0  0 0 0  0 0 0
0 0 0  0 0 0  0 0 0  0 0 0  0 0 0  0 0 0
0 0 0  0 0 0  0 0 0  0 0 0  0 0 0  0 0 0
0 0 0  0 0 0  0 0 0  0 0 0  0 0 0  0 0 0
0 0 0  0 0 0  0 0 0  0 0 0  0 0 0  0 0 0
0 0 0  0 0 0  0 0 0  0 0 0  0 0 0  0 0 0
0 0 0  0 0 0  0 0 0  179 179 179  179 179 179  179 179 179
179 179 179  179 179 179  179 179 179  179 179 179  179 179 179  179 179 179
179 179 179  179 179 179  179 179 179  179 179 179  179 179 179  179 179 179
179 179 179  179 179 179  179 179 179  179 179 179  157 157 157  60 56 57
23 19 20  22 19 19  26 23 23  32 29 28  34 31 30  35 31 30
36 32 31  35 32 31  35 31 29  35 31 29  30 28 26  27 25 23
21 19 20  18 16 17  43 42 42  142 141 141  179 179 179  179 179 179
179 179 179  179 179 179  179 179 179  179 179 179  179 179 179  179 179 179
179 179 179  179 179 179  179 179 179  179 179 179  179 179 179  95 95 95
28 25 24  19 16 16  24 21 22  31 27 26  34 30 29  35 31 30
34 31 30  34 31 30  35 32 31  33 29 28  33 29 28  29 26 25
24 21 22  17 15 16  33 30 30  119 118 118  179 179 179  179 179 179
179 179 179  179 179 179  179 179 179  179 179 179  179 179 179  179 179 179
179 179 179  179 179 179  179 179 179  179 179 179  179 179 179  179 179 179
179 179 179  179 179 179  179 179 179  179 179 179  179 179 179  0 0 0
0 0 0  0 0 0  0 0 0  0 0 0  0 0 0  0 0 0
0 0 0  0 0 0  0 0 0  0 0 0  0 0 0  0 0 0
0 0 0  0 0 0  0 0 0  0 0 0  0 0 0  0 0 0
0 0 0  0 0 0  0 0 0  0 0 0  0 0 0  0 0 0
0 0 0  0 0 0  0 0 0  0 0 0  0 0 0  0 0 0
0 0 0  0 0 0  0 0 0  0 0 0  0 0 0  0 0 0
0 0 0  0 0 0  0 0 0  0 0 0  0 0 0  0 0 0
0 0 0  0 0 0  0 0 0  0 0 0  0 0 0  0 0 0
0 0 0  0 0 0  0 0 0  0 0 0  0 0 0  0 0 0
0 0 0  0 0 0  0 0 0  0 0 0  0 0 0  0 0 0
0 0 0  0 0 0  0 0 0  0 0 0  0 0 0  0 0 0
0 0 0  0 0 0  0 0 0  0 0 0  0 0 0  0 0 0
0 0 0  0 0 0  0 0 0  0 0 0  0 0 0  0 0 0
0 0 0  0 0 0  0 0 0  0 0 0  0 0 0  0 0 0
0 0 0  0 0 0  0 0 0  0 0 0  0 0 0  0 0 0
0 0 0  0 0 0  0 0 0  0 0 0  0 0 0  0 0 0
0 0 0  0 0 0  0 0 0  0 0 0  0 0 0  0 0 0
0 0 0  0 0 0  0 0 0  0 0 0  0 0 0  0 0 0
0 0 0  0 0 0  0 0 0  0 0 0  0 0 0  0 0 0
0 0 0  0 0 0  0 0 0  0 0 0  0 0 0  0 0 0
0 0 0  0 0 0  0 0 0  0 0 0  0 0 0  0 0 0
0 0 0  0 0 0  0 0 0  0 0 0  0 0 0  0 0 0
0 0 0  0 0 0  0 0 0  0 0 0  0 0 0  0 0 0
0 0 0  0 0 0  0 0 0  0 0 0  0 0 0  0 0 0
0 0 0  0 0 0  0 0 0  0 0 0  0 0 0  0 0 0
0 0 0  0 0 0  0 0 0  179 179 179  179 179 179  179 179 179
179 179 179  179 179 179  179 179 179  179 179 179  179 179 179  179 179 179
179 179 179  179 179 179  179 179 179  179 179 179  179 179 179  179 179 179
179 179 179  179 179 179  179 179 179  170 169 169  60 56 57  21 16 16
25 21 20  32 28 27  36 32 31  35 31 30  32 28 27  29 25 24
27 23 22  29 25 24  28 24 23  33 29 28  35 31 29  36 32 31
33 30 29  27 24 24  18 16 17  38 37 36  142 141 141  179 179 179
179 179 179  179 179 179  179 179 179  179 179 179  179 179 179  179 179 179
179 179 179  179 179 179  179 179 179  179 179 179  119 118 118  26 21 22
21 18 17  30 26 25  35 31 30  35 31 30  33 29 28  29 25 24
26 23 22  26 23 22  27 25 23  30 26 25  34 30 29  36 32 31
33 29 28  29 26 25  19 15 14  29 25 24  114 114 114  179 179 179
179 179 179  179 179 179  179 179 179  179 179 179  179 179 179  179 179 179
179 179 179  179 179 179  179 179 179  179 179 179  179 179 179  179 179 179
179 179 179  179 179 179  179 179 179  179 179 179  179 179 179  0 0 0
0 0 0  0 0 0  0 0 0  0 0 0  0 0 0  0 0 0
0 0 0  0 0 0  0 0 0  0 0 0  0 0 0  0 0 0
0 0 0  0 0 0  0 0 0  0 0 0  0 0 0  0 0 0
0 0 0  0 0 0  0 0 0  0 0 0  0 0 0  0 0 0
0 0 0  0 0 0  0 0 0  0 0 0  0 0 0  0 0 0
0 0 0  0 0 0  0 0 0  0 0 0  0 0 0  0 0 0
0 0 0  0 0 0  0 0 0  0 0 0  0 0 0  0 0 0
0 0 0  0 0 0  0 0 0  0 0 0  0 0 0  0 0 0
0 0 0  0 0 0  0 0 0  0 0 0  0 0 0  0 0 0
0 0 0  0 0 0  0 0 0  0 0 0  0 0 0  170 169 169
168 168 168  167 167 167  166 166 166  165 165 164  165 165 164  165 165 164
165 165 164  165 165 164  165 165 164  166 166 166  167 167 167  169 169 169
170 169 169  0 0 0  0 0 0  0 0 0  0 0 0  0 0 0
0 0 0  0 0 0  0 0 0  0 0 0  0 0 0  0 0 0
0 0 0  0 0 0  0 0 0  0 0 0  0 0 0  0 0 0
0 0 0  0 0 0  0 0 0  0 0 0  0 0 0  0 0 0
0 0 0  0 0 0  0 0 0  0 0 0  0 0 0  0 0 0
0 0 0  0 0 0  0 0 0  0 0 0  0 0 0  0 0 0
0 0 0  0 0 0  0 0 0  0 0 0  0 0 0  0 0 0
0 0 0  0 0 0  0 0 0  0 0 0  0 0 0  0 0 0
0 0 0  0 0 0  0 0 0  0 0 0  0 0 0  0 0 0
0 0 0  0 0 0  0 0 0  0 0 0  0 0 0  0 0 0
0 0 0  0 0 0  0 0 0  0 0 0  0 0 0  0 0 0
0 0 0  0 0 0  0 0 0  0 0 0  0 0 0  0 0 0
0 0 0  0 0 0  0 0 0  0 0 0  0 0 0  0 0 0
0 0 0  0 0 0  0 0 0  179 179 179  179 179 179  179 179 179
179 179 179  179 179 179  179 179 179  179 179 179  179 179 179  179 179 179
179 179 179  179 179 179  179 179 179  179 179 179  179 179 179  179 179 179
179 179 179  179 179 179  179 179 179  99 97 97  22 17 18  22 18 17
34 31 30  35 31 30  33 29 28  26 22 21  23 19 18  21 17 16
23 18 17  25 21 20  22 17 18  21 18 17  27 23 22  33 30 29
35 31 30  35 31 30  27 24 24  20 16 18  55 52 53  169 169 169
179 179 179  179 179 179  179 179 179  179 179 179  179 179 179  179 179 179
179 179 179  179 179 179  179 179 179  156 155 155  26 22 23  18 15 16
31 27 26  37 33 32  34 30 29  28 25 24  23 22 20  19 17 16
22 19 18  22 19 19  22 19 18  19 17 16  25 23 21  30 26 25
35 31 30  37 31 31  36 31 30  20 16 15  34 29 29  148 148 148
179 179 179  179 179 179  179 179 179  179 179 179  179 179 179  179 179 179
179 179 179  179 179 179  179 179 179  179 179 179  179 179 179  179 179 179
179 179 179  179 179 179  179 179 179  179 179 179  179 179 179  179 179 179
0 0 0  0 0 0  0 0 0  0 0 0  0 0 0  0 0 0
0 0 0  0 0 0  0 0 0  0 0 0  0 0 0  0 0 0
0 0 0  0 0 0  0 0 0  0 0 0  0 0 0  0 0 0
0 0 0  0 0 0  0 0 0  0 0 0  0 0 0  0 0 0
0 0 0  0 0 0  0 0 0  0 0 0  0 0 0  0 0 0
0 0 0  0 0 0  0 0 0  0 0 0  0 0 0  0 0 0
0 0 0  0 0 0  0 0 0  0 0 0  0 0 0  0 0 0
0 0 0  0 0 0  0 0 0  0 0 0  0 0 0  0 0 0
0 0 0  0 0 0  0 0 0  0 0 0  0 0 0  0 0 0
0 0 0  176 176 176  176 176 176  175 175 175  174 174 174  173 173 173
172 172 172  171 171 171  170 169 169  169 169 169  168 168 168  168 168 168
168 168 168  168 168 168  169 169 169  170 169 169  171 171 171  172 172 172
173 173 173  174 174 174  175 175 175  176 176 176  0 0 0  0 0 0
0 0 0  0 0 0  0 0 0  0 0 0  0 0 0  0 0 0
0 0 0  0 0 0  0 0 0  0 0 0  0 0 0  0 0 0
0 0 0  0 0 0  0 0 0  0 0 0  0 0 0  0 0 0
0 0 0  0 0 0  0 0 0  0 0 0  0 0 0  0 0 0
0 0 0  0 0 0  0 0 0  0 0 0  0 0 0  0 0 0
0 0 0  0 0 0  0 0 0  0 0 0  0 0 0  0 0 0
0 0 0  0 0 0  0 0 0  0 0 0  0 0 0  0 0 0
0 0 0  0 0 0  0 0 0  0 0 0  0 0 0  0 0 0
0 0 0  0 0 0  0 0 0  0 0 0  0 0 0  0 0 0
0 0 0  0 0 0  0 0 0  0 0 0  0 0 0  0 0 0
0 0 0  0 0 0  0 0 0  0 0 0  0 0 0  0 0 0
0 0 0  0 0 0  0 0 0  0 0 0  0 0 0  0 0 0
0 0 0  0 0 0  0 0 0  179 179 179  179 179 179  179 179 179
179 179 179  179 179 179  179 179 179  179 179 179  179 179 179  179 179 179
179 179 179  179 179 179  179 179 179  179 179 179  179 179 179  179 179 179
179 179 179  179 179 179  170 169 169  31 27 26  21 17 16  34 30 29
35 31 30  33 29 29  25 21 20  21 18 17  39 34 34  102 101 102
169 168 168  179 179 179  133 133 133  48 46 45  21 18 19  20 16 15
34 30 29  34 30 29  34 31 30  25 22 23  21 18 19  106 104 105
179 179 179  179 179 179  179 179 179  179 179 179  179 179 179  179 179 179
179 179 179  179 179 179  174 174 174  42 39 40  18 17 15  32 28 27
37 34 33  35 31 30  26 23 22  19 17 16  30 28 26  79 76 76
163 162 163  179 179 179  150 149 149  71 69 70  25 22 23  19 15 14
27 23 22  35 31 31  34 29 29  32 28 27  20 17 16  50 48 47
176 176 176  179 179 179  179 179 179  179 179 179  179 179 179  179 179 179
179 179 179  179 179 179  179 179 179  179 179 179  179 179 179  179 179 179
179 179 179  179 179 179  179 179 179  179 179 179  179 179 179  179 179 179
0 0 0  0 0 0  0 0 0  0 0 0  0 0 0  0 0 0
0 0 0  0 0 0  0 0 0  0 0 0  0 0 0  0 0 0
0 0 0  0 0 0  0 0 0  0 0 0  0 0 0  0 0 0
0 0 0  0 0 0  0 0 0  0 0 0  0 0 0  0 0 0
0 0 0  0 0 0  0 0 0  0 0 0  0 0 0  0 0 0
0 0 0  0 0 0  0 0 0  0 0 0  0 0 0  0 0 0
0 0 0  0 0 0  0 0 0  0 0 0  0 0 0  0 0 0
0 0 0  0 0 0  0 0 0  0 0 0  0 0 0  0 0 0
0 0 0  0 0 0  0 0 0  0 0 0  0 0 0  178 178 178
178 178 178  178 178 178  177 177 177  177 177 177  176 176 176  175 175 175
174 174 174  174 174 174  173 173 173  173 173 173  172 172 172  172 172 172
172 172 172  172 172 172  173 173 173  173 173 173  174 174 174  175 175 175
175 175 175  176 176 176  177 177 177  177 177 177  178 178 178  178 178 178
178 178 178  0 0 0  0 0 0  0 0 0  0 0 0  0 0 0
0 0 0  0 0 0  0 0 0  0 0 0  0 0 0  0 0 0
0 0 0  0 0 0  0 0 0  0 0 0  0 0 0  0 0 0
0 0 0  0 0 0  0 0 0  0 0 0  0 0 0  0 0 0
0 0 0  0 0 0  0 0 0  0 0 0  0 0 0  0 0 0
0 0 0  0 0 0  0 0 0  0 0 0  0 0 0  0 0 0
0 0 0  0 0 0  0 0 0  0 0 0  0 0 0  0 0 0
0 0 0  0 0 0  0 0 0  0 0 0  0 0 0  0 0 0
0 0 0  0 0 0  0 0 0  0 0 0  0 0 0  0 0 0
0 0 0  0 0 0  0 0 0  0 0 0  0 0 0  0 0 0
0 0 0  0 0 0  0 0 0  0 0 0  0 0 0  0 0 0
0 0 0  0 0 0  0 0 0  0 0 0  0 0 0  0 0 0
0 0 0  0 0 0  179 179 179  179 179 179  179 179 179  179 179 179
179 179 179  179 179 179  179 179 179  179 179 179  179 179 179  179 179 179
179 179 179  179 179 179  179 179 179  179 179 179  179 179 179  179 179 179
179 179 179  179 179 179  63 60 61  18 17 15  27 23 22  37 33 32
33 29 28  21 18 19  26 22 23  81 80 80  179 179 179  179 179 179
179 179 179  179 179 179  179 179 179  179 179 179  109 108 108  30 28 26
21 17 16  32 29 28  36 32 31  32 28 27  20 17 16  36 35 34
179 179 179  179 179 179  179 179 179  179 179 179  179 179 179  179 179 179
179 179 179  179 179 179  92 90 91  21 19 17  25 21 20  36 32 31
34 30 29  23 21 20  22 19 18  56 55 55  179 179 179  179 179 179
179 179 179  179 179 179  179 179 179  179 179 179  142 141 141  42 39 40
20 18 19  29 26 25  34 30 29  35 31 30  23 22 20  24 22 20
106 104 105  179 179 179  179 179 179  179 179 179  179 179 179  179 179 179
179 179 179  179 179 179  179 179 179  179 179 179  179 179 179  179 179 179
179 179 179  179 179 179  179 179 179  179 179 179  179 179 179  179 179 179
0 0 0  0 0 0  0 0 0  0 0 0  0 0 0  0 0 0
0 0 0  0 0 0  0 0 0  0 0 0  0 0 0  0 0 0
0 0 0  0 0 0  0 0 0  0 0 0  0 0 0  0 0 0
0 0 0  0 0 0  0 0 0  0 0 0  0 0 0  0 0 0
0 0 0  0 0 0  0 0 0  0 0 0  0 0 0  0 0 0
0 0 0  0 0 0  0 0 0  0 0 0  0 0 0  0 0 0
0 0 0  0 0 0  0 0 0  0 0 0  0 0 0  0 0 0
0 0 0  0 0 0  0 0 0  0 0 0  0 0 0  0 0 0
0 0 0  0 0 0  0 0 0  179 179 179  179 179 179  178 178 178
179 179 179  178 178 178  178 178 178  178 178 178  177 177 177  177 177 177
176 176 176  176 176 176  175 175 175  175 175 175  175 175 175  174 174 174
175 175 175  175 175 175  175 175 175  175 175 175  176 176 176  176 176 176
177 177 177  177 177 177  178 178 178  178 178 178  178 178 178  179 179 179
178 178 178  179 179 179  179 179 179  0 0 0  0 0 0  0 0 0
0 0 0  0 0 0  0 0 0  0 0 0  0 0 0  0 0 0
0 0 0  0 0 0  0 0 0  0 0 0  0 0 0  0 0 0
0 0 0  0 0 0  0 0 0  0 0 0  0 0 0  0 0 0
0 0 0  0 0 0  0 0 0  0 0 0  0 0 0  0 0 0
0 0 0  0 0 0  0 0 0  0 0 0  0 0 0  0 0 0
0 0 0  0 0 0  0 0 0  0 0 0  0 0 0  0 0 0
0 0 0  0 0 0  0 0 0  0 0 0  0 0 0  0 0 0
0 0 0  0 0 0  0 0 0  0 0 0  0 0 0  0 0 0
0 0 0  0 0 0  0 0 0  0 0 0  0 0 0  0 0 0
0 0 0  0 0 0  0 0 0  0 0 0  0 0 0  0 0 0
0 0 0  0 0 0  0 0 0  0 0 0  0 0 0  179 179 179
178 178 178  179 179 179  179 179 179  179 179 179  179 179 179  179 179 179
179 179 179  179 179 179  179 179 179  179 179 179  179 179 179  179 179 179
179 179 179  179 179 179  179 179 179  179 179 179  179 179 179  179 179 179
179 179 179  156 155 155  28 25 23  21 19 16  35 31 30  34 30 29
24 19 20  24 20 21  109 108 108  179 179 179  179 179 179  179 179 179
179 179 179  179 179 179  179 179 179  179 179 179  179 179 179  133 133 133
30 26 25  20 17 16  32 29 28  35 31 30  25 22 23  21 18 19
138 138 138  179 179 179  179 179 179  179 179 179  179 179 179  179 179 179
179 179 179  175 175 175  42 38 37  21 18 17  35 31 30  35 31 30
27 25 23  22 19 18  52 50 50  165 165 164  179 179 179  179 179 179
179 179 179  179 179 179  179 179 179  179 179 179  179 179 179  152 151 151
42 38 37  22 17 18  33 29 28  34 30 29  28 26 26  20 18 17
56 55 55  173 173 173  179 179 179  179 179 179  179 179 179  179 179 179
179 179 179  179 179 179  179 179 179  179 179 179  179 179 179  179 179 179
179 179 179  179 179 179  179 179 179  179 179 179  179 179 179  179 179 179
0 0 0  0 0 0  0 0 0  0 0 0  0 0 0  0 0 0
0 0 0  0 0 0  0 0 0  0 0 0  0 0 0  0 0 0
0 0 0  0 0 0  0 0 0  0 0 0  0 0 0  0 0 0
0 0 0  0 0 0  0 0 0  0 0 0  0 0 0  0 0 0
0 0 0  0 0 0  0 0 0  0 0 0  0 0 0  0 0 0
0 0 0  0 0 0  0 0 0  0 0 0  0 0 0  0 0 0
0 0 0  0 0 0  0 0 0  0 0 0  0 0 0  0 0 0
0 0 0  0 0 0  0 0 0  0 0 0  0 0 0  0 0 0
0 0 0  178 178 178  179 179 179  179 179 179  179 179 179  179 179 179
179 179 179  178 178 178  178 178 178  177 177 177  177 177 177  176 176 176
176 176 176  175 175 175  175 175 175  175 175 175  174 174 174  174 174 174
174 174 174  174 174 174  175 175 175  175 175 175  176 176 176  176 176 176
177 177 177  177 177 177  178 178 178  178 178 178  178 178 178  179 179 179
178 178 178  179 179 179  179 179 179  179 179 179  0 0 0  0 0 0
0 0 0  0 0 0  0 0 0  0 0 0  0 0 0  0 0 0
0 0 0  0 0 0  0 0 0  0 0 0  0 0 0  0 0 0
0 0 0  0 0 0  0 0 0  0 0 0  0 0 0  0 0 0
0 0 0  0 0 0  0 0 0  0 0 0  0 0 0  0 0 0
0 0 0  0 0 0  0 0 0  0 0 0  0 0 0  0 0 0
0 0 0  0 0 0  0 0 0  0 0 0  0 0 0  0 0 0
0 0 0  0 0 0  0 0 0  0 0 0  0 0 0  0 0 0
0 0 0  0 0 0  0 0 0  0 0 0  0 0 0  0 0 0
0 0 0  0 0 0  0 0 0  0 0 0  0 0 0  0 0 0
0 0 0  0 0 0  0 0 0  0 0 0  0 0 0  0 0 0
179 179 179  179 179 179  179 179 179  179 179 179  179 179 179  179 179 179
179 179 179  179 179 179  179 179 179  179 179 179  179 179 179  179 179 179
179 179 179  179 179 179  179 179 179  179 179 179  179 179 179  179 179 179
179 179 179  179 179 179  179 179 179  179 179 179  179 179 179  179 179 179
179 179 179  92 90 91  22 19 18  27 24 22  35 31 30  31 27 26
22 19 18  60 56 57  179 179 179  179 179 179  179 179 179  179 179 179
179 179 179  179 179 179  179 179 179  179 179 179  179 179 179  179 179 179
106 104 105  22 18 17  27 25 23  36 32 31  29 25 24  21 16 16
65 64 64  179 179 179  179 179 179  179 179 179  179 179 179  179 179 179
179 179 179  126 125 126  30 26 25  25 21 20  35 32 31  34 30 29
22 19 18  33 30 30  138 138 138  179 179 179  179 179 179  179 179 179
179 179 179  179 179 179  179 179 179  179 179 179  179 179 179  179 179 179
126 125 126  27 23 22  25 21 20  35 31 30  31 29 26  22 21 19
33 31 31  156 155 155  179 179 179  179 179 179  179 179 179  179 179 179
179 179 179  179 179 179  179 179 179  179 179 179  179 179 179  179 179 179
179 179 179  179 179 179  179 179 179  179 179 179  179 179 179  179 179 179
0 0 0  0 0 0  0 0 0  0 0 0  0 0 0  0 0 0
0 0 0  0 0 0  0 0 0  0 0 0  0 0 0  0 0 0
0 0 0  0 0 0  0 0 0  0 0 0  0 0 0  0 0 0
0 0 0  0 0 0  0 0 0  0 0 0  0 0 0  0 0 0
0 0 0  0 0 0  0 0 0  0 0 0  0 0 0  0 0 0
0 0 0  0 0 0  0 0 0  0 0 0  0 0 0  0 0 0
0 0 0  0 0 0  0 0 0  0 0 0  0 0 0  0 0 0
0 0 0  0 0 0  0 0 0  0 0 0  0 0 0  0 0 0
179 179 179  178 178 178  179 179 179  179 179 179  179 179 179  179 179 179
179 179 179  178 178 178  178 178 178  177 177 177  177 177 177  176 176 176
176 176 176  175 175 175  175 175 175  174 174 174  174 174 174  174 174 174
174 174 174  174 174 174  174 174 174  175 175 175  175 175 175  176 176 176
176 176 176  177 177 177  178 178 178  178 178 178  178 178 178  179 179 179
178 178 178  179 179 179  179 179 179  179 179 179  179 179 179  179 179 179
0 0 0  0 0 0  0 0 0  0 0 0  0 0 0  0 0 0
0 0 0  0 0 0  0 0 0  0 0 0  0 0 0  0 0 0
0 0 0  0 0 0  0 0 0  0 0 0  0 0 0  0 0 0
0 0 0  0 0 0  0 0 0  0 0 0  0 0 0  0 0 0
0 0 0  0 0 0  0 0 0  0 0 0  0 0 0  0 0 0
0 0 0  0 0 0  0 0 0  0 0 0  0 0 0  0 0 0
0 0 0  0 0 0  0 0 0  0 0 0  0 0 0  0 0 0
0 0 0  0 0 0  0 0 0  0 0 0  0 0 0  0 0 0
0 0 0  0 0 0  0 0 0  0 0 0  0 0 0  0 0 0
0 0 0  0 0 0  0 0 0  0 0 0  179 179 179  179 179 179
179 179 179  179 179 179  179 179 179  179 179 179  179 179 179  179 179 179
179 179 179  179 179 179  179 179 179  179 179 179  179 179 179  179 179 179
179 179 179  179 179 179  179 179 179  179 179 179  179 179 179  179 179 179
179 179 179  179 179 179  179 179 179  179 179 179  179 179 179  179 179 179
176 176 176  55 52 53  22 19 18  33 29 28  34 30 29  27 23 22
27 23 22  109 108 108  179 179 179  179 179 179  179 179 179  179 179 179
179 179 179  179 179 179  179 179 179  179 179 179  179 179 179  179 179 179
179 179 179  36 32 31  22 19 18  33 29 28  33 29 28  22 18 17
39 34 34  179 179 179  179 179 179  179 179 179  179 179 179  179 179 179
179 179 179  86 84 84  26 23 22  29 25 24  34 30 29  32 28 27
21 18 19  60 56 57  179 179 179  179 179 179  179 179 179  179 179 179
179 179 179  179 179 179  179 179 179  179 179 179  179 179 179  179 179 179
177 177 177  55 52 53  19 16 17  33 29 28  34 30 29  23 21 20
24 22 20  142 141 141  179 179 179  179 179 179  179 179 179  179 179 179
179 179 179  179 179 179  179 179 179  179 179 179  179 179 179  179 179 179
179 179 179  179 179 179  179 179 179  179 179 179  179 179 179  179 179 179
179 179 179  0 0 0  0 0 0  0 0 0  0 0 0  0 0 0
0 0 0  0 0 0  0 0 0  0 0 0  0 0 0  0 0 0
0 0 0  0 0 0  0 0 0  0 0 0  0 0 0  0 0 0
0 0 0  0 0 0  0 0 0  0 0 0  0 0 0  0 0 0
0 0 0  0 0 0  0 0 0  0 0 0  0 0 0  0 0 0
0 0 0  0 0 0  0 0 0  0 0 0  0 0 0  0 0 0
0 0 0  0 0 0  0 0 0  0 0 0  0 0 0  0 0 0
0 0 0  0 0 0  0 0 0  0 0 0  0 0 0  179 179 179
179 179 179  178 178 178  179 179 179  179 179 179  179 179 179  179 179 179
179 179 179  178 178 178  178 178 178  178 178 178  177 177 177  177 177 177
176 176 176  176 176 176  175 175 175  175 175 175  175 175 175  174 174 174
174 174 174  175 175 175  175 175 175  175 175 175  176 176 176  176 176 176
177 177 177  177 177 177  178 178 178  178 178 178  178 178 178  179 179 179
179 179 179  179 179 179  179 179 179  179 179 179  179 179 179  179 179 179
179 179 179  0 0 0  0 0 0  0 0 0  0 0 0  0 0 0
0 0 0  0 0 0  0 0 0  0 0 0  0 0 0  0 0 0
0 0 0  0 0 0  0 0 0  0 0 0  0 0 0  0 0 0
0 0 0  0 0 0  0 0 0  0 0 0  0 0 0  0 0 0
0 0 0  0 0 0  0 0 0  0 0 0  0 0 0  0 0 0
0 0 0  0 0 0  0 0 0  0 0 0  0 0 0  0 0 0
0 0 0  0 0 0  0 0 0  0 0 0  0 0 0  0 0 0
0 0 0  0 0 0  0 0 0  0 0 0  0 0 0  0 0 0
0 0 0  0 0 0  0 0 0  0 0 0  0 0 0  0 0 0
0 0 0  0 0 0  179 179 179  179 179 179  179 179 179  179 179 179
179 179 179  179 179 179  179 179 179  179 179 179  179 179 179  179 179 179
179 179 179  179 179 179  179 179 179  179 179 179  179 179 179  179 179 179
179 179 179  179 179 179  179 179 179  179 179 179  179 179 179  179 179 179
179 179 179  179 179 179  179 179 179  179 179 179  179 179 179  179 179 179
179 179 179  42 39 40  23 19 18  33 29 28  34 30 29  22 19 18
35 31 31  138 138 138  179 179 179  179 179 179  179 179 179  179 179 179
179 179 179  179 179 179  179 179 179  179 179 179  179 179 179  179 179 179
179 179 179  65 64 64  21 18 17  32 28 27  35 31 30  23 19 18
28 25 26  179 179 179  179 179 179  179 179 179  179 179 179  179 179 179
179 179 179  65 64 64  25 21 20  31 27 26  37 33 32  27 23 22
23 20 19  95 95 95  173 173 173  179 179 179  179 179 179  179 179 179
179 179 179  179 179 179  179 179 179  179 179 179  179 179 179  179 179 179
179 179 179  109 108 108  20 17 18  25 23 21  37 33 32  26 23 22
22 19 18  129 128 129  179 179 179  179 179 179  179 179 179  179 179 179
179 179 179  179 179 179  179 179 179  179 179 179  179 179 179  179 179 179
179 179 179  179 179 179  179 179 179  179 179 179  179 179 179  179 179 179
179 179 179  0 0 0  0 0 0  0 0 0  0 0 0  0 0 0
0 0 0  0 0 0  0 0 0  0 0 0  0 0 0  0 0 0
0 0 0  0 0 0  0 0 0  0 0 0  0 0 0  0 0 0
0 0 0  0 0 0  0 0 0  0 0 0  0 0 0  0 0 0
0 0 0  0 0 0  0 0 0  0 0 0  0 0 0  0 0 0
0 0 0  0 0 0  0 0 0  0 0 0  0 0 0  0 0 0
0 0 0  0 0 0  0 0 0  0 0 0  0 0 0  0 0 0
0 0 0  0 0 0  0 0 0  0 0 0  179 179 179  179 179 179
179 179 179  178 178 178  179 179 179  179 179 179  179 179 179  179 179 179
179 179 179  179 179 179  178 178 178  178 178 178  178 178 178  177 177 177
177 177 177  177 177 177  176 176 176  176 176 176  176 176 176  176 176 176
176 176 176  176 176 176  176 176 176  176 176 176  177 177 177  177 177 177
178 178 178  178 178 178  178 178 178  178 178 178  179 179 179  179 179 179
179 179 179  179 179 179  179 179 179  179 179 179  179 179 179  179 179 179
179 179 179  179 179 179  179 179 179  179 179 179  0 0 0  0 0 0
0 0 0  0 0 0  0 0 0  0 0 0  0 0 0  0 0 0
0 0 0  0 0 0  0 0 0  0 0 0  0 0 0  0 0 0
0 0 0  0 0 0  0 0 0  0 0 0  0 0 0  0 0 0
0 0 0  0 0 0  0 0 0  0 0 0  0 0 0  0 0 0
0 0 0  0 0 0  0 0 0  0 0 0  0 0 0  0 0 0
0 0 0  0 0 0  0 0 0  0 0 0  0 0 0  0 0 0
0 0 0  0 0 0  0 0 0  0 0 0  0 0 0  0 0 0
0 0 0  0 0 0  0 0 0  0 0 0  0 0 0  0 0 0
0 0 0  179 179 179  179 179 179  179 179 179  179 179 179  179 179 179
179 179 179  179 179 179  179 179 179  179 179 179  179 179 179  179 179 179
179 179 179  179 179 179  179 179 179  179 179 179  179 179 179  179 179 179
179 179 179  179 179 179  179 179 179  179 179 179  179 179 179  179 179 179
179 179 179  179 179 179  179 179 179  179 179 179  179 179 179  179 179 179
179 179 179  38 37 36  22 18 17  34 30 29  33 29 28  22 19 18
37 34 33  156 155 155  179 179 179  179 179 179  179 179 179  179 179 179
179 179 179  179 179 179  179 179 179  179 179 179  179 179 179  179 179 179
179 179 179  76 75 75  22 18 17  30 26 25  34 30 29  23 19 18
26 22 23  179 179 179  179 179 179  179 179 179  179 179 179  179 179 179
178 178 178  65 64 64  24 21 22  33 29 28  35 31 30  25 21 20
23 21 20  119 118 118  179 179 179  179 179 179  179 179 179  179 179 179
179 179 179  179 179 179  179 179 179  179 179 179  179 179 179  179 179 179
179 179 179  119 118 118  21 19 20  23 21 20  37 33 32  27 23 22
20 17 16  123 123 123  179 179 179  179 179 179  179 179 179  179 179 179
179 179 179  179 179 179  179 179 179  179 179 179  179 179 179  179 179 179
179 179 179  179 179 179  179 179 179  179 179 179  179 179 179  179 179 179
179 179 179  0 0 0  0 0 0  0 0 0  0 0 0  0 0 0
0 0 0  0 0 0  0 0 0  0 0 0  0 0 0  0 0 0
0 0 0  0 0 0  0 0 0  0 0 0  0 0 0  0 0 0
0 0 0  0 0 0  0 0 0  0 0 0  0 0 0  0 0 0
0 0 0  0 0 0  0 0 0  0 0 0  0 0 0  0 0 0
0 0 0  0 0 0  0 0 0  0 0 0  0 0 0  0 0 0
0 0 0  0 0 0  0 0 0  0 0 0  0 0 0  0 0 0
0 0 0  0 0 0  0 0 0  179 179 179  179 179 179  179 179 179
179 179 179  178 178 178  179 179 179  179 179 179  179 179 179  179 179 179
179 179 179  179 179 179  179 179 179  179 179 179  178 178 178  178 178 178
178 178 178  178 178 178  178 178 178  178 178 178  177 177 177  177 177 177
177 177 177  177 177 177  178 178 178  178 178 178  178 178 178  178 178 178
178 178 178  178 178 178  179 179 179  179 179 179  179 179 179  179 179 179
179 179 179  179 179 179  179 179 179  179 179 179  179 179 179  179 179 179
179 179 179  179 179 179  179 179 179  179 179 179  179 179 179  179 179 179
179 179 179  179 179 179  179 179 179  171 171 171  171 171 171  172 172 172
0 0 0  0 0 0  0 0 0  0 0 0  0 0 0  0 0 0
0 0 0  0 0 0  0 0 0  0 0 0  0 0 0  0 0 0
0 0 0  0 0 0  0 0 0  0 0 0  0 0 0  0 0 0
0 0 0  0 0 0  0 0 0  0 0 0  0 0 0  0 0 0
0 0 0  0 0 0  0 0 0  0 0 0  0 0 0  0 0 0
0 0 0  0 0 0  0 0 0  0 0 0  0 0 0  0 0 0
0 0 0  0 0 0  0 0 0  0 0 0  0 0 0  179 179 179
178 178 178  179 179 179  179 179 179  179 179 179  179 179 179  179 179 179
179 179 179  179 179 179  179 179 179  179 179 179  179 179 179  179 179 179
179 179 179  179 179 179  179 179 179  179 179 179  179 179 179  179 179 179
179 179 179  179 179 179  179 179 179  179 179 179  179 179 179  179 179 179
179 179 179  179 179 179  179 179 179  179 179 179  179 179 179  179 179 179
179 179 179  42 38 37  23 19 18  35 31 30  32 29 29  21 20 19
33 30 30  142 141 141  179 179 179  179 179 179  179 179 179  179 179 179
179 179 179  179 179 179  179 179 179  179 179 179  179 179 179  179 179 179
179 179 179  63 60 61  20 17 16  31 27 26  35 31 30  22 18 17
28 25 26  179 179 179  179 179 179  179 179 179  179 179 179  179 179 179
179 179 179  68 67 67  24 21 22  31 27 26  34 30 29  26 22 21
22 20 19  95 95 95  178 178 178  179 179 179  179 179 179  179 179 179
179 179 179  179 179 179  179 179 179  179 179 179  179 179 179  179 179 179
179 179 179  106 104 105  19 16 17  26 22 21  36 32 31  26 22 21
21 18 17  126 125 126  179 179 179  179 179 179  179 179 179  179 179 179
179 179 179  179 179 179  179 179 179  179 179 179  179 179 179  179 179 179
179 179 179  179 179 179  179 179 179  179 179 179  179 179 179  179 179 179
179 179 179  0 0 0  0 0 0  0 0 0  0 0 0  0 0 0
0 0 0  0 0 0  0 0 0  0 0 0  0 0 0  0 0 0
0 0 0  0 0 0  0 0 0  0 0 0  0 0 0  0 0 0
0 0 0  0 0 0  0 0 0  0 0 0  0 0 0  0 0 0
0 0 0  0 0 0  0 0 0  0 0 0  0 0 0  0 0 0
0 0 0  0 0 0  0 0 0  0 0 0  0 0 0  0 0 0
0 0 0  0 0 0  0 0 0  0 0 0  0 0 0  0 0 0
0 0 0  0 0 0  179 179 179  179 179 179  179 179 179  179 179 179
179 179 179  179 179 179  179 179 179  179 179 179  179 179 179  179 179 179
179 179 179  179 179 179  179 179 179  179 179 179  179 179 179  178 178 178
178 178 178  178 178 178  178 178 178  178 178 178  178 178 178  178 178 178
178 178 178  178 178 178  178 178 178  178 178 178  178 178 178  178 178 178
178 178 178  179 179 179  179 179 179  179 179 179  179 179 179  179 179 179
179 179 179  179 179 179  179 179 179  179 179 179  179 179 179  179 179 179
179 179 179  179 179 179  179 179 179  179 179 179  179 179 179  179 179 179
179 179 179  179 179 179  179 179 179  173 173 173  174 174 174  174 174 174
175 175 175  175 175 175  176 176 176  176 176 176  0 0 0  0 0 0
0 0 0  0 0 0  0 0 0  0 0 0  0 0 0  0 0 0
0 0 0  0 0 0  0 0 0  0 0 0  0 0 0  0 0 0
0 0 0  0 0 0  0 0 0  0 0 0  0 0 0  0 0 0
0 0 0  0 0 0  0 0 0  0 0 0  0 0 0  0 0 0
0 0 0  0 0 0  0 0 0  0 0 0  0 0 0  0 0 0
0 0 0  0 0 0  0 0 0  0 0 0  179 179 179  179 179 179
178 178 178  179 179 179  179 179 179  179 179 179  179 179 179  179 179 179
179 179 179  179 179 179  179 179 179  179 179 179  179 179 179  179 179 179
179 179 179  179 179 179  179 179 179  179 179 179  179 179 179  179 179 179
179 179 179  179 179 179  179 179 179  179 179 179  179 179 179  179 179 179
179 179 179  179 179 179  179 179 179  179 179 179  179 179 179  179 179 179
179 179 179  50 48 47  21 17 16  31 29 26  33 30 29  23 22 20
24 21 22  114 114 114  179 179 179  179 179 179  179 179 179  179 179 179
179 179 179  179 179 179  179 179 179  179 179 179  179 179 179  179 179 179
179 179 179  36 33 33  21 19 17  34 30 29  32 28 27  20 16 15
36 33 33  179 179 179  179 179 179  179 179 179  179 179 179  179 179 179
179 179 179  81 80 80  23 19 20  28 24 23  36 32 31  28 25 24
19 17 16  63 60 61  178 178 178  179 179 179  179 179 179  179 179 179
179 179 179  179 179 179  179 179 179  179 179 179  179 179 179  177 177 177
177 177 177  55 52 53  17 15 13  32 28 27  35 31 30  25 21 20
24 20 21  138 138 138  179 179 179  179 179 179  179 179 179  179 179 179
179 179 179  179 179 179  179 179 179  179 179 179  179 179 179  179 179 179
179 179 179  179 179 179  179 179 179  179 179 179  179 179 179  179 179 179
179 179 179  0 0 0  0 0 0  0 0 0  0 0 0  0 0 0
0 0 0  0 0 0  0 0 0  0 0 0  0 0 0  0 0 0
0 0 0  0 0 0  0 0 0  0 0 0  0 0 0  0 0 0
0 0 0  0 0 0  0 0 0  0 0 0  0 0 0  0 0 0
0 0 0  0 0 0  0 0 0  0 0 0  0 0 0  0 0 0
0 0 0  0 0 0  0 0 0  0 0 0  0 0 0  0 0 0
0 0 0  0 0 0  0 0 0  0 0 0  0 0 0  0 0 0
0 0 0  179 179 179  179 179 179  179 179 179  179 179 179  179 179 179
179 179 179  179 179 179  179 179 179  179 179 179  179 179 179  179 179 179
179 179 179  179 179 179  179 179 179  179 179 179  178 178 178  178 178 178
178 178 178  178 178 178  178 178 178  178 178 178  178 178 178  177 177 177
177 177 177  178 178 178  178 178 178  178 178 178  178 178 178  178 178 178
178 178 178  179 179 179  179 179 179  179 179 179  179 179 179  179 179 179
179 179 179  179 179 179  179 179 179  179 179 179  179 179 179  179 179 179
179 179 179  179 179 179  179 179 179  179 179 179  179 179 179  179 179 179
179 179 179  179 179 179  179 179 179  175 175 175  176 176 176  176 176 176
176 176 176  177 177 177  177 177 177  177 177 177  178 178 178  178 178 178
0 0 0  0 0 0  0 0 0  0 0 0  0 0 0  0 0 0
0 0 0  0 0 0  0 0 0  0 0 0  0 0 0  0 0 0
0 0 0  0 0 0  0 0 0  0 0 0  0 0 0  0 0 0
0 0 0  0 0 0  0 0 0  0 0 0  0 0 0  0 0 0
0 0 0  0 0 0  0 0 0  0 0 0  0 0 0  0 0 0
0 0 0  0 0 0  0 0 0  179 179 179  179 179 179  179 179 179
178 178 178  179 179 179  179 179 179  179 179 179  179 179 179  179 179 179
179 179 179  179 179 179  179 179 179  179 179 179  179 179 179  179 179 179
179 179 179  179 179 179  179 179 179  179 179 179  179 179 179  179 179 179
179 179 179  179 179 179  179 179 179  179 179 179  179 179 179  179 179 179
179 179 179  179 179 179  179 179 179  179 179 179  179 179 179  179 179 179
174 173 173  84 83 83  18 16 15  25 23 21  35 31 30  28 25 23
20 18 16  65 64 64  179 179 179  179 179 179  179 179 179  179 179 179
179 179 179  179 179 179  179 179 179  179 179 179  179 179 179  179 179 179
133 133 133  22 19 18  25 23 21  35 31 30  27 24 24  17 15 16
65 64 64  179 179 179  179 179 179  179 179 179  179 179 179  179 179 179
179 179 179  123 123 123  23 21 20  23 20 19  35 31 30  34 29 29
20 18 17  33 31 31  152 151 151  179 179 179  179 179 179  179 179 179
179 179 179  179 179 179  179 179 179  179 179 179  179 179 179  178 178 178
150 149 149  28 24 23  22 18 17  37 33 32  32 28 27  22 18 17
32 29 28  154 154 154  179 179 179  179 179 179  179 179 179  179 179 179
179 179 179  179 179 179  179 179 179  179 179 179  179 179 179  179 179 179
179 179 179  179 179 179  179 179 179  179 179 179  179 179 179  179 179 179
0 0 0  0 0 0  0 0 0  0 0 0  0 0 0  0 0 0
0 0 0  0 0 0  0 0 0  0 0 0  0 0 0  0 0 0
0 0 0  0 0 0  0 0 0  0 0 0  0 0 0  0 0 0
0 0 0  0 0 0  0 0 0  0 0 0  0 0 0  0 0 0
0 0 0  0 0 0  0 0 0  0 0 0  0 0 0  0 0 0
0 0 0  0 0 0  0 0 0  0 0 0  0 0 0  0 0 0
0 0 0  0 0 0  0 0 0  0 0 0  0 0 0  0 0 0
179 179 179  179 179 179  179 179 179  179 179 179  179 179 179  179 179 179
179 179 179  179 179 179  179 179 179  179 179 179  179 179 179  179 179 179
179 179 179  179 179 179  179 179 179  179 179 179  179 179 179  178 178 178
178 178 178  178 178 178  178 178 178  178 178 178  178 178 178  178 178 178
178 178 178  178 178 178  178 178 178  178 178 178  178 178 178  178 178 178
178 178 178  179 179 179  179 179 179  179 179 179  179 179 179  179 179 179
179 179 179  179 179 179  179 179 179  179 179 179  179 179 179  179 179 179
179 179 179  179 179 179  179 179 179  179 179 179  179 179 179  179 179 179
179 179 179  179 179 179  179 179 179  177 177 177  177 177 177  177 177 177
177 177 177  178 178 178  178 178 178  178 178 178  178 178 178  178 178 178
179 179 179  0 0 0  0 0 0  0 0 0  0 0 0  0 0 0
0 0 0  0 0 0  0 0 0  0 0 0  0 0 0  0 0 0
0 0 0  0 0 0  0 0 0  0 0 0  0 0 0  0 0 0
0 0 0  0 0 0  0 0 0  0 0 0  0 0 0  0 0 0
0 0 0  0 0 0  0 0 0  0 0 0  0 0 0  0 0 0
0 0 0  0 0 0  179 179 179  179 179 179  179 179 179  179 179 179
178 178 178  179 179 179  179 179 179  179 179 179  179 179 179  179 179 179
179 179 179  179 179 179  179 179 179  179 179 179  179 179 179  179 179 179
179 179 179  179 179 179  179 179 179  179 179 179  179 179 179  179 179 179
179 179 179  179 179 179  179 179 179  179 179 179  179 179 179  179 179 179
179 179 179  179 179 179  179 179 179  179 179 179  179 179 179  179 179 179
178 178 178  172 172 172  24 22 20  25 23 21  35 31 30  34 30 29
22 20 17  24 22 20  167 167 167  178 178 178  175 175 175  179 179 179
179 179 179  179 179 179  179 179 179  179 179 179  172 172 172  175 175 175
35 31 31  20 18 17  33 30 29  35 31 30  26 23 23  20 17 18
148 148 148  179 179 179  179 179 179  179 179 179  179 179 179  179 179 179
179 179 179  176 176 176  36 33 33  22 19 18  33 29 28  37 31 31
27 25 23  19 17 16  71 69 70  172 172 172  179 179 179  179 179 179
179 179 179  179 179 179  179 179 179  179 179 179  179 179 179  179 179 179
50 48 47  21 17 16  31 27 26  35 31 30  30 26 25  21 17 16
56 55 55  176 176 176  179 179 179  179 179 179  179 179 179  179 179 179
179 179 179  179 179 179  179 179 179  179 179 179  179 179 179  179 179 179
179 179 179  179 179 179  179 179 179  179 179 179  179 179 179  179 179 179
0 0 0  0 0 0  0 0 0  0 0 0  0 0 0  0 0 0
0 0 0  0 0 0  0 0 0  0 0 0  0 0 0  0 0 0
0 0 0  0 0 0  0 0 0  0 0 0  0 0 0  0 0 0
0 0 0  0 0 0  0 0 0  0 0 0  0 0 0  0 0 0
0 0 0  0 0 0  0 0 0  0 0 0  0 0 0  0 0 0
0 0 0  0 0 0  0 0 0  0 0 0  0 0 0  0 0 0
0 0 0  0 0 0  0 0 0  0 0 0  0 0 0  179 179 179
179 179 179  179 179 179  179 179 179  179 179 179  179 179 179  179 179 179
179 179 179  179 179 179  179 179 179  179 179 179  179 179 179  179 179 179
179 179 179  179 179 179  179 179 179  179 179 179  179 179 179  179 179 179
179 179 179  178 178 178  178 178 178  178 178 178  178 178 178  178 178 178
178 178 178  178 178 178  178 178 178  178 178 178  178 178 178  179 179 179
179 179 179  179 179 179  179 179 179  179 179 179  179 179 179  179 179 179
179 179 179  179 179 179  179 179 179  179 179 179  179 179 179  179 179 179
179 179 179  179 179 179  179 179 179  179 179 179  179 179 179  179 179 179
179 179 179  179 179 179  179 179 179  176 176 176  177 177 177  177 177 177
177 177 177  178 178 178  178 178 178  178 178 178  178 178 178  178 178 178
179 179 179  179 179 179  179 179 179  0 0 0  0 0 0  0 0 0
0 0 0  0 0 0  0 0 0  0 0 0  0 0 0  0 0 0
0 0 0  0 0 0  0 0 0  0 0 0  0 0 0  0 0 0
0 0 0  0 0 0  0 0 0  0 0 0  0 0 0  0 0 0
0 0 0  0 0 0  0 0 0  0 0 0  0 0 0  0 0 0
0 0 0  179 179 179  179 179 179  179 179 179  179 179 179  179 179 179
179 179 179  179 179 179  179 179 179  179 179 179  179 179 179  179 179 179
179 179 179  179 179 179  179 179 179  179 179 179  179 179 179  179 179 179
179 179 179  179 179 179  179 179 179  179 179 179  179 179 179  179 179 179
179 179 179  179 179 179  179 179 179  179 179 179  179 179 179  179 179 179
179 179 179  179 179 179  179 179 179  179 179 179  179 179 179  179 179 179
179 179 179  178 178 178  55 52 53  17 14 13  30 26 25  36 32 31
33 29 28  22 19 18  30 28 26  112 111 111  165 165 164  175 175 175
178 178 178  179 179 179  174 174 174  171 171 171  126 125 126  39 34 34
21 20 19  27 25 24  35 31 30  33 29 29  19 16 17  36 33 33
179 179 179  179 179 179  179 179 179  179 179 179  179 179 179  179 179 179
179 179 179  179 179 179  81 80 80  16 14 14  27 23 22  35 31 30
34 30 29  25 23 21  23 21 20  79 76 76  154 154 154  173 173 173
176 176 176  179 179 179  179 179 179  178 178 178  145 145 145  55 52 53
23 20 18  27 23 22  36 32 32  33 29 28  23 21 20  20 18 19
99 97 97  179 179 179  179 179 179  179 179 179  179 179 179  179 179 179
179 179 179  179 179 179  179 179 179  179 179 179  179 179 179  179 179 179
179 179 179  179 179 179  179 179 179  179 179 179  179 179 179  179 179 179
0 0 0  0 0 0  0 0 0  0 0 0  0 0 0  0 0 0
0 0 0  0 0 0  0 0 0  0 0 0  0 0 0  0 0 0
0 0 0  0 0 0  0 0 0  0 0 0  0 0 0  0 0 0
0 0 0  0 0 0  0 0 0  0 0 0  0 0 0  0 0 0
0 0 0  0 0 0  0 0 0  0 0 0  0 0 0  0 0 0
0 0 0  0 0 0  0 0 0  0 0 0  0 0 0  0 0 0
0 0 0  0 0 0  0 0 0  0 0 0  0 0 0  179 179 179
179 179 179  179 179 179  179 179 179  179 179 179  179 179 179  179 179 179
179 179 179  179 179 179  179 179 179  179 179 179  179 179 179  179 179 179
179 179 179  179 179 179  179 179 179  179 179 179  179 179 179  179 179 179
179 179 179  179 179 179  179 179 179  179 179 179  179 179 179  179 179 179
179 179 179  179 179 179  179 179 179  179 179 179  179 179 179  179 179 179
179 179 179  179 179 179  179 179 179  179 179 179  179 179 179  179 179 179
179 179 179  179 179 179  179 179 179  179 179 179  179 179 179  179 179 179
179 179 179  179 179 179  179 179 179  179 179 179  179 179 179  179 179 179
179 179 179  179 179 179  179 179 179  176 176 176  177 177 177  177 177 177
177 177 177  178 178 178  178 178 178  178 178 178  178 178 178  178 178 178
179 179 179  179 179 179  179 179 179  179 179 179  0 0 0  0 0 0
0 0 0  0 0 0  0 0 0  0 0 0  0 0 0  0 0 0
0 0 0  0 0 0  0 0 0  0 0 0  0 0 0  0 0 0
0 0 0  0 0 0  0 0 0  0 0 0  0 0 0  0 0 0
0 0 0  0 0 0  0 0 0  0 0 0  0 0 0  0 0 0
179 179 179  179 179 179  179 179 179  179 179 179  179 179 179  179 179 179
179 179 179  179 179 179  179 179 179  179 179 179  179 179 179  179 179 179
179 179 179  179 179 179  179 179 179  179 179 179  179 179 179  179 179 179
179 179 179  179 179 179  179 179 179  179 179 179  179 179 179  179 179 179
179 179 179  179 179 179  179 179 179  179 179 179  179 179 179  179 179 179
179 179 179  179 179 179  179 179 179  179 179 179  179 179 179  179 179 179
179 179 179  172 172 172  148 148 148  26 23 22  22 18 17  33 29 28
35 31 30  32 28 27  22 19 18  23 22 20  43 42 42  76 75 75
99 97 97  102 101 102  84 83 83  52 50 50  28 23 24  23 21 20
29 26 25  34 31 30  35 31 30  26 23 22  22 17 18  92 90 91
179 179 179  179 179 179  179 179 179  179 179 179  179 179 179  179 179 179
179 179 179  179 179 179  171 171 171  33 33 33  16 13 13  32 29 28
35 31 30  33 29 28  26 22 21  21 18 19  36 35 34  68 67 67
92 90 91  102 101 102  92 90 91  65 64 64  34 30 29  22 18 17
26 23 22  34 30 29  35 31 30  30 28 26  19 17 16  43 42 42
167 167 167  179 179 179  179 179 179  179 179 179  179 179 179  179 179 179
179 179 179  179 179 179  179 179 179  179 179 179  179 179 179  179 179 179
179 179 179  179 179 179  179 179 179  179 179 179  179 179 179  179 179 179
0 0 0  0 0 0  0 0 0  0 0 0  0 0 0  0 0 0
0 0 0  0 0 0  0 0 0  0 0 0  0 0 0  0 0 0
0 0 0  0 0 0  0 0 0  0 0 0  0 0 0  0 0 0
0 0 0  0 0 0  0 0 0  0 0 0  0 0 0  0 0 0
0 0 0  0 0 0  0 0 0  0 0 0  0 0 0  0 0 0
0 0 0  0 0 0  0 0 0  0 0 0  0 0 0  0 0 0
0 0 0  0 0 0  0 0 0  0 0 0  179 179 179  179 179 179
179 179 179  179 179 179  179 179 179  179 179 179  179 179 179  179 179 179
179 179 179  179 179 179  179 179 179  179 179 179  179 179 179  179 179 179
179 179 179  179 179 179  179 179 179  179 179 179  179 179 179  179 179 179
179 179 179  179 179 179  179 179 179  179 179 179  179 179 179  179 179 179
179 179 179  179 179 179  179 179 179  179 179 179  179 179 179  179 179 179
179 179 179  179 179 179  179 179 179  179 179 179  179 179 179  179 179 179
179 179 179  179 179 179  179 179 179  179 179 179  179 179 179  179 179 179
179 179 179  179 179 179  179 179 179  179 179 179  179 179 179  179 179 179
179 179 179  179 179 179  179 179 179  177 177 177  177 177 177  177 177 177
178 178 178  178 178 178  178 178 178  178 178 178  178 178 178  179 179 179
179 179 179  179 179 179  179 179 179  179 179 179  179 179 179  0 0 0
0 0 0  0 0 0  0 0 0  0 0 0  0 0 0  0 0 0
0 0 0  0 0 0  0 0 0  0 0 0  0 0 0  0 0 0
0 0 0  0 0 0  0 0 0  0 0 0  0 0 0  0 0 0
0 0 0  0 0 0  0 0 0  0 0 0  0 0 0  179 179 179
179 179 179  179 179 179  179 179 179  179 179 179  179 179 179  179 179 179
179 179 179  179 179 179  179 179 179  179 179 179  179 179 179  179 179 179
179 179 179  179 179 179  179 179 179  179 179 179  179 179 179  179 179 179
179 179 179  179 179 179  179 179 179  179 179 179  179 179 179  179 179 179
179 179 179  179 179 179  179 179 179  179 179 179  179 179 179  179 179 179
179 179 179  179 179 179  179 179 179  179 179 179  179 179 179  179 179 179
179 179 179  179 179 179  179 179 179  76 75 75  19 17 16  23 20 19
34 30 29  35 31 30  32 28 27  26 23 22  22 19 18  23 21 19
27 25 23  27 25 24  24 21 22  23 18 19  26 22 21  29 25 24
35 31 30  34 31 30  28 25 24  19 15 16  43 42 42  157 157 157
179 179 179  179 179 179  179 179 179  179 179 179  179 179 179  179 179 179
179 179 179  179 179 179  179 179 179  114 114 114  21 19 20  19 16 16
32 28 27  35 31 30  34 30 29  25 21 20  24 20 21  23 21 20
26 23 23  27 24 24  25 22 23  21 18 17  22 18 17  29 25 24
34 30 29  37 33 32  31 27 26  20 18 17  27 24 24  119 118 118
179 179 179  179 179 179  179 179 179  179 179 179  179 179 179  179 179 179
179 179 179  179 179 179  179 179 179  179 179 179  179 179 179  179 179 179
179 179 179  179 179 179  179 179 179  179 179 179  179 179 179  179 179 179
0 0 0  0 0 0  0 0 0  0 0 0  0 0 0  0 0 0
0 0 0  0 0 0  0 0 0  0 0 0  0 0 0  0 0 0
0 0 0  0 0 0  0 0 0  0 0 0  0 0 0  0 0 0
0 0 0  0 0 0  0 0 0  0 0 0  0 0 0  0 0 0
0 0 0  0 0 0  0 0 0  0 0 0  0 0 0  0 0 0
0 0 0  0 0 0  0 0 0  0 0 0  0 0 0  0 0 0
0 0 0  0 0 0  0 0 0  0 0 0  179 179 179  179 179 179
179 179 179  179 179 179  179 179 179  179 179 179  179 179 179  179 179 179
179 179 179  179 179 179  179 179 179  179 179 179  179 179 179  179 179 179
179 179 179  179 179 179  179 179 179  179 179 179  179 179 179  179 179 179
179 179 179  179 179 179  179 179 179  179 179 179  179 179 179  179 179 179
179 179 179  179 179 179  179 179 179  179 179 179  179 179 179  179 179 179
179 179 179  179 179 179  179 179 179  179 179 179  179 179 179  179 179 179
179 179 179  179 179 179  179 179 179  179 179 179  179 179 179  179 179 179
179 179 179  179 179 179  179 179 179  179 179 179  179 179 179  179 179 179
179 179 179  179 179 179  179 179 179  177 177 177  178 178 178  178 178 178
178 178 178  178 178 178  178 178 178  179 179 179  179 179 179  179 179 179
179 179 179  179 179 179  179 179 179  179 179 179  179 179 179  179 179 179
0 0 0  0 0 0  0 0 0  0 0 0  0 0 0  0 0 0
0 0 0  0 0 0  0 0 0  0 0 0  0 0 0  0 0 0
0 0 0  0 0 0  0 0 0  0 0 0  0 0 0  0 0 0
0 0 0  0 0 0  0 0 0  0 0 0  179 179 179  179 179 179
179 179 179  179 179 179  179 179 179  179 179 179  179 179 179  179 179 179
179 179 179  179 179 179  179 179 179  179 179 179  179 179 179  179 179 179
179 179 179  179 179 179  179 179 179  179 179 179  179 179 179  179 179 179
179 179 179  179 179 179  179 179 179  179 179 179  179 179 179  179 179 179
179 179 179  179 179 179  179 179 179  179 179 179  179 179 179  179 179 179
179 179 179  179 179 179  179 179 179  179 179 179  179 179 179  179 179 179
179 179 179  179 179 179  179 179 179  166 166 166  52 50 50  18 15 16
23 20 19  33 29 28  37 33 32  34 31 30  32 29 28  30 28 26
28 25 23  29 26 25  28 25 23  32 29 28  34 30 29  35 31 30
35 32 31  27 25 23  17 15 13  36 33 33  133 133 133  179 179 179
179 179 179  179 179 179  179 179 179  179 179 179  179 179 179  179 179 179
179 179 179  179 179 179  179 179 179  179 179 179  95 95 95  20 17 18
19 17 16  30 26 25  36 32 31  35 31 30  32 29 28  32 29 29
28 25 26  29 26 25  29 26 25  32 29 28  33 29 28  35 31 30
35 31 30  27 23 22  19 17 16  23 21 22  102 101 102  179 179 179
179 179 179  179 179 179  179 179 179  179 179 179  179 179 179  179 179 179
179 179 179  179 179 179  179 179 179  179 179 179  179 179 179  179 179 179
179 179 179  179 179 179  179 179 179  179 179 179  179 179 179  0 0 0
0 0 0  0 0 0  0 0 0  0 0 0  0 0 0  0 0 0
0 0 0  0 0 0  0 0 0  0 0 0  0 0 0  0 0 0
0 0 0  0 0 0  0 0 0  0 0 0  0 0 0  0 0 0
0 0 0  0 0 0  0 0 0  0 0 0  0 0 0  0 0 0
0 0 0  0 0 0  0 0 0  0 0 0  0 0 0  0 0 0
0 0 0  0 0 0  0 0 0  0 0 0  0 0 0  0 0 0
0 0 0  0 0 0  0 0 0  179 179 179  179 179 179  179 179 179
179 179 179  179 179 179  179 179 179  179 179 179  179 179 179  179 179 179
179 179 179  179 179 179  179 179 179  179 179 179  179 179 179  179 179 179
179 179 179  179 179 179  179 179 179  179 179 179  179 179 179  179 179 179
179 179 179  179 179 179  179 179 179  179 179 179  179 179 179  179 179 179
179 179 179  179 179 179  179 179 179  179 179 179  179 179 179  179 179 179
179 179 179  179 179 179  179 179 179  179 179 179  179 179 179  179 179 179
179 179 179  179 179 179  179 179 179  179 179 179  179 179 179  179 179 179
179 179 179  179 179 179  179 179 179  179 179 179  179 179 179  179 179 179
179 179 179  179 179 179  179 179 179  178 178 178  178 178 178  178 178 178
178 178 178  179 179 179  179 179 179  179 179 179  179 179 179  179 179 179
179 179 179  179 179 179  179 179 179  179 179 179  179 179 179  179 179 179
179 179 179  0 0 0  0 0 0  0 0 0  0 0 0  0 0 0
0 0 0  0 0 0  0 0 0  0 0 0  0 0 0  0 0 0
0 0 0  0 0 0  0 0 0  0 0 0  0 0 0  0 0 0
0 0 0  0 0 0  0 0 0  179 179 179  179 179 179  179 179 179
179 179 179  179 179 179  179 179 179  179 179 179  179 179 179  179 179 179
179 179 179  179 179 179  179 179 179  179 179 179  179 179 179  179 179 179
179 179 179  179 179 179  179 179 179  179 179 179  179 179 179  179 179 179
179 179 179  179 179 179  179 179 179  179 179 179  179 179 179  179 179 179
179 179 179  179 179 179  179 179 179  179 179 179  179 179 179  179 179 179
179 179 179  179 179 179  179 179 179  179 179 179  179 179 179  179 179 179
179 179 179  179 179 179  179 179 179  179 179 179  160 160 160  56 55 55
18 16 15  20 17 16  29 25 24  35 31 30  34 30 29  36 32 31
34 30 29  35 31 30  37 33 32  34 30 29  35 31 30  30 26 25
21 19 17  18 17 15  42 39 40  145 145 145  179 179 179  179 179 179
179 179 179  179 179 179  179 179 179  179 179 179  179 179 179  179 179 179
179 179 179  179 179 179  179 179 179  179 179 179  177 177 177  99 97 97
23 21 20  17 17 15  25 21 20  33 29 28  35 31 31  35 31 31
36 32 32  34 30 29  36 32 31  36 32 31  33 29 28  33 29 28
26 22 21  19 15 14  30 26 25  129 128 129  179 179 179  179 179 179
179 179 179  179 179 179  179 179 179  179 179 179  179 179 179  179 179 179
179 179 179  179 179 179  179 179 179  179 179 179  179 179 179  179 179 179
179 179 179  179 179 179  179 179 179  179 179 179  179 179 179  0 0 0
0 0 0  0 0 0  0 0 0  0 0 0  0 0 0  0 0 0
0 0 0  0 0 0  0 0 0  0 0 0  0 0 0  0 0 0
0 0 0  0 0 0  0 0 0  0 0 0  0 0 0  0 0 0
0 0 0  0 0 0  0 0 0  0 0 0  0 0 0  0 0 0
0 0 0  0 0 0  0 0 0  0 0 0  0 0 0  0 0 0
0 0 0  0 0 0  0 0 0  0 0 0  0 0 0  0 0 0
0 0 0  0 0 0  0 0 0  179 179 179  179 179 179  179 179 179
179 179 179  179 179 179  179 179 179  179 179 179  179 179 179  179 179 179
179 179 179  179 179 179  179 179 179  179 179 179  179 179 179  179 179 179
179 179 179  179 179 179  179 179 179  179 179 179  179 179 179  179 179 179
165 165 164  119 118 118  65 64 64  39 34 34  29 25 24  26 21 22
26 21 22  30 28 30  43 42 42  81 80 80  138 138 138  172 172 172
179 179 179  179 179 179  179 179 179  179 179 179  179 179 179  179 179 179
179 179 179  179 179 179  179 179 179  179 179 179  179 179 179  179 179 179
179 179 179  179 179 179  179 179 179  179 179 179  179 179 179  179 179 179
179 179 179  179 179 179  179 179 179  178 178 178  178 178 178  179 179 179
179 179 179  179 179 179  179 179 179  179 179 179  179 179 179  179 179 179
179 179 179  179 179 179  179 179 179  179 179 179  179 179 179  179 179 179
179 179 179  179 179 179  0 0 0  0 0 0  0 0 0  0 0 0
0 0 0  0 0 0  0 0 0  0 0 0  0 0 0  0 0 0
0 0 0  0 0 0  0 0 0  0 0 0  0 0 0  0 0 0
0 0 0  0 0 0  179 179 179  179 179 179  179 179 179  179 179 179
179 179 179  179 179 179  179 179 179  179 179 179  179 179 179  179 179 179
179 179 179  179 179 179  179 179 179  179 179 179  179 179 179  179 179 179
179 179 179  179 179 179  179 179 179  179 179 179  179 179 179  179 179 179
179 179 179  179 179 179  179 179 179  179 179 179  179 179 179  179 179 179
179 179 179  179 179 179  179 179 179  179 179 179  179 179 179  179 179 179
179 179 179  179 179 179  179 179 179  179 179 179  179 179 179  179 179 179
179 179 179  179 179 179  179 179 179  179 179 179  179 179 179  179 179 179
99 97 97  28 26 26  16 15 15  27 23 22  35 31 30  35 31 30
37 33 32  33 29 28  36 32 31  33 30 29  27 25 24  18 17 16
23 23 21  79 76 76  179 179 179  179 179 179  179 179 179  179 179 179
179 179 179  179 179 179  179 179 179  179 179 179  179 179 179  179 179 179
179 179 179  179 179 179  179 179 179  179 179 179  179 179 179  179 179 179
129 128 129  38 37 36  18 15 16  25 21 20  34 30 29  34 30 29
35 31 30  35 31 30  35 31 30  34 30 29  32 29 28  19 17 16
18 17 16  50 48 47  173 173 173  179 179 179  179 179 179  179 179 179
179 179 179  179 179 179  179 179 179  179 179 179  179 179 179  179 179 179
179 179 179  179 179 179  179 179 179  179 179 179  179 179 179  179 179 179
179 179 179  179 179 179  179 179 179  179 179 179  179 179 179  0 0 0
0 0 0  0 0 0  0 0 0  0 0 0  0 0 0  0 0 0
0 0 0  0 0 0  0 0 0  0 0 0  0 0 0  0 0 0
0 0 0  0 0 0  0 0 0  0 0 0  0 0 0  0 0 0
0 0 0  0 0 0  0 0 0  0 0 0  0 0 0  0 0 0
0 0 0  0 0 0  0 0 0  0 0 0  0 0 0  0 0 0
0 0 0  0 0 0  0 0 0  0 0 0  0 0 0  0 0 0
0 0 0  0 0 0  0 0 0  179 179 179  179 179 179  179 179 179
179 179 179  179 179 179  179 179 179  179 179 179  179 179 179  179 179 179
179 179 179  179 179 179  179 179 179  179 179 179  179 179 179  179 179 179
179 179 179  179 179 179  179 179 179  179 179 179  176 176 176  95 95 95
38 37 36  23 18 19  22 17 18  24 19 20  24 20 21  23 19 20
23 19 20  23 19 21  22 20 19  21 19 20  26 22 23  55 52 53
119 118 118  178 178 178  179 179 179  179 179 179  179 179 179  179 179 179
179 179 179  179 179 179  179 179 179  179 179 179  179 179 179  179 179 179
179 179 179  179 179 179  179 179 179  179 179 179  179 179 179  179 179 179
179 179 179  179 179 179  179 179 179  178 178 178  178 178 178  178 178 178
179 179 179  179 179 179  179 179 179  179 179 179  179 179 179  179 179 179
179 179 179  179 179 179  179 179 179  179 179 179  179 179 179  179 179 179
179 179 179  179 179 179  179 179 179  0 0 0  0 0 0  0 0 0
0 0 0  0 0 0  0 0 0  0 0 0  0 0 0  0 0 0
0 0 0  0 0 0  0 0 0  0 0 0  0 0 0  0 0 0
0 0 0  179 179 179  179 179 179  179 179 179  179 179 179  179 179 179
179 179 179  179 179 179  179 179 179  179 179 179  179 179 179  179 179 179
179 179 179  179 179 179  179 179 179  179 179 179  179 179 179  179 179 179
179 179 179  179 179 179  179 179 179  179 179 179  179 179 179  179 179 179
179 179 179  179 179 179  179 179 179  179 179 179  179 179 179  179 179 179
179 179 179  179 179 179  179 179 179  179 179 179  179 179 179  179 179 179
179 179 179  179 179 179  179 179 179  179 179 179  179 179 179  179 179 179
179 179 179  179 179 179  179 179 179  179 179 179  179 179 179  179 179 179
179 179 179  171 171 171  71 69 70  27 23 22  29 25 24  33 29 28
35 31 30  35 31 30  35 31 30  30 28 26  25 23 21  47 43 44
160 160 160  179 179 179  179 179 179  179 179 179  179 179 179  179 179 179
179 179 179  179 179 179  179 179 179  179 179 179  179 179 179  179 179 179
179 179 179  179 179 179  179 179 179  179 179 179  179 179 179  179 179 179
179 179 179  179 179 179  92 90 91  32 28 26  27 23 22  35 31 30
34 30 29  35 31 30  34 30 29  33 30 29  25 23 21  33 30 29
112 111 111  175 175 175  179 179 179  179 179 179  179 179 179  179 179 179
179 179 179  179 179 179  179 179 179  179 179 179  179 179 179  179 179 179
179 179 179  179 179 179  179 179 179  179 179 179  179 179 179  179 179 179
179 179 179  179 179 179  179 179 179  179 179 179  179 179 179  0 0 0
0 0 0  0 0 0  0 0 0  0 0 0  0 0 0  0 0 0
0 0 0  0 0 0  0 0 0  0 0 0  0 0 0  0 0 0
0 0 0  0 0 0  0 0 0  0 0 0  0 0 0  0 0 0
0 0 0  0 0 0  0 0 0  0 0 0  0 0 0  0 0 0
0 0 0  0 0 0  0 0 0  0 0 0  0 0 0  0 0 0
0 0 0  0 0 0  0 0 0  0 0 0  0 0 0  0 0 0
0 0 0  0 0 0  179 179 179  179 179 179  179 179 179  179 179 179
179 179 179  179 179 179  179 179 179  179 179 179  179 179 179  179 179 179
179 179 179  179 179 179  179 179 179  179 179 179  179 179 179  179 179 179
179 179 179  179 179 179  179 179 179  156 155 155  60 59 59  22 19 18
17 14 13  27 23 22  31 27 26  34 30 29  36 32 31  35 31 30
35 31 30  35 31 30  32 29 28  29 26 25  24 20 21  22 17 18
31 26 27  86 84 84  174 174 174  179 179 179  179 179 179  179 179 179
179 179 179  179 179 179  179 179 179  179 179 179  179 179 179  179 179 179
179 179 179  179 179 179  179 179 179  179 179 179  179 179 179  179 179 179
179 179 179  179 179 179  179 179 179  178 178 178  178 178 178  179 179 179
179 179 179  179 179 179  179 179 179  179 179 179  179 179 179  179 179 179
179 179 179  179 179 179  179 179 179  179 179 179  179 179 179  179 179 179
179 179 179  179 179 179  179 179 179  179 179 179  0 0 0  0 0 0
0 0 0  0 0 0  0 0 0  0 0 0  0 0 0  0 0 0
0 0 0  0 0 0  0 0 0  0 0 0  0 0 0  0 0 0
179 179 179  179 179 179  179 179 179  179 179 179  179 179 179  179 179 179
179 179 179  179 179 179  179 179 179  179 179 179  179 179 179  179 179 179
179 179 179  179 179 179  179 179 179  179 179 179  179 179 179  179 179 179
179 179 179  179 179 179  179 179 179  179 179 179  179 179 179  179 179 179
168 168 168  112 111 111  152 151 151  179 179 179  179 179 179  179 179 179
179 179 179  179 179 179  179 179 179  179 179 179  179 179 179  179 179 179
179 179 179  179 179 179  179 179 179  179 179 179  179 179 179  179 179 179
179 179 179  179 179 179  179 179 179  179 179 179  179 179 179  179 179 179
179 179 179  179 179 179  169 169 169  33 29 28  28 24 23  35 31 30
34 30 29  35 31 30  36 32 31  28 25 23  25 23 21  88 87 87
179 179 179  179 179 179  179 179 179  179 179 179  179 179 179  179 179 179
179 179 179  179 179 179  179 179 179  179 179 179  179 179 179  179 179 179
179 179 179  179 179 179  179 179 179  179 179 179  179 179 179  179 179 179
179 179 179  179 179 179  179 179 179  50 48 47  24 19 18  34 30 29
35 32 31  34 30 29  37 33 32  31 27 26  21 19 17  52 50 50
179 179 179  179 179 179  179 179 179  179 179 179  179 179 179  179 179 179
179 179 179  179 179 179  179 179 179  179 179 179  179 179 179  179 179 179
179 179 179  179 179 179  179 179 179  179 179 179  179 179 179  179 179 179
179 179 179  179 179 179  179 179 179  179 179 179  0 0 0  0 0 0
0 0 0  0 0 0  0 0 0  0 0 0  0 0 0  0 0 0
0 0 0  0 0 0  0 0 0  0 0 0  0 0 0  0 0 0
0 0 0  0 0 0  0 0 0  0 0 0  0 0 0  0 0 0
0 0 0  0 0 0  0 0 0  0 0 0  0 0 0  0 0 0
0 0 0  0 0 0  0 0 0  0 0 0  0 0 0  0 0 0
0 0 0  0 0 0  0 0 0  0 0 0  0 0 0  0 0 0
0 0 0  0 0 0  179 179 179  179 179 179  179 179 179  179 179 179
179 179 179  179 179 179  179 179 179  179 179 179  179 179 179  179 179 179
179 179 179  179 179 179  179 179 179  179 179 179  179 179 179  179 179 179
179 179 179  179 179 179  160 160 160  50 48 47  19 15 16  22 19 18
32 28 27  34 30 29  36 32 31  34 30 29  29 25 24  29 25 24
28 24 23  29 25 24  34 30 29  35 31 30  36 32 31  28 25 24
22 19 19  26 21 22  86 84 84  177 177 177  179 179 179  179 179 179
179 179 179  179 179 179  179 179 179  179 179 179  179 179 179  179 179 179
179 179 179  179 179 179  179 179 179  179 179 179  179 179 179  179 179 179
179 179 179  179 179 179  179 179 179  179 179 179  179 179 179  179 179 179
179 179 179  179 179 179  179 179 179  179 179 179  179 179 179  179 179 179
179 179 179  179 179 179  179 179 179  179 179 179  179 179 179  179 179 179
179 179 179  179 179 179  179 179 179  179 179 179  179 179 179  0 0 0
0 0 0  0 0 0  0 0 0  0 0 0  0 0 0  0 0 0
0 0 0  0 0 0  0 0 0  0 0 0  0 0 0  179 179 179
179 179 179  179 179 179  179 179 179  179 179 179  179 179 179  179 179 179
179 179 179  179 179 179  179 179 179  179 179 179  179 179 179  179 179 179
179 179 179  179 179 179  179 179 179  179 179 179  179 179 179  179 179 179
179 179 179  179 179 179  179 179 179  179 179 179  179 179 179  179 179 179
52 50 50  19 18 18  50 48 47  170 169 169  179 179 179  179 179 179
179 179 179  179 179 179  179 179 179  179 179 179  179 179 179  179 179 179
179 179 179  179 179 179  179 179 179  179 179 179  179 179 179  179 179 179
179 179 179  179 179 179  179 179 179  179 179 179  179 179 179  179 179 179
179 179 179  179 179 179  169 169 169  32 28 26  27 23 22  34 30 29
36 32 31  33 29 28  35 31 30  29 26 25  25 23 21  88 87 87
179 179 179  179 179 179  179 179 179  179 179 179  179 179 179  179 179 179
179 179 179  179 179 179  179 179 179  179 179 179  179 179 179  179 179 179
179 179 179  179 179 179  179 179 179  179 179 179  179 179 179  179 179 179
179 179 179  179 179 179  179 179 179  48 46 45  22 19 18  35 31 30
35 31 30  34 30 29  33 29 28  35 31 30  22 19 18  50 48 47
179 179 179  179 179 179  179 179 179  179 179 179  179 179 179  179 179 179
179 179 179  179 179 179  179 179 179  179 179 179  179 179 179  179 179 179
179 179 179  179 179 179  179 179 179  179 179 179  179 179 179  179 179 179
179 179 179  179 179 179  179 179 179  179 179 179  0 0 0  0 0 0
0 0 0  0 0 0  0 0 0  0 0 0  0 0 0  0 0 0
0 0 0  0 0 0  0 0 0  0 0 0  0 0 0  0 0 0
0 0 0  0 0 0  0 0 0  0 0 0  0 0 0  0 0 0
0 0 0  0 0 0  0 0 0  0 0 0  0 0 0  0 0 0
0 0 0  0 0 0  0 0 0  0 0 0  0 0 0  0 0 0
0 0 0  0 0 0  0 0 0  0 0 0  0 0 0  0 0 0
0 0 0  0 0 0  179 179 179  179 179 179  179 179 179  179 179 179
179 179 179  179 179 179  179 179 179  179 179 179  179 179 179  179 179 179
179 179 179  179 179 179  179 179 179  179 179 179  179 179 179  179 179 179
179 179 179  176 176 176  68 67 67  19 15 16  24 21 22  33 29 28
36 32 31  33 29 28  26 23 22  20 18 17  19 17 16  20 18 16
21 18 17  20 18 16  21 18 17  29 25 24  36 32 31  35 31 30
33 29 28  21 18 17  28 24 23  129 128 129  179 179 179  179 179 179
179 179 179  179 179 179  179 179 179  179 179 179  179 179 179  179 179 179
179 179 179  179 179 179  179 179 179  179 179 179  179 179 179  179 179 179
179 179 179  179 179 179  179 179 179  179 179 179  179 179 179  179 179 179
179 179 179  179 179 179  179 179 179  179 179 179  179 179 179  179 179 179
179 179 179  179 179 179  179 179 179  179 179 179  179 179 179  179 179 179
179 179 179  179 179 179  179 179 179  179 179 179  179 179 179  179 179 179
0 0 0  0 0 0  0 0 0  0 0 0  0 0 0  0 0 0
0 0 0  0 0 0  0 0 0  0 0 0  179 179 179  179 179 179
179 179 179  179 179 179  179 179 179  179 179 179  179 179 179  179 179 179
179 179 179  179 179 179  179 179 179  179 179 179  179 179 179  179 179 179
179 179 179  179 179 179  179 179 179  179 179 179  179 179 179  179 179 179
179 179 179  179 179 179  179 179 179  176 176 176  177 177 177  56 55 55
19 15 14  16 13 13  17 15 13  56 55 55  170 169 169  179 179 179
179 179 179  179 179 179  179 179 179  179 179 179  179 179 179  179 179 179
179 179 179  179 179 179  179 179 179  179 179 179  179 179 179  179 179 179
179 179 179  179 179 179  179 179 179  179 179 179  179 179 179  179 179 179
179 179 179  179 179 179  169 169 169  31 29 26  26 23 22  35 31 30
36 32 31  35 32 31  33 29 28  30 26 25  26 23 22  86 84 84
179 179 179  179 179 179  179 179 179  179 179 179  179 179 179  179 179 179
179 179 179  179 179 179  179 179 179  179 179 179  179 179 179  179 179 179
179 179 179  179 179 179  179 179 179  179 179 179  179 179 179  179 179 179
179 179 179  179 179 179  179 179 179  48 46 45  20 18 16  32 28 27
35 31 30  35 31 30  37 33 32  32 28 27  23 21 19  52 50 50
179 179 179  179 179 179  179 179 179  179 179 179  179 179 179  179 179 179
179 179 179  179 179 179  179 179 179  179 179 179  179 179 179  179 179 179
179 179 179  179 179 179  179 179 179  179 179 179  179 179 179  179 179 179
179 179 179  179 179 179  179 179 179  0 0 0  0 0 0  0 0 0
0 0 0  0 0 0  0 0 0  0 0 0  0 0 0  0 0 0
0 0 0  0 0 0  0 0 0  0 0 0  0 0 0  0 0 0
0 0 0  0 0 0  0 0 0  0 0 0  0 0 0  0 0 0
0 0 0  0 0 0  0 0 0  0 0 0  0 0 0  0 0 0
0 0 0  0 0 0  0 0 0  0 0 0  0 0 0  0 0 0
0 0 0  0 0 0  0 0 0  0 0 0  0 0 0  0 0 0
0 0 0  179 179 179  179 179 179  179 179 179  179 179 179  179 179 179
179 179 179  179 179 179  179 179 179  179 179 179  179 179 179  179 179 179
179 179 179  179 179 179  179 179 179  179 179 179  179 179 179  179 179 179
179 179 179  126 125 126  25 21 20  23 19 18  34 30 29  37 33 32
37 33 32  22 19 18  16 15 15  30 28 30  65 64 64  106 104 105
92 90 91  52 50 50  28 25 26  19 16 17  23 22 20  37 33 32
36 32 31  32 28 27  23 21 20  42 38 37  178 178 178  179 179 179
179 179 179  179 179 179  179 179 179  179 179 179  179 179 179  179 179 179
179 179 179  179 179 179  179 179 179  179 179 179  179 179 179  179 179 179
179 179 179  179 179 179  179 179 179  179 179 179  179 179 179  179 179 179
179 179 179  179 179 179  179 179 179  179 179 179  179 179 179  179 179 179
179 179 179  179 179 179  179 179 179  179 179 179  179 179 179  179 179 179
179 179 179  179 179 179  179 179 179  179 179 179  179 179 179  179 179 179
179 179 179  0 0 0  0 0 0  0 0 0  0 0 0  0 0 0
0 0 0  0 0 0  0 0 0  179 179 179  179 179 179  179 179 179
179 179 179  179 179 179  179 179 179  179 179 179  179 179 179  179 179 179
179 179 179  179 179 179  179 179 179  179 179 179  179 179 179  179 179 179
179 179 179  179 179 179  179 179 179  179 179 179  179 179 179  179 179 179
179 179 179  179 179 179  179 179 179  174 174 174  55 52 53  19 15 16
25 21 20  36 32 32  23 21 20  16 14 14  76 75 75  177 177 177
179 179 179  179 179 179  179 179 179  179 179 179  179 179 179  179 179 179
179 179 179  179 179 179  179 179 179  179 179 179  179 179 179  179 179 179
179 179 179  179 179 179  179 179 179  179 179 179  179 179 179  179 179 179
179 179 179  179 179 179  168 168 168  30 28 26  26 23 22  33 30 29
33 29 28  36 32 31  35 32 31  30 26 25  26 23 22  86 84 84
179 179 179  179 179 179  179 179 179  179 179 179  179 179 179  179 179 179
179 179 179  179 179 179  179 179 179  179 179 179  179 179 179  179 179 179
179 179 179  179 179 179  179 179 179  179 179 179  179 179 179  179 179 179
179 179 179  179 179 179  179 179 179  48 46 45  21 20 19  34 30 29
34 30 29  35 31 30  34 30 29  32 28 27  24 22 20  50 48 47
176 176 176  179 179 179  179 179 179  179 179 179  179 179 179  179 179 179
179 179 179  179 179 179  179 179 179  179 179 179  179 179 179  179 179 179
179 179 179  179 179 179  179 179 179  179 179 179  179 179 179  179 179 179
179 179 179  179 179 179  179 179 179  0 0 0  0 0 0  0 0 0
0 0 0  0 0 0  0 0 0  0 0 0  0 0 0  0 0 0
0 0 0  0 0 0  0 0 0  0 0 0  0 0 0  0 0 0
0 0 0  0 0 0  0 0 0  0 0 0  0 0 0  0 0 0
0 0 0  0 0 0  0 0 0  0 0 0  0 0 0  0 0 0
0 0 0  0 0 0  0 0 0  0 0 0  0 0 0  0 0 0
0 0 0  0 0 0  0 0 0  0 0 0  0 0 0  0 0 0
0 0 0  179 179 179  179 179 179  179 179 179  179 179 179  179 179 179
179 179 179  179 179 179  179 179 179  179 179 179  179 179 179  179 179 179
179 179 179  179 179 179  179 179 179  179 179 179  179 179 179  179 179 179
174 174 174  47 43 44  22 17 16  31 27 26  36 32 31  33 29 28
20 17 16  23 21 20  81 80 80  173 173 173  179 179 179  179 179 179
179 179 179  179 179 179  157 157 157  55 52 53  22 19 19  23 22 20
34 30 29  35 31 30  27 23 22  25 21 20  99 97 97  171 171 171
179 179 179  179 179 179  179 179 179  179 179 179  179 179 179  179 179 179
179 179 179  179 179 179  179 179 179  179 179 179  179 179 179  179 179 179
177 177 177  179 179 179  179 179 179  179 179 179  179 179 179  179 179 179
179 179 179  179 179 179  179 179 179  179 179 179  179 179 179  179 179 179
179 179 179  179 179 179  179 179 179  179 179 179  179 179 179  179 179 179
179 179 179  179 179 179  179 179 179  179 179 179  179 179 179  179 179 179
179 179 179  179 179 179  0 0 0  0 0 0  0 0 0  0 0 0
0 0 0  0 0 0  179 179 179  179 179 179  179 179 179  179 179 179
179 179 179  179 179 179  179 179 179  179 179 179  179 179 179  179 179 179
179 179 179  179 179 179  179 179 179  179 179 179  179 179 179  179 179 179
179 179 179  179 179 179  179 179 179  179 179 179  179 179 179  179 179 179
179 179 179  178 178 178  150 149 149  50 48 47  22 17 18  24 20 21
35 30 29  35 31 30  33 29 28  23 20 19  16 15 15  71 69 70
169 169 169  179 179 179  179 179 179  179 179 179  179 179 179  179 179 179
179 179 179  179 179 179  179 179 179  179 179 179  179 179 179  179 179 179
179 179 179  179 179 179  179 179 179  179 179 179  179 179 179  179 179 179
179 179 179  179 179 179  168 168 168  32 30 27  26 23 22  34 31 30
35 31 30  33 29 28  35 31 30  30 28 26  26 23 22  86 84 84
179 179 179  179 179 179  179 179 179  179 179 179  179 179 179  179 179 179
179 179 179  179 179 179  179 179 179  179 179 179  179 179 179  179 179 179
179 179 179  179 179 179  179 179 179  179 179 179  179 179 179  179 179 179
179 179 179  179 179 179  179 179 179  48 46 45  21 20 19  34 30 29
35 31 30  34 30 29  35 31 30  34 30 29  24 22 20  50 48 47
179 179 179  179 179 179  179 179 179  179 179 179  179 179 179  179 179 179
179 179 179  179 179 179  179 179 179  179 179 179  179 179 179  179 179 179
179 179 179  179 179 179  179 179 179  179 179 179  179 179 179  179 179 179
179 179 179  179 179 179  0 0 0  0 0 0  0 0 0  0 0 0
0 0 0  0 0 0  0 0 0  0 0 0  0 0 0  0 0 0
0 0 0  0 0 0  0 0 0  0 0 0  0 0 0  0 0 0
0 0 0  0 0 0  0 0 0  0 0 0  0 0 0  0 0 0
0 0 0  0 0 0  0 0 0  0 0 0  0 0 0  0 0 0
0 0 0  0 0 0  0 0 0  0 0 0  0 0 0  0 0 0
0 0 0  0 0 0  0 0 0  0 0 0  0 0 0  0 0 0
0 0 0  179 179 179  179 179 179  179 179 179  179 179 179  179 179 179
179 179 179  179 179 179  179 179 179  179 179 179  179 179 179  179 179 179
179 179 179  179 179 179  179 179 179  179 179 179  179 179 179  179 179 179
138 138 138  25 21 20  23 19 18  35 31 30  34 30 29  24 20 21
21 20 21  106 104 105  179 179 179  179 179 179  179 179 179  179 179 179
179 179 179  179 179 179  179 179 179  179 179 179  71 69 70  23 20 19
28 24 23  34 30 29  34 31 30  24 21 22  35 32 31  76 75 75
71 69 70  74 72 73  68 67 67  71 69 70  71 69 70  71 69 70
71 69 70  71 69 70  71 69 70  71 69 70  71 69 70  71 69 70
68 67 67  74 72 73  156 155 155  179 179 179  179 179 179  179 179 179
179 179 179  179 179 179  179 179 179  179 179 179  179 179 179  179 179 179
179 179 179  179 179 179  179 179 179  179 179 179  179 179 179  179 179 179
179 179 179  179 179 179  179 179 179  179 179 179  179 179 179  179 179 179
179 179 179  179 179 179  179 179 179  0 0 0  0 0 0  0 0 0
0 0 0  179 179 179  179 179 179  179 179 179  179 179 179  179 179 179
179 179 179  179 179 179  179 179 179  179 179 179  179 179 179  179 179 179
179 179 179  179 179 179  179 179 179  179 179 179  179 179 179  179 179 179
179 179 179  179 179 179  179 179 179  179 179 179  179 179 179  179 179 179
179 179 179  154 154 154  50 48 47  20 17 16  26 22 21  35 31 30
35 31 30  35 31 30  34 31 30  35 31 30  22 21 19  17 15 13
56 55 55  163 162 163  179 179 179  179 179 179  179 179 179  179 179 179
179 179 179  179 179 179  179 179 179  179 179 179  179 179 179  179 179 179
179 179 179  179 179 179  179 179 179  179 179 179  179 179 179  179 179 179
179 179 179  179 179 179  168 168 168  31 29 26  25 23 21  33 30 29
36 32 31  35 31 30  34 30 29  30 28 26  26 23 23  86 84 84
179 179 179  179 179 179  179 179 179  179 179 179  179 179 179  179 179 179
179 179 179  179 179 179  179 179 179  179 179 179  179 179 179  179 179 179
179 179 179  179 179 179  179 179 179  179 179 179  179 179 179  179 179 179
179 179 179  179 179 179  179 179 179  48 46 45  19 17 16  34 30 29
35 31 30  35 32 31  35 31 30  33 29 28  25 23 21  50 48 47
179 179 179  179 179 179  179 179 179  179 179 179  179 179 179  179 179 179
179 179 179  179 179 179  179 179 179  179 179 179  179 179 179  179 179 179
179 179 179  179 179 179  179 179 179  179 179 179  179 179 179  179 179 179
179 179 179  0 0 0  0 0 0  0 0 0  0 0 0  0 0 0
0 0 0  0 0 0  0 0 0  0 0 0  0 0 0  0 0 0
0 0 0  0 0 0  0 0 0  0 0 0  0 0 0  0 0 0
0 0 0  0 0 0  0 0 0  0 0 0  0 0 0  0 0 0
0 0 0  0 0 0  0 0 0  0 0 0  0 0 0  0 0 0
0 0 0  0 0 0  0 0 0  0 0 0  0 0 0  0 0 0
0 0 0  0 0 0  0 0 0  0 0 0  0 0 0  0 0 0
0 0 0  179 179 179  179 179 179  179 179 179  179 179 179  179 179 179
179 179 179  179 179 179  179 179 179  179 179 179  179 179 179  179 179 179
179 179 179  179 179 179  179 179 179  179 179 179  179 179 179  179 179 179
68 67 67  20 18 19  28 24 23  35 31 30  29 25 24  20 17 16
88 87 87  179 179 179  179 179 179  179 179 179  179 179 179  179 179 179
179 179 179  179 179 179  179 179 179  179 179 179  179 179 179  47 43 44
24 19 18  30 26 25  36 32 32  32 29 29  29 26 25  23 19 20
25 21 20  25 21 20  28 25 24  26 23 22  26 23 23  26 23 22
25 21 20  25 21 20  24 19 20  23 19 20  22 19 18  21 18 19
21 18 20  21 18 19  42 38 37  167 167 167  179 179 179  179 179 179
179 179 179  179 179 179  179 179 179  179 179 179  179 179 179  179 179 179
179 179 179  179 179 179  179 179 179  179 179 179  179 179 179  179 179 179
179 179 179  179 179 179  179 179 179  179 179 179  179 179 179  179 179 179
179 179 179  179 179 179  179 179 179  179 179 179  179 179 179  179 179 179
179 179 179  179 179 179  179 179 179  179 179 179  179 179 179  179 179 179
179 179 179  179 179 179  179 179 179  179 179 179  179 179 179  179 179 179
179 179 179  179 179 179  179 179 179  179 179 179  179 179 179  179 179 179
179 179 179  179 179 179  179 179 179  179 179 179  179 179 179  179 179 179
175 175 175  52 50 50  22 17 18  25 23 21  35 31 30  36 32 31
34 30 29  36 32 31  34 30 29  36 32 31  33 30 29  22 21 19
17 17 15  52 50 50  165 165 164  179 179 179  179 179 179  179 179 179
179 179 179  179 179 179  179 179 179  179 179 179  179 179 179  179 179 179
179 179 179  179 179 179  179 179 179  179 179 179  179 179 179  179 179 179
179 179 179  179 179 179  168 168 168  30 28 26  24 22 20  34 30 29
35 31 30  35 31 30  35 31 30  30 26 25  27 25 23  86 84 84
179 179 179  179 179 179  179 179 179  179 179 179  179 179 179  179 179 179
179 179 179  179 179 179  179 179 179  179 179 179  179 179 179  179 179 179
179 179 179  179 179 179  179 179 179  179 179 179  179 179 179  179 179 179
179 179 179  179 179 179  179 179 179  48 46 45  18 17 15  34 30 29
35 31 30  36 32 31  36 32 31  33 29 28  25 23 21  50 48 47
179 179 179  179 179 179  179 179 179  179 179 179  179 179 179  179 179 179
179 179 179  179 179 179  179 179 179  179 179 179  179 179 179  179 179 179
179 179 179  179 179 179  179 179 179  179 179 179  179 179 179  179 179 179
179 179 179  0 0 0  0 0 0  0 0 0  0 0 0  0 0 0
0 0 0  0 0 0  0 0 0  0 0 0  0 0 0  0 0 0
0 0 0  0 0 0  0 0 0  0 0 0  0 0 0  0 0 0
0 0 0  0 0 0  0 0 0  0 0 0  0 0 0  0 0 0
0 0 0  0 0 0  0 0 0  0 0 0  0 0 0  0 0 0
0 0 0  0 0 0  0 0 0  0 0 0  0 0 0  0 0 0
0 0 0  0 0 0  0 0 0  0 0 0  0 0 0  0 0 0
0 0 0  179 179 179  179 179 179  179 179 179  179 179 179  179 179 179
179 179 179  179 179 179  179 179 179  179 179 179  179 179 179  179 179 179
179 179 179  179 179 179  179 179 179  179 179 179  179 179 179  179 179 179
38 37 36  20 17 16  32 28 27  33 29 28  23 18 19  32 29 29
178 178 178  179 179 179  179 179 179  179 179 179  179 179 179  179 179 179
179 179 179  179 179 179  179 179 179  179 179 179  179 179 179  106 104 105
27 22 21  28 24 23  34 31 30  35 31 31  32 28 27  31 27 26
31 27 26  30 26 25  32 28 27  31 27 26  31 26 27  31 26 27
31 26 27  30 26 25  30 26 25  30 26 25  30 26 25  30 26 25
32 29 28  25 23 21  19 16 17  38 37 36  154 154 154  179 179 179
179 179 179  179 179 179  179 179 179  179 179 179  179 179 179  179 179 179
179 179 179  179 179 179  179 179 179  179 179 179  179 179 179  179 179 179
179 179 179  179 179 179  179 179 179  179 179 179  179 179 179  179 179 179
179 179 179  179 179 179  179 179 179  179 179 179  179 179 179  179 179 179
179 179 179  179 179 179  179 179 179  179 179 179  179 179 179  179 179 179
179 179 179  179 179 179  179 179 179  179 179 179  179 179 179  179 179 179
179 179 179  179 179 179  179 179 179  179 179 179  179 179 179  179 179 179
179 179 179  179 179 179  179 179 179  179 179 179  179 179 179  179 179 179
60 56 57  20 16 17  26 21 22  35 31 30  33 29 28  34 31 30
36 32 31  34 30 29  35 31 30  36 32 31  36 32 31  32 29 28
26 23 22  17 15 16  56 55 55  166 166 166  179 179 179  179 179 179
179 179 179  179 179 179  179 179 179  179 179 179  179 179 179  179 179 179
179 179 179  179 179 179  179 179 179  179 179 179  179 179 179  179 179 179
179 179 179  175 174 175  169 169 169  30 28 26  24 22 20  33 29 28
35 31 30  36 32 31  35 31 30  30 28 26  26 23 23  86 84 84
179 179 179  179 179 179  179 179 179  179 179 179  179 179 179  179 179 179
179 179 179  179 179 179  179 179 179  179 179 179  179 179 179  179 179 179
179 179 179  179 179 179  179 179 179  179 179 179  179 179 179  179 179 179
179 179 179  179 179 179  175 175 175  48 46 45  20 16 15  35 31 30
34 30 29  35 31 30  34 30 29  32 28 27  24 22 20  50 48 47
179 179 179  179 179 179  179 179 179  179 179 179  179 179 179  179 179 179
179 179 179  179 179 179  179 179 179  179 179 179  179 179 179  179 179 179
179 179 179  179 179 179  179 179 179  179 179 179  179 179 179  179 179 179
0 0 0  0 0 0  0 0 0  0 0 0  0 0 0  0 0 0
0 0 0  0 0 0  0 0 0  0 0 0  0 0 0  0 0 0
0 0 0  0 0 0  0 0 0  0 0 0  0 0 0  0 0 0
0 0 0  0 0 0  0 0 0  0 0 0  0 0 0  0 0 0
0 0 0  0 0 0  0 0 0  0 0 0  0 0 0  0 0 0
0 0 0  0 0 0  0 0 0  0 0 0  0 0 0  0 0 0
0 0 0  0 0 0  0 0 0  0 0 0  0 0 0  0 0 0
0 0 0  179 179 179  179 179 179  179 179 179  179 179 179  179 179 179
179 179 179  179 179 179  179 179 179  179 179 179  179 179 179  179 179 179
179 179 179  179 179 179  179 179 179  179 179 179  179 179 179  179 179 179
28 26 26  18 15 16  35 32 31  31 27 26  20 17 16  60 56 57
179 179 179  179 179 179  179 179 179  179 179 179  179 179 179  179 179 179
179 179 179  179 179 179  179 179 179  179 179 179  179 179 179  138 138 138
34 29 29  26 21 22  33 29 28  34 30 29  36 32 31  35 31 30
35 31 30  35 31 30  32 28 27  35 31 30  36 32 31  35 31 30
35 31 30  35 31 30  35 31 30  35 31 30  35 31 30  34 30 29
35 31 30  37 34 33  27 25 23  17 15 13  47 43 44  170 169 169
179 179 179  179 179 179  179 179 179  179 179 179  179 179 179  179 179 179
179 179 179  179 179 179  179 179 179  179 179 179  179 179 179  179 179 179
179 179 179  179 179 179  179 179 179  179 179 179  179 179 179  179 179 179
179 179 179  179 179 179  179 179 179  179 179 179  179 179 179  179 179 179
179 179 179  179 179 179  179 179 179  179 179 179  179 179 179  179 179 179
179 179 179  179 179 179  179 179 179  179 179 179  179 179 179  179 179 179
179 179 179  179 179 179  179 179 179  179 179 179  179 179 179  179 179 179
179 179 179  179 179 179  179 179 179  179 179 179  179 179 179  56 55 55
17 15 13  24 20 19  36 31 30  37 31 31  35 31 30  36 33 33
34 30 29  36 32 31  35 31 30  34 30 29  35 31 30  36 32 31
34 30 29  24 21 22  18 16 17  76 75 75  179 179 179  179 179 179
179 179 179  179 179 179  179 179 179  179 179 179  179 179 179  179 179 179
179 179 179  179 179 179  179 179 179  179 179 179  179 179 179  179 179 179
179 179 179  179 179 179  129 128 129  24 20 19  29 25 24  35 32 31
36 32 31  35 31 30  33 29 28  30 28 26  27 25 23  86 84 84
179 179 179  179 179 179  179 179 179  179 179 179  179 179 179  179 179 179
179 179 179  179 179 179  179 179 179  179 179 179  179 179 179  179 179 179
179 179 179  179 179 179  179 179 179  179 179 179  179 179 179  179 179 179
179 179 179  176 175 176  165 165 164  28 25 23  23 19 18  37 33 32
35 31 30  35 31 30  34 30 29  34 30 29  24 22 20  50 48 47
179 179 179  179 179 179  179 179 179  179 179 179  179 179 179  179 179 179
179 179 179  179 179 179  179 179 179  179 179 179  179 179 179  179 179 179
179 179 179  179 179 179  179 179 179  179 179 179  179 179 179  0 0 0
0 0 0  0 0 0  0 0 0  0 0 0  0 0 0  0 0 0
0 0 0  0 0 0  0 0 0  0 0 0  0 0 0  0 0 0
0 0 0  0 0 0  0 0 0  0 0 0  0 0 0  0 0 0
0 0 0  0 0 0  0 0 0  0 0 0  0 0 0  0 0 0
0 0 0  0 0 0  0 0 0  0 0 0  0 0 0  0 0 0
0 0 0  0 0 0  0 0 0  0 0 0  0 0 0  0 0 0
0 0 0  0 0 0  0 0 0  0 0 0  0 0 0  0 0 0
0 0 0  179 179 179  179 179 179  179 179 179  179 179 179  179 179 179
179 179 179  179 179 179  179 179 179  179 179 179  179 179 179  179 179 179
179 179 179  179 179 179  179 179 179  179 179 179  179 179 179  179 179 179
25 22 23  22 19 18  36 32 31  30 26 25  20 16 15  76 75 75
179 179 179  179 179 179  179 179 179  179 179 179  179 179 179  179 179 179
179 179 179  179 179 179  179 179 179  179 179 179  179 179 179  156 155 155
37 34 33  24 20 19  33 29 28  35 31 30  35 31 30  35 31 30
34 30 29  34 30 29  35 31 30  36 32 31  34 30 29  35 31 30
35 31 30  35 31 30  35 31 30  35 31 30  35 31 30  35 31 30
35 31 30  34 30 29  35 31 30  26 23 22  19 17 16  43 42 42
152 151 151  179 179 179  179 179 179  179 179 179  179 179 179  179 179 179
179 179 179  179 179 179  179 179 179  179 179 179  179 179 179  179 179 179
179 179 179  179 179 179  179 179 179  179 179 179  179 179 179  179 179 179
179 179 179  179 179 179  179 179 179  179 179 179  179 179 179  179 179 179
179 179 179  179 179 179  179 179 179  179 179 179  179 179 179  179 179 179
179 179 179  179 179 179  179 179 179  179 179 179  179 179 179  179 179 179
179 179 179  179 179 179  179 179 179  179 179 179  179 179 179  179 179 179
179 179 179  179 179 179  178 178 178  152 151 151  52 50 50  20 17 16
22 21 19  36 32 31  35 30 29  34 29 29  34 30 29  35 31 30
33 29 28  35 31 30  36 32 31  36 32 31  34 30 29  35 31 30
35 31 30  34 30 29  25 21 20  19 16 17  76 75 75  172 172 172
179 179 179  179 179 179  179 179 179  179 179 179  179 179 179  179 179 179
179 179 179  179 179 179  179 179 179  179 179 179  179 179 179  179 179 179
169 169 169  88 87 87  22 17 18  24 20 19  34 31 30  34 30 29
34 30 29  36 32 31  34 30 29  30 26 25  25 23 21  86 84 84
179 179 179  179 179 179  179 179 179  179 179 179  179 179 179  179 179 179
179 179 179  179 179 179  179 179 179  179 179 179  179 179 179  179 179 179
179 179 179  179 179 179  179 179 179  179 179 179  179 179 179  179 179 179
174 174 174  112 111 111  30 26 25  20 16 15  34 30 29  34 30 29
34 30 29  36 32 31  35 31 30  33 29 28  22 19 18  50 48 47
179 179 179  179 179 179  179 179 179  179 179 179  179 179 179  179 179 179
179 179 179  179 179 179  179 179 179  179 179 179  179 179 179  179 179 179
179 179 179  179 179 179  179 179 179  179 179 179  179 179 179  0 0 0
0 0 0  0 0 0  0 0 0  0 0 0  0 0 0  0 0 0
0 0 0  0 0 0  0 0 0  0 0 0  0 0 0  0 0 0
0 0 0  0 0 0  0 0 0  0 0 0  0 0 0  0 0 0
0 0 0  0 0 0  0 0 0  0 0 0  0 0 0  0 0 0
0 0 0  0 0 0  0 0 0  0 0 0  0 0 0  0 0 0
0 0 0  0 0 0  0 0 0  0 0 0  0 0 0  0 0 0
0 0 0  0 0 0  0 0 0  0 0 0  0 0 0  0 0 0
0 0 0  179 179 179  179 179 179  179 179 179  179 179 179  179 179 179
179 179 179  179 179 179  179 179 179  179 179 179  179 179 179  179 179 179
179 179 179  179 179 179  179 179 179  179 179 179  179 179 179  177 177 177
25 22 23  20 16 17  35 31 30  30 26 25  19 17 16  65 64 64
179 179 179  179 179 179  179 179 179  179 179 179  179 179 179  179 179 179
179 179 179  179 179 179  179 179 179  179 179 179  179 179 179  150 149 149
35 31 31  25 21 20  33 29 28  36 31 30  35 31 30  35 31 30
35 32 31  35 31 30  35 31 30  36 32 31  35 31 30  35 31 30
35 31 30  35 31 30  35 31 30  35 31 30  35 31 30  35 31 30
35 31 30  36 32 31  35 31 30  35 32 31  28 24 23  21 17 16
43 42 42  162 161 161  179 179 179  179 179 179  179 179 179  179 179 179
179 179 179  179 179 179  179 179 179  179 179 179  179 179 179  179 179 179
179 179 179  179 179 179  179 179 179  179 179 179  179 179 179  179 179 179
179 179 179  179 179 179  179 179 179  179 179 179  179 179 179  179 179 179
179 179 179  179 179 179  179 179 179  179 179 179  179 179 179  179 179 179
179 179 179  179 179 179  179 179 179  179 179 179  179 179 179  179 179 179
179 179 179  179 179 179  179 179 179  179 179 179  179 179 179  179 179 179
179 179 179  179 179 179  152 151 151  50 48 47  19 16 17  25 23 21
36 32 31  35 31 30  35 31 30  36 32 31  35 31 30  35 31 30
35 31 30  34 31 30  35 31 30  34 30 29  35 31 30  36 32 31
35 31 30  35 31 30  34 30 29  25 22 23  18 16 17  60 59 59
166 166 166  179 179 179  179 179 179  179 179 179  179 179 179  179 179 179
179 179 179  179 179 179  179 179 179  179 179 179  179 179 179  171 171 171
65 64 64  21 18 19  20 18 19  33 29 28  36 32 31  36 32 31
34 30 29  34 30 29  37 33 32  27 24 22  24 21 19  86 84 84
179 179 179  179 179 179  179 179 179  179 179 179  179 179 179  179 179 179
179 179 179  179 179 179  179 179 179  179 179 179  179 179 179  179 179 179
179 179 179  179 179 179  179 179 179  179 179 179  179 179 179  177 177 177
102 101 102  29 26 28  23 19 20  30 26 25  35 31 30  36 32 31
35 31 30  36 32 31  35 31 30  31 27 26  20 18 16  50 48 47
179 179 179  179 179 179  179 179 179  179 179 179  179 179 179  179 179 179
179 179 179  179 179 179  179 179 179  179 179 179  179 179 179  179 179 179
179 179 179  179 179 179  179 179 179  179 179 179  179 179 179  0 0 0
0 0 0  0 0 0  0 0 0  0 0 0  0 0 0  0 0 0
0 0 0  0 0 0  0 0 0  0 0 0  0 0 0  0 0 0
0 0 0  0 0 0  0 0 0  0 0 0  0 0 0  0 0 0
0 0 0  0 0 0  0 0 0  0 0 0  0 0 0  0 0 0
0 0 0  0 0 0  0 0 0  0 0 0  0 0 0  0 0 0
0 0 0  0 0 0  0 0 0  0 0 0  0 0 0  0 0 0
0 0 0  0 0 0  0 0 0  0 0 0  0 0 0  0 0 0
0 0 0  179 179 179  179 179 179  179 179 179  179 179 179  179 179 179
179 179 179  179 179 179  179 179 179  179 179 179  179 179 179  179 179 179
179 179 179  179 179 179  179 179 179  179 179 179  179 179 179  177 177 177
32 29 28  17 15 16  34 30 29  32 29 28  22 19 18  43 42 42
179 179 179  179 179 179  179 179 179  179 179 179  179 179 179  179 179 179
179 179 179  179 179 179  179 179 179  179 179 179  179 179 179  126 125 126
28 24 23  27 25 23  34 30 29  35 31 29  33 30 29  33 30 29
31 29 26  33 30 29  34 30 29  34 30 29  32 29 28  33 30 29
32 29 28  32 29 28  33 29 28  35 31 30  33 30 29  35 31 30
35 31 30  35 31 30  35 32 31  35 31 30  34 30 29  28 24 23
20 17 16  42 38 37  168 168 168  179 179 179  179 179 179  179 179 179
179 179 179  179 179 179  179 179 179  179 179 179  179 179 179  179 179 179
179 179 179  179 179 179  179 179 179  179 179 179  179 179 179  179 179 179
179 179 179  179 179 179  179 179 179  179 179 179  179 179 179  179 179 179
179 179 179  179 179 179  179 179 179  179 179 179  179 179 179  179 179 179
179 179 179  179 179 179  179 179 179  179 179 179  179 179 179  179 179 179
179 179 179  179 179 179  179 179 179  179 179 179  179 179 179  179 179 179
179 179 179  175 175 175  52 50 50  20 18 17  25 23 21  34 30 29
35 31 30  35 31 30  35 31 30  35 31 30  35 31 30  35 31 30
35 31 30  34 30 29  35 31 30  35 31 30  35 31 30  35 31 30
35 31 30  35 31 30  35 31 30  36 32 32  23 19 21  17 15 16
55 52 53  166 166 166  179 179 179  179 179 179  179 179 179  179 179 179
179 179 179  179 179 179  179 179 179  179 179 179  172 172 172  68 67 67
23 18 19  23 19 20  35 31 31  34 31 30  35 31 30  35 31 30
35 31 30  35 31 30  33 29 28  23 20 19  30 26 25  119 118 118
179 179 179  179 179 179  179 179 179  179 179 179  179 179 179  179 179 179
179 179 179  179 179 179  179 179 179  179 179 179  179 179 179  179 179 179
179 179 179  179 179 179  179 179 179  179 179 179  179 179 179  119 118 118
29 26 28  21 19 20  32 29 28  35 31 30  35 31 30  34 30 29
35 31 30  36 32 31  33 29 28  23 21 19  22 19 18  81 80 80
179 179 179  179 179 179  179 179 179  179 179 179  179 179 179  179 179 179
179 179 179  179 179 179  179 179 179  179 179 179  179 179 179  179 179 179
179 179 179  179 179 179  179 179 179  179 179 179  179 179 179  0 0 0
0 0 0  0 0 0  0 0 0  0 0 0  0 0 0  0 0 0
0 0 0  0 0 0  0 0 0  0 0 0  0 0 0  0 0 0
0 0 0  0 0 0  0 0 0  0 0 0  0 0 0  0 0 0
0 0 0  0 0 0  0 0 0  0 0 0  0 0 0  0 0 0
0 0 0  0 0 0  0 0 0  0 0 0  0 0 0  0 0 0
0 0 0  0 0 0  0 0 0  0 0 0  0 0 0  0 0 0
0 0 0  0 0 0  0 0 0  0 0 0  0 0 0  0 0 0
0 0 0  179 179 179  179 179 179  179 179 179  179 179 179  179 179 179
179 179 179  179 179 179  179 179 179  179 179 179  179 179 179  179 179 179
179 179 179  179 179 179  179 179 179  179 179 179  179 179 179  168 168 168
48 46 45  17 15 16  31 27 26  36 32 31  25 23 21  24 21 22
179 179 179  179 179 179  179 179 179  179 179 179  179 179 179  179 179 179
179 179 179  179 179 179  179 179 179  179 179 179  179 179 179  83 82 83
21 18 17  28 24 23  35 31 30  37 33 32  28 27 26  22 21 19
23 22 20  23 22 20  24 22 20  24 22 20  23 22 20  23 22 20
25 23 21  23 22 20  23 22 20  23 21 20  23 21 19  32 28 27
35 31 30  34 30 29  36 32 31  35 31 30  36 32 31  34 30 29
29 25 24  20 16 15  38 37 36  156 155 155  179 179 179  179 179 179
179 179 179  179 179 179  179 179 179  179 179 179  179 179 179  179 179 179
179 179 179  179 179 179  179 179 179  179 179 179  179 179 179  179 179 179
179 179 179  179 179 179  179 179 179  179 179 179  179 179 179  179 179 179
179 179 179  179 179 179  179 179 179  179 179 179  179 179 179  179 179 179
179 179 179  179 179 179  179 179 179  179 179 179  179 179 179  179 179 179
179 179 179  179 179 179  179 179 179  179 179 179  179 179 179  179 179 179
179 179 179  60 56 57  20 16 15  25 23 21  33 31 28  34 31 30
35 31 30  35 31 30  35 31 30  35 31 30  35 31 30  35 31 30
35 31 30  34 30 29  35 31 30  35 31 30  35 31 30  35 31 30
35 31 30  35 32 31  34 30 29  35 31 30  36 33 33  25 22 23
18 16 17  56 55 55  168 168 168  179 179 179  179 179 179  179 179 179
179 179 179  179 179 179  179 179 179  174 174 174  74 72 73  23 18 19
27 23 22  35 31 30  35 31 30  35 31 30  35 31 30  34 30 29
36 32 31  35 31 30  23 19 18  27 24 22  92 90 91  173 173 173
179 179 179  179 179 179  179 179 179  179 179 179  179 179 179  179 179 179
179 179 179  179 179 179  179 179 179  179 179 179  179 179 179  179 179 179
179 179 179  179 179 179  179 179 179  179 179 179  145 145 145  28 25 26
22 19 19  32 28 27  34 30 29  35 31 30  36 32 31  35 31 30
35 31 30  32 28 27  23 20 18  22 18 17  68 67 67  166 166 166
179 179 179  179 179 179  179 179 179  179 179 179  179 179 179  179 179 179
179 179 179  179 179 179  179 179 179  179 179 179  179 179 179  179 179 179
179 179 179  179 179 179  179 179 179  179 179 179  179 179 179  0 0 0
0 0 0  0 0 0  0 0 0  0 0 0  0 0 0  0 0 0
0 0 0  0 0 0  0 0 0  0 0 0  0 0 0  0 0 0
0 0 0  0 0 0  0 0 0  0 0 0  0 0 0  0 0 0
0 0 0  0 0 0  0 0 0  0 0 0  0 0 0  0 0 0
0 0 0  0 0 0  0 0 0  0 0 0  0 0 0  0 0 0
0 0 0  0 0 0  0 0 0  0 0 0  0 0 0  0 0 0
0 0 0  0 0 0  0 0 0  0 0 0  0 0 0  0 0 0
0 0 0  179 179 179  179 179 179  179 179 179  179 179 179  179 179 179
179 179 179  179 179 179  179 179 179  179 179 179  179 179 179  179 179 179
179 179 179  179 179 179  179 179 179  179 179 179  179 179 179  178 178 178
109 108 108  20 17 16  25 21 20  36 32 31  31 27 26  19 17 16
50 48 47  179 179 179  179 179 179  179 179 179  179 179 179  179 179 179
179 179 179  179 179 179  179 179 179  179 179 179  179 179 179  30 26 25
22 18 17  34 30 29  34 30 29  26 22 21  21 19 20  33 31 31
33 33 33  33 33 33  33 31 31  33 33 33  33 31 31  33 31 31
33 31 31  33 33 33  32 29 29  33 31 31  27 24 24  18 15 16
29 26 25  36 32 31  35 31 30  35 31 30  34 30 29  35 31 30
35 31 30  29 25 24  20 16 15  42 38 37  163 162 163  179 179 179
179 179 179  179 179 179  179 179 179  179 179 179  179 179 179  179 179 179
179 179 179  179 179 179  179 179 179  179 179 179  179 179 179  179 179 179
179 179 179  179 179 179  179 179 179  179 179 179  179 179 179  179 179 179
179 179 179  179 179 179  179 179 179  179 179 179  179 179 179  179 179 179
179 179 179  179 179 179  179 179 179  179 179 179  179 179 179  179 179 179
179 179 179  179 179 179  179 179 179  179 179 179  179 179 179  179 179 179
60 56 57  17 15 13  26 22 21  36 32 31  35 32 31  35 31 30
35 31 30  35 31 30  35 31 30  35 31 30  35 31 30  35 31 30
36 32 31  36 32 31  35 31 30  36 32 31  34 30 29  34 30 29
35 31 30  36 32 31  36 32 31  33 29 28  34 31 30  32 29 29
23 21 22  19 16 17  65 64 64  174 174 174  179 179 179  179 179 179
179 179 179  179 179 179  179 179 179  102 101 102  22 17 18  27 23 22
34 30 29  32 28 27  36 32 31  34 30 29  33 29 28  37 33 32
32 28 27  20 18 16  25 22 20  119 118 118  176 176 176  179 179 179
179 179 179  179 179 179  179 179 179  179 179 179  179 179 179  179 179 179
179 179 179  179 179 179  179 179 179  179 179 179  179 179 179  179 179 179
179 179 179  179 179 179  179 179 179  142 141 141  28 23 24  20 18 16
31 27 26  34 30 29  37 33 32  35 31 30  32 28 27  36 32 31
35 32 31  23 22 20  22 18 17  92 90 91  173 173 173  179 179 179
179 179 179  179 179 179  179 179 179  179 179 179  179 179 179  179 179 179
179 179 179  179 179 179  179 179 179  179 179 179  179 179 179  179 179 179
179 179 179  179 179 179  179 179 179  179 179 179  179 179 179  0 0 0
0 0 0  0 0 0  0 0 0  0 0 0  0 0 0  0 0 0
0 0 0  0 0 0  0 0 0  0 0 0  0 0 0  0 0 0
0 0 0  0 0 0  0 0 0  0 0 0  0 0 0  0 0 0
0 0 0  0 0 0  0 0 0  0 0 0  0 0 0  0 0 0
0 0 0  0 0 0  0 0 0  0 0 0  0 0 0  0 0 0
0 0 0  0 0 0  0 0 0  0 0 0  0 0 0  0 0 0
0 0 0  0 0 0  0 0 0  0 0 0  0 0 0  0 0 0
0 0 0  179 179 179  179 179 179  179 179 179  179 179 179  179 179 179
179 179 179  179 179 179  179 179 179  179 179 179  179 179 179  179 179 179
179 179 179  179 179 179  179 179 179  179 179 179  179 179 179  179 179 179
179 179 179  30 26 25  23 19 18  33 29 28  34 30 29  27 25 23
20 18 16  56 55 55  150 149 149  177 177 177  179 179 179  179 179 179
179 179 179  179 179 179  175 175 175  133 133 133  39 34 34  23 19 18
31 27 26  35 31 30  34 30 29  20 16 15  52 50 50  179 179 179
179 179 179  179 179 179  179 179 179  179 179 179  179 179 179  179 179 179
179 179 179  179 179 179  179 179 179  179 179 179  156 155 155  38 37 36
14 12 12  31 27 26  37 33 32  35 31 30  36 32 31  35 31 30
36 31 30  35 31 30  26 23 22  19 17 16  43 42 42  154 154 154
179 179 179  179 179 179  179 179 179  179 179 179  179 179 179  179 179 179
179 179 179  179 179 179  179 179 179  179 179 179  179 179 179  179 179 179
179 179 179  179 179 179  179 179 179  179 179 179  179 179 179  179 179 179
179 179 179  179 179 179  179 179 179  179 179 179  179 179 179  179 179 179
179 179 179  179 179 179  179 179 179  179 179 179  179 179 179  179 179 179
179 179 179  179 179 179  179 179 179  179 179 179  160 160 160  55 52 53
18 16 15  23 19 18  35 31 30  34 30 29  35 31 30  35 31 30
35 31 30  35 31 30  35 31 30  35 31 30  35 31 30  35 31 30
34 30 29  36 32 31  34 30 29  35 31 30  35 31 30  34 30 29
36 32 31  35 31 30  35 31 30  34 30 29  37 33 32  36 32 32
33 30 30  24 21 22  19 16 16  79 76 76  174 174 174  175 175 175
179 179 179  174 174 174  95 95 95  22 17 18  22 19 18  33 29 28
36 32 31  36 32 31  36 32 32  35 31 30  36 32 32  30 26 25
21 19 17  24 22 20  133 133 133  179 179 179  179 179 179  179 179 179
179 179 179  179 179 179  179 179 179  179 179 179  179 179 179  179 179 179
179 179 179  179 179 179  179 179 179  179 179 179  179 179 179  179 179 179
179 179 179  177 177 177  119 118 118  28 25 24  22 18 17  31 27 26
35 31 30  37 33 32  35 31 30  33 29 28  37 34 33  33 30 29
23 22 20  21 18 17  81 80 80  179 179 179  179 179 179  179 179 179
179 179 179  179 179 179  179 179 179  179 179 179  179 179 179  179 179 179
179 179 179  179 179 179  179 179 179  179 179 179  179 179 179  179 179 179
179 179 179  179 179 179  179 179 179  179 179 179  0 0 0  0 0 0
0 0 0  0 0 0  0 0 0  0 0 0  0 0 0  0 0 0
0 0 0  0 0 0  0 0 0  0 0 0  0 0 0  0 0 0
0 0 0  0 0 0  0 0 0  0 0 0  0 0 0  0 0 0
0 0 0  0 0 0  0 0 0  0 0 0  0 0 0  0 0 0
0 0 0  0 0 0  0 0 0  0 0 0  0 0 0  0 0 0
0 0 0  0 0 0  0 0 0  0 0 0  0 0 0  0 0 0
0 0 0  0 0 0  0 0 0  0 0 0  0 0 0  0 0 0
0 0 0  179 179 179  179 179 179  179 179 179  179 179 179  179 179 179
179 179 179  179 179 179  179 179 179  179 179 179  179 179 179  179 179 179
179 179 179  179 179 179  179 179 179  179 179 179  179 179 179  179 179 179
179 179 179  71 69 70  21 16 16  27 23 22  35 31 30  33 29 28
28 25 24  22 19 18  36 33 33  74 72 73  114 114 114  138 138 138
129 128 129  102 101 102  63 60 61  30 26 25  23 19 18  28 24 23
36 32 31  34 30 29  22 19 18  23 18 19  152 151 151  179 179 179
179 179 179  179 179 179  179 179 179  179 179 179  179 179 179  179 179 179
179 179 179  179 179 179  179 179 179  179 179 179  179 179 179  160 160 160
36 35 34  17 15 13  29 25 24  34 30 29  34 30 29  34 30 29
36 32 31  34 30 29  35 32 31  27 24 22  20 17 16  43 42 42
165 165 164  179 179 179  179 179 179  179 179 179  179 179 179  179 179 179
179 179 179  179 179 179  179 179 179  179 179 179  179 179 179  179 179 179
179 179 179  179 179 179  179 179 179  179 179 179  179 179 179  179 179 179
179 179 179  179 179 179  179 179 179  179 179 179  179 179 179  179 179 179
179 179 179  179 179 179  179 179 179  179 179 179  179 179 179  179 179 179
179 179 179  179 179 179  177 177 177  150 149 149  50 48 47  21 17 16
25 21 20  34 30 29  37 34 33  35 31 30  35 31 30  35 31 30
35 31 30  35 31 30  35 31 30  35 31 30  35 31 30  35 31 30
34 30 29  36 32 31  34 30 29  35 31 30  36 32 31  35 31 30
35 31 30  35 31 30  36 32 31  35 31 30  35 31 30  35 31 30
36 32 31  33 29 28  23 21 20  19 15 14  65 64 64  165 165 164
169 169 169  74 72 73  21 18 17  22 19 18  35 31 30  36 32 31
35 31 30  34 30 29  35 31 30  35 31 30  32 28 27  22 20 19
25 22 23  129 128 129  179 179 179  179 179 179  179 179 179  179 179 179
179 179 179  179 179 179  179 179 179  179 179 179  179 179 179  179 179 179
179 179 179  179 179 179  179 179 179  179 179 179  179 179 179  179 179 179
175 175 175  102 101 102  29 26 25  21 17 16  34 30 29  35 31 30
35 31 30  35 31 30  34 31 30  35 31 30  34 31 30  24 22 20
20 17 16  65 64 64  174 174 174  179 179 179  179 179 179  179 179 179
179 179 179  179 179 179  179 179 179  179 179 179  179 179 179  179 179 179
179 179 179  179 179 179  179 179 179  179 179 179  179 179 179  179 179 179
179 179 179  179 179 179  179 179 179  179 179 179  0 0 0  0 0 0
0 0 0  0 0 0  0 0 0  0 0 0  0 0 0  0 0 0
0 0 0  0 0 0  0 0 0  0 0 0  0 0 0  0 0 0
0 0 0  0 0 0  0 0 0  0 0 0  0 0 0  0 0 0
0 0 0  0 0 0  0 0 0  0 0 0  0 0 0  0 0 0
0 0 0  0 0 0  0 0 0  0 0 0  0 0 0  0 0 0
0 0 0  0 0 0  0 0 0  0 0 0  0 0 0  0 0 0
0 0 0  0 0 0  0 0 0  0 0 0  0 0 0  0 0 0
0 0 0  0 0 0  179 179 179  179 179 179  179 179 179  179 179 179
179 179 179  179 179 179  179 179 179  179 179 179  179 179 179  179 179 179
179 179 179  179 179 179  179 179 179  179 179 179  179 179 179  179 179 179
179 179 179  152 151 151  36 33 33  20 16 15  31 27 26  34 30 29
35 31 30  28 26 26  23 22 20  23 21 20  27 25 24  32 28 27
28 26 26  24 21 22  21 18 17  24 20 19  32 28 27  35 31 30
34 30 29  26 23 23  17 15 16  63 60 61  179 179 179  179 179 179
179 179 179  179 179 179  179 179 179  179 179 179  179 179 179  179 179 179
179 179 179  179 179 179  179 179 179  179 179 179  179 179 179  179 179 179
142 141 141  36 35 34  19 15 14  29 25 24  35 31 30  35 31 30
35 31 30  35 31 30  35 31 30  34 30 29  27 23 22  20 17 16
42 39 40  163 162 163  179 179 179  179 179 179  179 179 179  179 179 179
179 179 179  179 179 179  179 179 179  179 179 179  179 179 179  179 179 179
179 179 179  179 179 179  179 179 179  179 179 179  179 179 179  179 179 179
179 179 179  179 179 179  179 179 179  179 179 179  179 179 179  179 179 179
179 179 179  179 179 179  179 179 179  179 179 179  179 179 179  179 179 179
179 179 179  179 179 179  163 162 163  50 48 47  21 18 19  26 22 21
35 31 30  34 30 29  35 31 30  35 31 30  36 32 31  35 31 30
35 31 30  35 31 30  35 31 30  35 31 30  35 31 30  35 31 30
35 31 30  35 31 30  35 31 30  36 32 31  36 32 31  35 31 30
34 30 29  35 31 30  35 31 30  35 31 30  35 31 30  35 31 30
35 31 30  35 31 30  35 31 30  25 23 21  18 17 15  55 52 53
63 60 61  21 18 19  23 21 20  34 30 29  35 31 30  35 31 30
36 32 31  33 29 28  37 33 32  32 28 27  24 20 19  26 23 22
95 95 95  177 177 177  179 179 179  179 179 179  179 179 179  179 179 179
179 179 179  179 179 179  179 179 179  179 179 179  179 179 179  179 179 179
179 179 179  179 179 179  179 179 179  179 179 179  179 179 179  179 179 179
112 111 111  28 25 24  22 19 18  32 28 27  35 31 30  35 31 30
35 31 30  35 31 30  35 31 30  35 31 30  26 22 21  21 18 17
60 56 57  166 166 166  179 179 179  179 179 179  179 179 179  179 179 179
179 179 179  179 179 179  179 179 179  179 179 179  179 179 179  179 179 179
179 179 179  179 179 179  179 179 179  179 179 179  179 179 179  179 179 179
179 179 179  179 179 179  179 179 179  179 179 179  0 0 0  0 0 0
0 0 0  0 0 0  0 0 0  0 0 0  0 0 0  0 0 0
0 0 0  0 0 0  0 0 0  0 0 0  0 0 0  0 0 0
0 0 0  0 0 0  0 0 0  0 0 0  0 0 0  0 0 0
0 0 0  0 0 0  0 0 0  0 0 0  0 0 0  0 0 0
0 0 0  0 0 0  0 0 0  0 0 0  0 0 0  0 0 0
0 0 0  0 0 0  0 0 0  0 0 0  0 0 0  0 0 0
0 0 0  0 0 0  0 0 0  0 0 0  0 0 0  0 0 0
0 0 0  0 0 0  179 179 179  179 179 179  179 179 179  179 179 179
179 179 179  179 179 179  179 179 179  179 179 179  179 179 179  179 179 179
179 179 179  179 179 179  179 179 179  179 179 179  179 179 179  179 179 179
179 179 179  178 178 178  109 108 108  28 23 24  19 15 14  31 26 27
35 30 29  35 31 30  33 30 29  30 26 25  26 23 22  22 19 18
21 20 19  26 22 21  31 27 26  35 31 30  36 32 31  34 30 29
28 24 23  20 16 15  42 39 40  157 157 157  179 179 179  179 179 179
179 179 179  179 179 179  179 179 179  179 179 179  179 179 179  179 179 179
179 179 179  179 179 179  179 179 179  179 179 179  179 179 179  179 179 179
179 179 179  150 149 149  38 37 36  19 15 14  28 24 23  35 31 30
34 31 30  34 31 30  34 30 29  35 32 31  34 31 30  28 25 23
19 17 16  42 38 37  157 157 157  179 179 179  179 179 179  179 179 179
179 179 179  179 179 179  179 179 179  179 179 179  179 179 179  179 179 179
179 179 179  179 179 179  179 179 179  179 179 179  179 179 179  179 179 179
179 179 179  179 179 179  179 179 179  179 179 179  179 179 179  179 179 179
179 179 179  179 179 179  179 179 179  179 179 179  179 179 179  179 179 179
179 179 179  179 179 179  56 55 55  20 16 17  24 22 20  34 30 29
35 31 30  34 30 29  35 31 30  35 31 30  35 31 30  35 31 30
35 31 30  35 31 30  35 31 30  35 31 30  35 31 30  35 31 30
32 28 27  24 20 19  32 28 27  36 32 31  35 31 30  36 32 31
35 31 30  35 31 30  35 31 30  35 31 30  34 30 29  35 31 30
36 32 31  35 31 30  35 31 30  34 30 29  25 23 21  22 17 18
22 17 18  26 21 22  34 30 29  36 32 31  35 31 30  35 31 30
33 29 28  37 33 32  31 27 26  24 20 19  26 23 22  92 90 91
174 174 174  179 179 179  179 179 179  179 179 179  179 179 179  179 179 179
179 179 179  179 179 179  179 179 179  179 179 179  179 179 179  179 179 179
179 179 179  179 179 179  179 179 179  179 179 179  179 179 179  152 151 151
28 25 24  22 19 18  32 28 27  35 31 30  35 31 30  35 31 30
35 31 30  35 31 30  34 30 29  25 21 20  21 17 16  65 64 64
166 166 166  179 179 179  179 179 179  179 179 179  179 179 179  179 179 179
179 179 179  179 179 179  179 179 179  179 179 179  179 179 179  179 179 179
179 179 179  179 179 179  179 179 179  179 179 179  179 179 179  179 179 179
179 179 179  179 179 179  179 179 179  0 0 0  0 0 0  0 0 0
0 0 0  0 0 0  0 0 0  0 0 0  0 0 0  0 0 0
0 0 0  0 0 0  0 0 0  0 0 0  0 0 0  0 0 0
0 0 0  0 0 0  0 0 0  0 0 0  0 0 0  0 0 0
0 0 0  0 0 0  0 0 0  0 0 0  0 0 0  0 0 0
0 0 0  0 0 0  0 0 0  0 0 0  0 0 0  0 0 0
0 0 0  0 0 0  0 0 0  0 0 0  0 0 0  0 0 0
0 0 0  0 0 0  0 0 0  0 0 0  0 0 0  0 0 0
0 0 0  0 0 0  179 179 179  179 179 179  179 179 179  179 179 179
179 179 179  179 179 179  179 179 179  179 179 179  179 179 179  179 179 179
179 179 179  179 179 179  179 179 179  179 179 179  179 179 179  179 179 179
179 179 179  179 179 179  176 176 176  114 114 114  28 26 26  18 16 15
25 21 20  33 29 28  35 31 31  36 32 31  36 32 31  36 32 31
35 31 30  35 31 30  36 32 31  37 33 32  29 25 24  23 20 19
17 14 13  42 39 40  152 151 151  179 179 179  179 179 179  179 179 179
179 179 179  179 179 179  179 179 179  179 179 179  179 179 179  179 179 179
179 179 179  179 179 179  179 179 179  179 179 179  179 179 179  179 179 179
179 179 179  179 179 179  148 148 148  42 39 40  19 15 14  30 26 25
36 32 32  33 29 28  35 31 30  35 31 30  34 31 30  35 31 30
28 25 24  19 15 14  42 38 37  169 169 169  179 179 179  179 179 179
179 179 179  179 179 179  179 179 179  179 179 179  179 179 179  179 179 179
179 179 179  179 179 179  179 179 179  179 179 179  179 179 179  179 179 179
179 179 179  179 179 179  179 179 179  179 179 179  179 179 179  179 179 179
179 179 179  179 179 179  179 179 179  179 179 179  179 179 179  176 176 176
177 177 177  60 56 57  18 16 15  24 22 20  34 31 30  35 31 30
35 31 30  35 31 30  35 31 30  35 31 30  35 31 30  34 31 30
36 32 31  34 30 29  35 31 30  34 30 29  35 32 31  30 28 26
18 15 16  20 16 18  20 17 18  30 28 26  34 31 30  34 30 29
35 31 30  36 31 30  36 32 31  35 31 30  34 30 29  35 31 30
36 32 31  34 30 29  35 31 30  37 33 32  35 31 30  28 24 23
26 23 23  34 30 29  32 29 29  36 33 33  35 31 30  34 30 29
35 31 30  32 29 29  21 18 17  26 23 23  114 114 114  176 176 176
179 179 179  179 179 179  179 179 179  179 179 179  179 179 179  179 179 179
179 179 179  179 179 179  179 179 179  179 179 179  179 179 179  179 179 179
179 179 179  179 179 179  179 179 179  179 179 179  157 157 157  30 26 25
21 18 17  33 30 29  34 31 30  35 31 30  34 30 29  36 32 32
36 31 30  33 29 28  23 21 20  21 17 16  92 90 91  173 173 173
179 179 179  179 179 179  179 179 179  179 179 179  179 179 179  179 179 179
179 179 179  179 179 179  179 179 179  179 179 179  179 179 179  179 179 179
179 179 179  179 179 179  179 179 179  179 179 179  179 179 179  179 179 179
179 179 179  179 179 179  179 179 179  0 0 0  0 0 0  0 0 0
0 0 0  0 0 0  0 0 0  0 0 0  0 0 0  0 0 0
0 0 0  0 0 0  0 0 0  0 0 0  0 0 0  0 0 0
0 0 0  0 0 0  0 0 0  0 0 0  0 0 0  0 0 0
0 0 0  0 0 0  0 0 0  0 0 0  0 0 0  0 0 0
0 0 0  0 0 0  0 0 0  0 0 0  0 0 0  0 0 0
0 0 0  0 0 0  0 0 0  0 0 0  0 0 0  0 0 0
0 0 0  0 0 0  0 0 0  0 0 0  0 0 0  0 0 0
0 0 0  0 0 0  179 179 179  179 179 179  179 179 179  179 179 179
179 179 179  179 179 179  179 179 179  179 179 179  179 179 179  179 179 179
179 179 179  179 179 179  179 179 179  179 179 179  179 179 179  179 179 179
179 179 179  179 179 179  179 179 179  179 179 179  174 174 174  47 43 44
21 18 17  19 15 14  22 18 17  28 24 23  33 29 28  34 30 29
33 29 28  31 27 26  27 23 22  17 14 13  16 13 13  19 17 16
68 67 67  179 179 179  179 179 179  179 179 179  179 179 179  179 179 179
179 179 179  179 179 179  179 179 179  179 179 179  179 179 179  179 179 179
179 179 179  179 179 179  179 179 179  179 179 179  179 179 179  179 179 179
179 179 179  179 179 179  179 179 179  152 151 151  36 35 34  19 15 14
30 26 25  35 31 30  35 31 30  34 30 29  33 29 28  37 33 32
35 31 30  28 25 24  20 17 16  43 42 42  154 154 154  179 179 179
179 179 179  179 179 179  179 179 179  179 179 179  179 179 179  179 179 179
179 179 179  179 179 179  179 179 179  179 179 179  179 179 179  179 179 179
179 179 179  179 179 179  179 179 179  179 179 179  179 179 179  179 179 179
179 179 179  179 179 179  179 179 179  179 179 179  179 179 179  168 168 168
56 55 55  19 15 14  19 17 16  37 33 32  35 31 30  35 31 30
35 31 30  35 31 30  35 31 30  35 31 30  35 31 30  34 30 29
36 32 31  36 32 32  36 32 31  37 33 32  28 27 26  18 17 15
28 25 26  112 111 111  25 22 23  18 17 16  32 29 28  37 33 32
34 30 29  35 30 29  34 30 29  36 32 31  37 33 32  33 29 28
33 29 28  36 32 31  35 31 30  35 31 30  36 32 31  34 30 29
34 30 29  35 31 30  36 33 33  31 29 26  33 29 28  37 33 32
33 29 28  20 17 16  26 22 23  148 148 148  179 179 179  179 179 179
179 179 179  179 179 179  179 179 179  179 179 179  179 179 179  179 179 179
179 179 179  179 179 179  179 179 179  179 179 179  179 179 179  179 179 179
179 179 179  179 179 179  177 177 177  129 128 129  28 25 26  23 19 18
32 28 27  34 30 29  36 32 31  36 32 31  34 30 29  34 30 29
34 30 29  23 21 19  20 17 16  88 87 87  179 179 179  179 179 179
179 179 179  179 179 179  179 179 179  179 179 179  179 179 179  179 179 179
179 179 179  179 179 179  179 179 179  179 179 179  179 179 179  179 179 179
179 179 179  179 179 179  179 179 179  179 179 179  179 179 179  179 179 179
179 179 179  179 179 179  179 179 179  0 0 0  0 0 0  0 0 0
0 0 0  0 0 0  0 0 0  0 0 0  0 0 0  0 0 0
0 0 0  0 0 0  0 0 0  0 0 0  0 0 0  0 0 0
0 0 0  0 0 0  0 0 0  0 0 0  0 0 0  0 0 0
0 0 0  0 0 0  0 0 0  0 0 0  0 0 0  0 0 0
0 0 0  0 0 0  0 0 0  0 0 0  0 0 0  0 0 0
0 0 0  0 0 0  0 0 0  0 0 0  0 0 0  0 0 0
0 0 0  0 0 0  0 0 0  0 0 0  0 0 0  0 0 0
0 0 0  0 0 0  0 0 0  179 179 179  179 179 179  179 179 179
179 179 179  179 179 179  179 179 179  179 179 179  179 179 179  179 179 179
179 179 179  179 179 179  179 179 179  179 179 179  179 179 179  179 179 179
179 179 179  179 179 179  179 179 179  179 179 179  179 179 179  179 179 179
106 104 105  33 33 33  21 18 20  18 16 17  16 15 15  17 15 16
17 15 16  16 15 15  17 15 16  21 19 20  47 43 44  150 149 149
179 179 179  179 179 179  179 179 179  179 179 179  179 179 179  179 179 179
179 179 179  179 179 179  179 179 179  179 179 179  179 179 179  179 179 179
179 179 179  179 179 179  179 179 179  179 179 179  179 179 179  179 179 179
179 179 179  179 179 179  179 179 179  179 179 179  145 145 145  33 33 33
17 15 13  30 26 25  35 31 30  35 31 30  37 33 32  34 30 29
36 32 31  35 31 30  27 25 23  21 17 16  47 43 44  157 157 157
179 179 179  179 179 179  179 179 179  179 179 179  179 179 179  179 179 179
179 179 179  179 179 179  179 179 179  179 179 179  179 179 179  179 179 179
179 179 179  179 179 179  179 179 179  179 179 179  179 179 179  179 179 179
179 179 179  179 179 179  179 179 179  179 179 179  148 148 148  52 50 50
21 18 17  26 22 21  37 33 32  35 31 30  35 31 30  35 31 30
35 31 30  35 31 30  35 31 30  35 31 30  35 31 30  36 32 31
34 30 29  34 30 29  35 31 30  31 27 26  19 17 16  25 25 24
145 145 145  179 179 179  99 97 97  23 21 22  20 16 15  29 25 24
36 32 31  35 31 30  35 31 30  34 30 29  35 31 30  36 32 31
36 32 31  35 32 31  35 31 30  34 30 29  34 30 29  36 32 31
36 32 31  35 31 30  33 30 29  36 32 31  35 31 30  32 28 27
22 19 18  26 23 23  142 141 141  179 179 179  179 179 179  179 179 179
179 179 179  179 179 179  179 179 179  179 179 179  179 179 179  179 179 179
179 179 179  179 179 179  179 179 179  179 179 179  179 179 179  179 179 179
179 179 179  174 174 174  102 101 102  30 26 25  20 17 16  33 28 27
35 31 30  35 31 30  35 31 30  34 30 29  35 31 30  34 30 29
24 22 20  21 18 17  65 64 64  173 173 173  179 179 179  179 179 179
179 179 179  179 179 179  179 179 179  179 179 179  179 179 179  179 179 179
179 179 179  179 179 179  179 179 179  179 179 179  179 179 179  179 179 179
179 179 179  179 179 179  179 179 179  179 179 179  179 179 179  179 179 179
179 179 179  179 179 179  0 0 0  0 0 0  0 0 0  0 0 0
0 0 0  0 0 0  0 0 0  0 0 0  0 0 0  0 0 0
0 0 0  0 0 0  0 0 0  0 0 0  0 0 0  0 0 0
0 0 0  0 0 0  0 0 0  0 0 0  0 0 0  0 0 0
0 0 0  0 0 0  0 0 0  0 0 0  0 0 0  0 0 0
0 0 0  0 0 0  0 0 0  0 0 0  0 0 0  0 0 0
0 0 0  0 0 0  0 0 0  0 0 0  0 0 0  0 0 0
0 0 0  0 0 0  0 0 0  0 0 0  0 0 0  0 0 0
0 0 0  0 0 0  0 0 0  179 179 179  179 179 179  179 179 179
179 179 179  179 179 179  179 179 179  179 179 179  179 179 179  179 179 179
179 179 179  179 179 179  179 179 179  179 179 179  179 179 179  179 179 179
179 179 179  179 179 179  179 179 179  179 179 179  179 179 179  179 179 179
179 179 179  171 171 171  119 118 118  71 69 70  50 48 47  43 42 42
43 42 42  55 52 53  81 80 80  148 148 148  179 179 179  179 179 179
179 179 179  179 179 179  179 179 179  179 179 179  179 179 179  179 179 179
179 179 179  179 179 179  179 179 179  179 179 179  179 179 179  179 179 179
179 179 179  179 179 179  179 179 179  179 179 179  179 179 179  179 179 179
179 179 179  179 179 179  179 179 179  179 179 179  179 179 179  145 145 145
36 35 34  16 14 14  29 26 25  35 31 30  35 31 30  33 29 28
36 32 31  35 32 31  34 30 29  28 23 24  22 17 18  47 43 44
163 162 163  179 179 179  179 179 179  179 179 179  179 179 179  179 179 179
179 179 179  179 179 179  179 179 179  179 179 179  179 179 179  179 179 179
179 179 179  179 179 179  179 179 179  179 179 179  179 179 179  179 179 179
179 179 179  179 179 179  179 179 179  157 157 157  50 48 47  23 19 18
25 21 20  36 32 31  35 31 30  34 30 29  35 31 30  35 31 30
35 31 30  35 31 30  35 31 30  35 31 30  35 31 30  35 31 30
35 31 30  35 31 30  31 27 26  20 17 16  27 25 24  126 125 126
179 179 179  179 179 179  179 179 179  95 95 95  23 21 22  18 15 16
30 28 26  35 31 30  35 31 30  35 31 30  35 31 30  34 30 29
35 31 30  34 30 29  35 31 30  35 31 30  34 30 29  34 30 29
35 31 30  35 31 30  35 31 30  35 31 30  32 28 27  23 21 20
27 25 24  99 97 97  179 179 179  179 179 179  179 179 179  179 179 179
179 179 179  179 179 179  179 179 179  179 179 179  179 179 179  179 179 179
179 179 179  179 179 179  179 179 179  179 179 179  179 179 179  179 179 179
178 178 178  112 111 111  31 26 27  22 18 17  32 28 27  35 31 31
36 31 30  35 31 30  34 30 29  37 33 32  33 29 28  25 21 20
21 18 17  60 56 57  163 162 163  179 179 179  179 179 179  179 179 179
179 179 179  179 179 179  179 179 179  179 179 179  179 179 179  179 179 179
179 179 179  179 179 179  179 179 179  179 179 179  179 179 179  179 179 179
179 179 179  179 179 179  179 179 179  179 179 179  179 179 179  179 179 179
179 179 179  0 0 0  0 0 0  0 0 0  0 0 0  0 0 0
0 0 0  0 0 0  0 0 0  0 0 0  0 0 0  0 0 0
0 0 0  0 0 0  0 0 0  0 0 0  0 0 0  0 0 0
0 0 0  0 0 0  0 0 0  0 0 0  0 0 0  0 0 0
0 0 0  0 0 0  0 0 0  0 0 0  0 0 0  0 0 0
0 0 0  0 0 0  0 0 0  0 0 0  0 0 0  0 0 0
0 0 0  0 0 0  0 0 0  0 0 0  0 0 0  0 0 0
0 0 0  0 0 0  0 0 0  0 0 0  0 0 0  0 0 0
0 0 0  0 0 0  0 0 0  0 0 0  179 179 179  179 179 179
179 179 179  179 179 179  179 179 179  179 179 179  179 179 179  179 179 179
179 179 179  179 179 179  179 179 179  179 179 179  179 179 179  179 179 179
179 179 179  179 179 179  179 179 179  179 179 179  179 179 179  179 179 179
179 179 179  179 179 179  179 179 179  179 179 179  179 179 179  179 179 179
179 179 179  179 179 179  179 179 179  179 179 179  179 179 179  179 179 179
179 179 179  179 179 179  179 179 179  179 179 179  179 179 179  179 179 179
179 179 179  179 179 179  179 179 179  179 179 179  179 179 179  179 179 179
179 179 179  179 179 179  179 179 179  179 179 179  179 179 179  179 179 179
179 179 179  179 179 179  179 179 179  179 179 179  179 179 179  179 179 179
157 157 157  38 37 36  18 15 16  29 25 24  36 32 31  34 30 29
35 31 30  35 31 30  35 30 29  36 31 30  27 22 21  19 17 16
42 39 40  163 162 163  179 179 179  179 179 179  179 179 179  179 179 179
179 179 179  179 179 179  179 179 179  179 179 179  179 179 179  179 179 179
179 179 179  179 179 179  179 179 179  179 179 179  179 179 179  179 179 179
179 179 179  173 173 173  178 178 178  55 52 53  24 19 18  26 22 21
33 29 28  36 32 31  35 31 30  35 31 30  35 31 30  35 31 30
35 31 30  35 31 30  35 31 30  35 31 30  35 31 30  35 31 30
36 32 32  30 26 25  19 17 16  27 25 24  112 111 111  178 178 178
179 179 179  179 179 179  179 179 179  179 179 179  102 101 102  25 22 23
17 15 16  29 26 25  35 31 30  34 30 29  36 32 31  34 30 29
35 31 30  34 30 29  35 31 30  35 31 30  35 31 30  35 31 30
36 32 31  35 31 30  34 30 29  36 32 31  26 22 21  27 23 22
88 87 87  175 175 175  179 179 179  179 179 179  179 179 179  179 179 179
179 179 179  179 179 179  179 179 179  179 179 179  179 179 179  179 179 179
179 179 179  179 179 179  179 179 179  179 179 179  179 179 179  179 179 179
129 128 129  31 26 27  23 19 18  32 28 27  36 32 31  33 29 28
36 32 31  34 30 29  36 32 31  33 29 28  23 21 19  21 16 16
63 60 61  166 166 166  179 179 179  179 179 179  179 179 179  179 179 179
179 179 179  179 179 179  179 179 179  179 179 179  179 179 179  179 179 179
179 179 179  179 179 179  179 179 179  179 179 179  179 179 179  179 179 179
179 179 179  179 179 179  179 179 179  179 179 179  179 179 179  179 179 179
179 179 179  0 0 0  0 0 0  0 0 0  0 0 0  0 0 0
0 0 0  0 0 0  0 0 0  0 0 0  0 0 0  0 0 0
0 0 0  0 0 0  0 0 0  0 0 0  0 0 0  0 0 0
0 0 0  0 0 0  0 0 0  0 0 0  0 0 0  0 0 0
0 0 0  0 0 0  0 0 0  0 0 0  0 0 0  0 0 0
0 0 0  0 0 0  0 0 0  0 0 0  0 0 0  0 0 0
0 0 0  0 0 0  0 0 0  0 0 0  0 0 0  0 0 0
0 0 0  0 0 0  0 0 0  0 0 0  0 0 0  0 0 0
0 0 0  0 0 0  0 0 0  0 0 0  179 179 179  179 179 179
179 179 179  179 179 179  179 179 179  179 179 179  179 179 179  179 179 179
179 179 179  179 179 179  179 179 179  179 179 179  179 179 179  179 179 179
179 179 179  179 179 179  179 179 179  179 179 179  179 179 179  179 179 179
179 179 179  179 179 179  179 179 179  179 179 179  179 179 179  179 179 179
179 179 179  179 179 179  179 179 179  179 179 179  179 179 179  179 179 179
179 179 179  179 179 179  179 179 179  179 179 179  179 179 179  179 179 179
179 179 179  179 179 179  179 179 179  179 179 179  179 179 179  179 179 179
179 179 179  179 179 179  179 179 179  179 179 179  179 179 179  179 179 179
179 179 179  179 179 179  179 179 179  179 179 179  179 179 179  179 179 179
179 179 179  148 148 148  38 37 36  18 15 16  29 25 24  36 32 31
35 31 30  36 31 30  35 31 30  35 31 30  36 32 31  29 25 24
18 15 16  42 38 37  164 163 163  179 179 179  179 179 179  179 179 179
179 179 179  179 179 179  179 179 179  179 179 179  179 179 179  179 179 179
179 179 179  179 179 179  179 179 179  179 179 179  179 179 179  179 179 179
179 179 179  177 177 177  60 56 57  19 17 16  27 23 22  35 31 30
34 30 29  36 32 31  36 32 31  34 30 29  35 31 30  35 31 30
35 31 30  35 31 30  35 31 30  35 31 30  35 31 30  36 32 31
31 27 26  19 17 16  27 24 24  112 111 111  177 177 177  179 179 179
179 179 179  179 179 179  179 179 179  179 179 179  179 179 179  114 114 114
25 22 23  18 17 15  32 28 27  36 32 31  35 31 30  36 32 31
35 31 30  35 31 30  34 30 29  34 30 29  34 30 29  35 31 30
35 31 30  35 31 30  36 32 31  35 31 30  29 25 24  23 19 20
60 59 59  169 169 169  179 179 179  179 179 179  179 179 179  179 179 179
179 179 179  179 179 179  179 179 179  179 179 179  179 179 179  179 179 179
179 179 179  179 179 179  179 179 179  179 179 179  179 179 179  152 151 151
31 26 27  23 19 18  32 28 27  35 31 30  34 30 29  34 30 29
37 34 33  35 31 30  34 30 29  23 20 18  20 17 16  74 72 73
171 171 171  179 179 179  179 179 179  179 179 179  179 179 179  179 179 179
179 179 179  179 179 179  179 179 179  179 179 179  179 179 179  179 179 179
179 179 179  179 179 179  179 179 179  179 179 179  179 179 179  179 179 179
179 179 179  179 179 179  179 179 179  179 179 179  179 179 179  179 179 179
0 0 0  0 0 0  0 0 0  0 0 0  0 0 0  0 0 0
0 0 0  0 0 0  0 0 0  0 0 0  0 0 0  0 0 0
0 0 0  0 0 0  0 0 0  0 0 0  0 0 0  0 0 0
0 0 0  0 0 0  0 0 0  0 0 0  0 0 0  0 0 0
0 0 0  0 0 0  0 0 0  0 0 0  0 0 0  0 0 0
0 0 0  0 0 0  0 0 0  0 0 0  0 0 0  0 0 0
0 0 0  0 0 0  0 0 0  0 0 0  0 0 0  0 0 0
0 0 0  0 0 0  0 0 0  0 0 0  0 0 0  0 0 0
0 0 0  0 0 0  0 0 0  0 0 0  0 0 0  179 179 179
179 179 179  179 179 179  179 179 179  179 179 179  179 179 179  179 179 179
179 179 179  179 179 179  179 179 179  179 179 179  179 179 179  179 179 179
179 179 179  179 179 179  179 179 179  179 179 179  179 179 179  179 179 179
178 178 178  178 178 178  178 178 178  178 178 178  178 178 178  178 178 178
178 178 178  178 178 178  178 178 178  178 178 178  178 178 178  178 178 178
179 179 179  179 179 179  179 179 179  179 179 179  179 179 179  179 179 179
179 179 179  179 179 179  179 179 179  179 179 179  179 179 179  179 179 179
179 179 179  179 179 179  179 179 179  179 179 179  179 179 179  179 179 179
179 179 179  179 179 179  179 179 179  179 179 179  179 179 179  179 179 179
179 179 179  179 179 179  156 155 155  42 38 37  19 15 14  29 25 24
37 33 32  37 31 31  35 30 29  35 31 29  34 30 29  36 32 31
28 25 26  20 16 17  47 43 44  163 162 163  179 179 179  179 179 179
179 179 179  179 179 179  179 179 179  179 179 179  179 179 179  179 179 179
179 179 179  179 179 179  179 179 179  179 179 179  179 179 179  176 176 176
174 174 174  60 56 57  17 15 16  23 21 22  36 32 31  35 31 30
35 31 30  35 31 30  33 29 28  35 31 30  34 30 29  35 31 30
35 31 30  35 31 30  35 31 30  35 31 30  35 31 30  31 27 26
19 15 14  28 25 24  166 166 166  179 179 179  179 179 179  179 179 179
179 179 179  179 179 179  179 179 179  179 179 179  179 179 179  179 179 179
119 118 118  26 23 22  20 16 15  32 28 27  35 31 30  35 31 30
35 31 30  35 31 30  35 31 30  35 31 30  35 31 30  35 31 30
34 31 30  35 31 30  33 29 28  37 33 32  33 29 28  24 20 19
21 18 17  79 76 76  179 179 179  179 179 179  179 179 179  179 179 179
179 179 179  179 179 179  179 179 179  179 179 179  179 179 179  179 179 179
179 179 179  179 179 179  179 179 179  179 179 179  145 145 145  30 26 25
16 15 15  32 28 27  36 32 31  35 31 30  36 31 30  36 32 31
33 29 28  35 31 30  24 22 20  21 17 16  106 104 105  179 179 179
179 179 179  179 179 179  179 179 179  179 179 179  179 179 179  179 179 179
179 179 179  179 179 179  179 179 179  179 179 179  179 179 179  179 179 179
179 179 179  179 179 179  179 179 179  179 179 179  179 179 179  179 179 179
179 179 179  179 179 179  179 179 179  179 179 179  179 179 179  0 0 0
0 0 0  0 0 0  0 0 0  0 0 0  0 0 0  0 0 0
0 0 0  0 0 0  0 0 0  0 0 0  0 0 0  0 0 0
0 0 0  0 0 0  0 0 0  0 0 0  0 0 0  0 0 0
0 0 0  0 0 0  0 0 0  0 0 0  0 0 0  0 0 0
0 0 0  0 0 0  0 0 0  0 0 0  0 0 0  0 0 0
0 0 0  0 0 0  0 0 0  0 0 0  0 0 0  0 0 0
0 0 0  0 0 0  0 0 0  0 0 0  0 0 0  0 0 0
0 0 0  0 0 0  0 0 0  0 0 0  0 0 0  0 0 0
0 0 0  0 0 0  0 0 0  0 0 0  0 0 0  179 179 179
179 179 179  179 179 179  179 179 179  179 179 179  179 179 179  179 179 179
179 179 179  179 179 179  179 179 179  179 179 179  179 179 179  179 179 179
179 179 179  179 179 179  179 179 179  178 178 178  178 178 178  178 178 178
178 178 178  178 178 178  178 178 178  177 177 177  177 177 177  177 177 177
177 177 177  177 177 177  177 177 177  178 178 178  178 178 178  178 178 178
178 178 178  178 178 178  178 178 178  179 179 179  179 179 179  179 179 179
179 179 179  179 179 179  179 179 179  179 179 179  179 179 179  179 179 179
179 179 179  179 179 179  179 179 179  179 179 179  179 179 179  179 179 179
179 179 179  179 179 179  179 179 179  179 179 179  179 179 179  179 179 179
179 179 179  179 179 179  179 179 179  154 154 154  36 35 34  16 15 15
28 25 26  34 31 30  34 31 30  36 32 31  35 31 30  33 29 28
36 32 31  27 23 22  21 17 16  47 43 44  152 151 151  179 179 179
179 179 179  179 179 179  179 179 179  179 179 179  179 179 179  179 179 179
179 179 179  179 179 179  179 179 179  179 179 179  178 178 178  150 149 149
52 50 50  20 18 16  25 21 20  36 32 31  35 31 30  35 31 30
35 31 30  35 31 30  35 31 30  35 31 30  35 31 30  35 31 30
35 31 30  35 31 30  34 30 29  35 31 30  31 27 26  18 16 17
27 25 24  157 157 157  179 179 179  179 179 179  179 179 179  179 179 179
179 179 179  179 179 179  179 179 179  179 179 179  179 179 179  179 179 179
179 179 179  99 97 97  23 21 22  18 15 16  32 28 27  35 31 30
34 30 29  35 31 30  34 30 29  34 30 29  36 32 31  35 31 30
35 31 30  35 31 30  35 31 30  35 31 30  35 31 30  34 31 30
24 20 19  21 18 17  76 75 75  169 169 169  179 179 179  179 179 179
179 179 179  179 179 179  179 179 179  179 179 179  179 179 179  179 179 179
179 179 179  179 179 179  176 176 176  112 111 111  32 28 27  23 18 17
32 28 27  36 32 31  36 31 30  35 31 30  35 31 30  36 32 31
33 30 29  24 22 20  21 18 17  74 72 73  177 177 177  179 179 179
179 179 179  179 179 179  179 179 179  179 179 179  179 179 179  179 179 179
179 179 179  179 179 179  179 179 179  179 179 179  179 179 179  179 179 179
179 179 179  179 179 179  179 179 179  179 179 179  179 179 179  179 179 179
179 179 179  179 179 179  179 179 179  179 179 179  0 0 0  0 0 0
0 0 0  0 0 0  0 0 0  0 0 0  0 0 0  0 0 0
0 0 0  0 0 0  0 0 0  0 0 0  0 0 0  0 0 0
0 0 0  0 0 0  0 0 0  0 0 0  0 0 0  0 0 0
0 0 0  0 0 0  0 0 0  0 0 0  0 0 0  0 0 0
0 0 0  0 0 0  0 0 0  0 0 0  0 0 0  0 0 0
0 0 0  0 0 0  0 0 0  0 0 0  0 0 0  0 0 0
0 0 0  0 0 0  0 0 0  0 0 0  0 0 0  0 0 0
0 0 0  0 0 0  0 0 0  0 0 0  0 0 0  0 0 0
0 0 0  0 0 0  0 0 0  0 0 0  0 0 0  0 0 0
179 179 179  179 179 179  179 179 179  179 179 179  179 179 179  179 179 179
179 179 179  179 179 179  179 179 179  179 179 179  179 179 179  179 179 179
179 179 179  179 179 179  178 178 178  178 178 178  178 178 178  178 178 178
177 177 177  177 177 177  177 177 177  177 177 177  177 177 177  177 177 177
177 177 177  177 177 177  177 177 177  177 177 177  177 177 177  177 177 177
178 178 178  178 178 178  178 178 178  178 178 178  179 179 179  179 179 179
179 179 179  179 179 179  179 179 179  179 179 179  179 179 179  179 179 179
179 179 179  179 179 179  179 179 179  179 179 179  179 179 179  179 179 179
179 179 179  179 179 179  179 179 179  179 179 179  179 179 179  179 179 179
179 179 179  179 179 179  179 179 179  179 179 179  145 145 145  36 33 33
17 15 16  28 25 24  35 31 30  34 30 29  34 30 29  34 30 29
36 32 31  34 30 29  28 24 23  22 19 18  43 42 42  162 161 161
179 179 179  179 179 179  179 179 179  179 179 179  179 179 179  179 179 179
179 179 179  179 179 179  179 179 179  179 179 179  154 154 154  50 48 47
22 19 18  24 22 20  37 33 32  35 32 31  35 31 30  35 31 30
35 31 30  35 31 30  35 31 30  35 31 30  35 31 30  35 31 30
34 30 29  36 32 31  36 32 31  31 27 26  21 18 17  27 25 24
138 138 138  179 179 179  179 179 179  179 179 179  179 179 179  179 179 179
179 179 179  179 179 179  179 179 179  179 179 179  179 179 179  179 179 179
179 179 179  179 179 179  99 97 97  21 19 20  16 13 13  31 27 26
36 32 31  35 31 30  34 30 29  35 31 30  35 31 30  36 32 31
35 31 30  35 31 30  34 30 29  37 33 32  33 29 28  35 31 30
35 31 30  23 21 19  20 18 17  60 56 57  167 167 167  179 179 179
179 179 179  179 179 179  179 179 179  179 179 179  179 179 179  179 179 179
179 179 179  177 177 177  102 101 102  30 26 25  24 20 19  33 29 28
33 29 28  36 32 31  36 31 30  35 31 30  35 31 30  33 29 28
25 22 20  21 18 17  60 56 57  167 167 167  179 179 179  179 179 179
179 179 179  179 179 179  179 179 179  179 179 179  179 179 179  179 179 179
179 179 179  179 179 179  179 179 179  179 179 179  179 179 179  179 179 179
179 179 179  179 179 179  179 179 179  179 179 179  179 179 179  179 179 179
179 179 179  179 179 179  179 179 179  0 0 0  0 0 0  0 0 0
0 0 0  0 0 0  0 0 0  0 0 0  0 0 0  0 0 0
0 0 0  0 0 0  0 0 0  0 0 0  0 0 0  0 0 0
0 0 0  0 0 0  0 0 0  0 0 0  0 0 0  0 0 0
0 0 0  0 0 0  0 0 0  0 0 0  0 0 0  0 0 0
0 0 0  0 0 0  0 0 0  0 0 0  0 0 0  0 0 0
0 0 0  0 0 0  0 0 0  0 0 0  0 0 0  0 0 0
0 0 0  0 0 0  0 0 0  0 0 0  0 0 0  0 0 0
0 0 0  0 0 0  0 0 0  0 0 0  0 0 0  0 0 0
0 0 0  0 0 0  0 0 0  0 0 0  0 0 0  0 0 0
179 179 179  179 179 179  179 179 179  179 179 179  179 179 179  179 179 179
179 179 179  179 179 179  179 179 179  179 179 179  179 179 179  179 179 179
179 179 179  178 178 178  178 178 178  178 178 178  178 178 178  177 177 177
177 177 177  177 177 177  177 177 177  176 176 176  176 176 176  176 176 176
176 176 176  176 176 176  176 176 176  177 177 177  177 177 177  177 177 177
178 178 178  178 178 178  178 178 178  178 178 178  178 178 178  179 179 179
179 179 179  179 179 179  179 179 179  179 179 179  179 179 179  179 179 179
179 179 179  179 179 179  179 179 179  179 179 179  179 179 179  179 179 179
179 179 179  179 179 179  179 179 179  179 179 179  179 179 179  179 179 179
179 179 179  179 179 179  179 179 179  179 179 179  179 179 179  148 148 148
38 37 36  19 15 14  28 24 23  35 31 30  35 32 31  36 32 31
33 30 29  36 32 31  35 31 30  27 24 22  20 18 16  42 39 40
157 157 157  179 179 179  179 179 179  179 179 179  179 179 179  179 179 179
179 179 179  179 179 179  179 179 179  179 179 179  55 52 53  22 19 18
25 23 21  34 31 30  33 29 28  35 31 30  35 31 30  35 31 30
35 31 30  35 31 30  35 31 30  35 31 30  35 31 30  35 31 30
36 32 31  36 32 31  29 26 25  19 17 16  28 26 26  109 108 108
178 178 178  179 179 179  179 179 179  179 179 179  179 179 179  179 179 179
179 179 179  179 179 179  179 179 179  179 179 179  179 179 179  179 179 179
179 179 179  179 179 179  179 179 179  102 101 102  24 22 20  20 16 15
29 26 25  35 31 30  34 30 29  36 32 31  36 32 31  35 31 30
35 31 30  35 31 30  35 31 30  34 30 29  35 31 30  35 31 30
36 32 31  32 29 28  26 23 22  20 17 18  55 52 53  163 162 163
179 179 179  179 179 179  179 179 179  179 179 179  179 179 179  179 179 179
179 179 179  119 118 118  30 28 26  22 20 19  30 28 26  35 31 30
36 32 31  36 32 31  35 31 30  35 31 30  34 30 29  24 22 20
22 19 18  60 59 59  165 165 164  179 179 179  179 179 179  179 179 179
179 179 179  179 179 179  179 179 179  179 179 179  179 179 179  179 179 179
179 179 179  179 179 179  179 179 179  179 179 179  179 179 179  179 179 179
179 179 179  179 179 179  179 179 179  179 179 179  179 179 179  179 179 179
179 179 179  179 179 179  179 179 179  0 0 0  0 0 0  0 0 0
0 0 0  0 0 0  0 0 0  0 0 0  0 0 0  0 0 0
0 0 0  0 0 0  0 0 0  0 0 0  0 0 0  0 0 0
0 0 0  0 0 0  0 0 0  0 0 0  0 0 0  0 0 0
0 0 0  0 0 0  0 0 0  0 0 0  0 0 0  0 0 0
0 0 0  0 0 0  0 0 0  0 0 0  0 0 0  0 0 0
0 0 0  0 0 0  0 0 0  0 0 0  0 0 0  0 0 0
0 0 0  0 0 0  0 0 0  0 0 0  0 0 0  0 0 0
0 0 0  0 0 0  0 0 0  0 0 0  0 0 0  0 0 0
0 0 0  0 0 0  0 0 0  0 0 0  0 0 0  0 0 0
0 0 0  179 179 179  179 179 179  179 179 179  179 179 179  179 179 179
179 179 179  179 179 179  179 179 179  179 179 179  179 179 179  179 179 179
179 179 179  178 178 178  178 178 178  178 178 178  178 178 178  178 178 178
177 177 177  177 177 177  177 177 177  177 177 177  177 177 177  177 177 177
177 177 177  177 177 177  177 177 177  177 177 177  177 177 177  177 177 177
178 178 178  178 178 178  178 178 178  178 178 178  179 179 179  179 179 179
179 179 179  179 179 179  179 179 179  179 179 179  179 179 179  179 179 179
179 179 179  179 179 179  179 179 179  179 179 179  179 179 179  179 179 179
179 179 179  179 179 179  179 179 179  179 179 179  179 179 179  179 179 179
179 179 179  179 179 179  179 179 179  179 179 179  179 179 179  179 179 179
156 155 155  43 42 42  19 15 16  28 24 23  35 31 30  35 31 30
35 31 30  35 31 30  35 31 30  35 31 30  26 22 21  19 17 16
42 39 40  166 166 166  179 179 179  179 179 179  179 179 179  179 179 179
179 179 179  179 179 179  179 179 179  60 59 59  21 19 17  23 22 20
34 31 30  35 31 30  34 30 29  36 32 31  35 31 30  35 31 30
35 31 30  35 31 30  35 31 30  35 31 30  35 31 30  35 31 30
35 31 30  27 25 24  18 16 15  28 26 26  109 108 108  177 177 177
179 179 179  179 179 179  179 179 179  179 179 179  179 179 179  179 179 179
179 179 179  179 179 179  179 179 179  179 179 179  179 179 179  179 179 179
179 179 179  179 179 179  179 179 179  179 179 179  114 114 114  26 23 23
18 16 17  30 26 25  35 31 30  35 31 30  34 30 29  35 31 30
35 31 30  35 31 30  35 31 30  36 32 31  35 31 30  35 31 30
35 31 30  35 32 31  34 30 29  25 22 23  20 18 17  60 56 57
173 173 173  179 179 179  179 179 179  179 179 179  179 179 179  172 172 172
150 149 149  30 28 26  21 19 17  30 28 26  34 31 30  36 32 31
35 31 30  33 29 28  36 32 31  34 31 30  22 21 19  21 18 19
71 69 70  168 168 168  179 179 179  179 179 179  179 179 179  179 179 179
179 179 179  179 179 179  179 179 179  179 179 179  179 179 179  179 179 179
179 179 179  179 179 179  179 179 179  179 179 179  179 179 179  179 179 179
179 179 179  179 179 179  179 179 179  179 179 179  179 179 179  179 179 179
179 179 179  179 179 179  0 0 0  0 0 0  0 0 0  0 0 0
0 0 0  0 0 0  0 0 0  0 0 0  0 0 0  0 0 0
0 0 0  0 0 0  0 0 0  0 0 0  0 0 0  0 0 0
0 0 0  0 0 0  0 0 0  0 0 0  0 0 0  0 0 0
0 0 0  0 0 0  0 0 0  0 0 0  0 0 0  0 0 0
0 0 0  0 0 0  0 0 0  0 0 0  0 0 0  0 0 0
0 0 0  0 0 0  0 0 0  0 0 0  0 0 0  0 0 0
0 0 0  0 0 0  0 0 0  0 0 0  0 0 0  0 0 0
0 0 0  0 0 0  0 0 0  0 0 0  0 0 0  0 0 0
0 0 0  0 0 0  0 0 0  0 0 0  0 0 0  0 0 0
0 0 0  0 0 0  179 179 179  179 179 179  179 179 179  179 179 179
179 179 179  179 179 179  179 179 179  179 179 179  179 179 179  179 179 179
179 179 179  178 178 178  178 178 178  178 178 178  178 178 178  177 177 177
177 177 177  177 177 177  176 176 176  176 176 176  176 176 176  176 176 176
176 176 176  176 176 176  176 176 176  177 177 177  177 177 177  177 177 177
177 177 177  178 178 178  178 178 178  178 178 178  178 178 178  179 179 179
179 179 179  179 179 179  179 179 179  179 179 179  179 179 179  179 179 179
179 179 179  179 179 179  179 179 179  179 179 179  179 179 179  179 179 179
179 179 179  179 179 179  179 179 179  179 179 179  179 179 179  179 179 179
179 179 179  179 179 179  179 179 179  179 179 179  179 179 179  179 179 179
179 179 179  154 154 154  42 38 37  19 15 16  31 27 26  35 31 30
33 29 28  36 32 31  33 30 29  36 32 31  37 34 33  27 23 22
19 17 16  47 43 44  170 169 169  179 179 179  179 179 179  179 179 179
179 179 179  175 175 175  63 60 61  20 17 16  22 21 19  35 31 30
34 30 29  34 30 29  34 30 29  35 31 30  35 31 30  35 31 30
35 31 30  35 31 30  35 31 30  35 31 30  35 31 30  36 32 31
30 26 25  16 13 13  28 26 26  133 133 133  178 178 178  179 179 179
179 179 179  179 179 179  179 179 179  179 179 179  179 179 179  179 179 179
179 179 179  179 179 179  179 179 179  179 179 179  179 179 179  179 179 179
179 179 179  179 179 179  179 179 179  179 179 179  179 179 179  114 114 114
26 22 23  19 16 16  31 27 26  37 34 33  33 29 28  36 32 31
35 31 30  35 31 30  33 29 28  35 31 30  36 32 31  36 32 31
35 31 30  35 31 30  35 31 30  34 30 29  27 23 22  21 18 17
71 69 70  177 177 177  179 179 179  179 179 179  179 179 179  152 151 151
30 26 25  18 17 15  30 28 26  37 33 32  34 30 29  35 31 30
32 28 27  37 34 33  34 31 30  23 21 19  21 18 17  106 104 105
176 176 176  179 179 179  179 179 179  179 179 179  179 179 179  179 179 179
179 179 179  179 179 179  179 179 179  179 179 179  179 179 179  179 179 179
179 179 179  179 179 179  179 179 179  179 179 179  179 179 179  179 179 179
179 179 179  179 179 179  179 179 179  179 179 179  179 179 179  179 179 179
179 179 179  0 0 0  0 0 0  0 0 0  0 0 0  0 0 0
0 0 0  0 0 0  0 0 0  0 0 0  0 0 0  0 0 0
0 0 0  0 0 0  0 0 0  0 0 0  0 0 0  0 0 0
0 0 0  0 0 0  0 0 0  0 0 0  0 0 0  0 0 0
0 0 0  0 0 0  0 0 0  0 0 0  0 0 0  0 0 0
0 0 0  0 0 0  0 0 0  0 0 0  0 0 0  0 0 0
0 0 0  0 0 0  0 0 0  0 0 0  0 0 0  0 0 0
0 0 0  0 0 0  0 0 0  0 0 0  0 0 0  0 0 0
0 0 0  0 0 0  0 0 0  0 0 0  0 0 0  0 0 0
0 0 0  0 0 0  0 0 0  0 0 0  0 0 0  0 0 0
0 0 0  0 0 0  0 0 0  179 179 179  179 179 179  179 179 179
179 179 179  179 179 179  179 179 179  179 179 179  179 179 179  178 178 178
178 178 178  178 178 178  177 177 177  177 177 177  176 176 176  176 176 176
175 175 175  174 174 174  174 174 174  174 174 174  173 173 173  173 173 173
173 173 173  173 173 173  174 174 174  174 174 174  175 175 175  175 175 175
176 176 176  176 176 176  177 177 177  177 177 177  178 178 178  178 178 178
178 178 178  179 179 179  179 179 179  179 179 179  179 179 179  179 179 179
179 179 179  179 179 179  179 179 179  179 179 179  179 179 179  179 179 179
179 179 179  179 179 179  179 179 179  179 179 179  179 179 179  179 179 179
179 179 179  179 179 179  179 179 179  179 179 179  179 179 179  179 179 179
179 179 179  179 179 179  142 141 141  36 35 34  17 14 13  31 27 26
37 33 32  34 30 29  36 32 31  34 30 29  36 32 31  35 31 30
29 25 24  21 18 17  47 43 44  148 148 148  178 178 178  179 179 179
154 154 154  60 56 57  24 19 18  25 21 20  36 32 31  34 30 29
35 31 30  37 33 32  34 30 29  35 31 30  35 31 30  35 31 30
35 31 30  35 31 30  35 31 30  35 31 30  35 31 30  31 27 26
18 16 15  28 25 24  142 141 141  179 179 179  179 179 179  179 179 179
179 179 179  179 179 179  179 179 179  179 179 179  179 179 179  179 179 179
179 179 179  179 179 179  179 179 179  179 179 179  179 179 179  179 179 179
179 179 179  179 179 179  179 179 179  179 179 179  179 179 179  179 179 179
106 104 105  25 21 20  20 16 15  30 26 25  37 33 32  35 31 30
34 30 29  35 31 30  35 31 30  35 31 30  35 31 30  34 30 29
34 30 29  36 32 31  34 29 29  35 31 30  35 31 30  25 23 21
22 17 18  79 76 76  173 173 173  176 176 176  114 114 114  31 26 27
22 17 18  34 30 29  35 31 30  35 30 29  35 31 30  36 32 31
37 33 32  33 29 28  25 23 21  22 19 18  74 72 73  179 179 179
174 174 174  179 179 179  179 179 179  179 179 179  179 179 179  179 179 179
179 179 179  179 179 179  179 179 179  179 179 179  179 179 179  179 179 179
179 179 179  179 179 179  179 179 179  179 179 179  179 179 179  179 179 179
179 179 179  179 179 179  179 179 179  179 179 179  179 179 179  179 179 179
0 0 0  0 0 0  0 0 0  0 0 0  0 0 0  0 0 0
0 0 0  0 0 0  0 0 0  0 0 0  0 0 0  0 0 0
0 0 0  0 0 0  0 0 0  0 0 0  0 0 0  0 0 0
0 0 0  0 0 0  0 0 0  0 0 0  0 0 0  0 0 0
0 0 0  0 0 0  0 0 0  0 0 0  0 0 0  0 0 0
0 0 0  0 0 0  0 0 0  0 0 0  0 0 0  0 0 0
0 0 0  0 0 0  0 0 0  0 0 0  0 0 0  0 0 0
0 0 0  0 0 0  0 0 0  0 0 0  0 0 0  0 0 0
0 0 0  0 0 0  0 0 0  0 0 0  0 0 0  0 0 0
0 0 0  0 0 0  0 0 0  0 0 0  0 0 0  0 0 0
0 0 0  0 0 0  0 0 0  0 0 0  179 179 179  179 179 179
179 179 179  179 179 179  179 179 179  178 178 178  178 178 178  178 178 178
177 177 177  177 177 177  176 176 176  176 176 176  175 175 175  174 174 174
173 173 173  173 173 173  172 172 172  171 171 171  171 171 171  171 171 171
171 171 171  171 171 171  172 172 172  172 172 172  173 173 173  173 173 173
174 174 174  175 175 175  176 176 176  176 176 176  177 177 177  178 178 178
178 178 178  178 178 178  178 178 178  179 179 179  179 179 179  179 179 179
179 179 179  179 179 179  179 179 179  179 179 179  179 179 179  179 179 179
179 179 179  179 179 179  179 179 179  179 179 179  179 179 179  179 179 179
179 179 179  179 179 179  179 179 179  179 179 179  179 179 179  179 179 179
179 179 179  179 179 179  179 179 179  145 145 145  37 34 33  20 16 15
29 25 24  35 31 30  35 32 31  35 31 30  36 32 31  35 31 30
34 30 29  27 25 23  21 18 17  48 46 45  169 169 169  150 149 149
52 50 50  24 19 18  25 21 20  35 31 30  35 31 30  35 31 30
35 31 30  35 31 30  36 32 31  34 30 29  35 31 30  35 31 30
36 32 31  34 30 29  36 32 31  35 31 30  30 26 25  21 18 17
29 26 25  157 157 157  179 179 179  179 179 179  179 179 179  179 179 179
179 179 179  179 179 179  179 179 179  179 179 179  179 179 179  179 179 179
179 179 179  179 179 179  179 179 179  179 179 179  179 179 179  179 179 179
179 179 179  179 179 179  179 179 179  179 179 179  179 179 179  179 179 179
179 179 179  99 97 97  25 21 20  20 17 16  30 28 26  35 31 30
35 31 30  35 31 30  36 32 31  34 30 29  34 30 29  35 31 30
35 31 30  36 31 30  35 31 30  35 31 30  34 30 29  34 30 29
24 19 20  20 16 15  65 64 64  99 97 97  31 26 27  22 19 18
32 28 27  35 31 30  35 31 30  35 31 30  36 32 31  33 29 28
35 31 30  27 25 23  22 19 18  63 60 61  171 171 171  179 179 179
179 179 179  179 179 179  179 179 179  179 179 179  179 179 179  179 179 179
179 179 179  179 179 179  179 179 179  179 179 179  179 179 179  179 179 179
179 179 179  179 179 179  179 179 179  179 179 179  179 179 179  179 179 179
179 179 179  179 179 179  179 179 179  179 179 179  179 179 179  0 0 0
0 0 0  0 0 0  0 0 0  0 0 0  0 0 0  0 0 0
0 0 0  0 0 0  0 0 0  0 0 0  0 0 0  0 0 0
0 0 0  0 0 0  0 0 0  0 0 0  0 0 0  0 0 0
0 0 0  0 0 0  0 0 0  0 0 0  0 0 0  0 0 0
0 0 0  0 0 0  0 0 0  0 0 0  0 0 0  0 0 0
0 0 0  0 0 0  0 0 0  0 0 0  0 0 0  0 0 0
0 0 0  0 0 0  0 0 0  0 0 0  0 0 0  0 0 0
0 0 0  0 0 0  0 0 0  0 0 0  0 0 0  0 0 0
0 0 0  0 0 0  0 0 0  0 0 0  0 0 0  0 0 0
0 0 0  0 0 0  0 0 0  0 0 0  0 0 0  0 0 0
0 0 0  0 0 0  0 0 0  0 0 0  0 0 0  179 179 179
179 179 179  179 179 179  179 179 179  178 178 178  178 178 178  177 177 177
177 177 177  176 176 176  176 176 176  175 175 175  174 174 174  173 173 173
172 172 172  172 172 172  171 171 171  170 169 169  170 169 169  170 169 169
170 169 169  170 169 169  171 171 171  171 171 171  172 172 172  173 173 173
173 173 173  174 174 174  175 175 175  176 176 176  177 177 177  177 177 177
178 178 178  178 178 178  178 178 178  179 179 179  179 179 179  179 179 179
179 179 179  179 179 179  179 179 179  179 179 179  179 179 179  179 179 179
179 179 179  179 179 179  179 179 179  179 179 179  179 179 179  179 179 179
179 179 179  179 179 179  179 179 179  179 179 179  179 179 179  179 179 179
179 179 179  179 179 179  179 179 179  179 179 179  150 149 149  38 37 36
20 16 15  27 23 22  34 30 29  35 31 30  35 31 30  35 31 30
35 31 30  35 31 30  26 23 23  21 19 17  50 48 47  50 48 47
23 20 18  26 22 21  34 30 29  35 31 30  35 31 30  35 31 30
35 31 30  35 31 30  35 31 30  35 31 30  35 31 30  35 31 30
35 31 30  34 30 29  36 32 31  30 26 25  21 18 19  28 26 26
112 111 111  179 179 179  179 179 179  179 179 179  179 179 179  179 179 179
179 179 179  179 179 179  179 179 179  179 179 179  179 179 179  179 179 179
179 179 179  179 179 179  179 179 179  179 179 179  179 179 179  179 179 179
179 179 179  179 179 179  179 179 179  179 179 179  179 179 179  179 179 179
179 179 179  179 179 179  99 97 97  24 21 22  17 15 16  28 25 24
36 32 31  35 31 30  36 32 31  34 30 29  36 32 31  36 32 31
36 32 31  34 31 30  35 31 30  35 31 30  35 31 30  36 32 31
34 30 29  22 18 17  24 19 18  27 23 22  23 19 20  31 27 26
36 32 31  35 31 30  34 30 29  35 31 30  35 31 30  34 30 29
25 23 21  22 19 18  60 59 59  170 169 169  179 179 179  179 179 179
179 179 179  179 179 179  179 179 179  179 179 179  179 179 179  179 179 179
179 179 179  179 179 179  179 179 179  179 179 179  179 179 179  179 179 179
179 179 179  179 179 179  179 179 179  179 179 179  179 179 179  179 179 179
179 179 179  179 179 179  179 179 179  179 179 179  0 0 0  0 0 0
0 0 0  0 0 0  0 0 0  0 0 0  0 0 0  0 0 0
0 0 0  0 0 0  0 0 0  0 0 0  0 0 0  0 0 0
0 0 0  0 0 0  0 0 0  0 0 0  0 0 0  0 0 0
0 0 0  0 0 0  0 0 0  0 0 0  0 0 0  0 0 0
0 0 0  0 0 0  0 0 0  0 0 0  0 0 0  0 0 0
0 0 0  0 0 0  0 0 0  0 0 0  0 0 0  0 0 0
0 0 0  0 0 0  0 0 0  0 0 0  0 0 0  0 0 0
0 0 0  0 0 0  0 0 0  0 0 0  0 0 0  0 0 0
0 0 0  0 0 0  0 0 0  0 0 0  0 0 0  0 0 0
0 0 0  0 0 0  0 0 0  0 0 0  0 0 0  0 0 0
0 0 0  0 0 0  0 0 0  0 0 0  0 0 0  0 0 0
179 179 179  179 179 179  179 179 179  178 178 178  178 178 178  177 177 177
177 177 177  176 176 176  176 176 176  175 175 175  174 174 174  174 174 174
173 173 173  172 172 172  172 172 172  171 171 171  171 171 171  171 171 171
171 171 171  171 171 171  171 171 171  172 172 172  173 173 173  173 173 173
174 174 174  175 175 175  175 175 175  176 176 176  177 177 177  177 177 177
178 178 178  178 178 178  178 178 178  179 179 179  179 179 179  179 179 179
179 179 179  179 179 179  179 179 179  179 179 179  179 179 179  179 179 179
179 179 179  179 179 179  179 179 179  179 179 179  179 179 179  179 179 179
179 179 179  179 179 179  179 179 179  179 179 179  179 179 179  179 179 179
179 179 179  179 179 179  179 179 179  179 179 179  179 179 179  150 149 149
42 38 37  20 17 16  29 25 24  35 32 31  34 30 29  35 31 30
36 32 31  35 31 30  34 31 30  27 23 22  25 22 20  26 21 19
28 24 23  34 31 30  35 31 30  35 31 30  35 31 30  35 31 30
35 31 30  35 31 30  35 31 30  35 31 30  36 32 31  35 31 30
34 31 30  36 32 32  30 26 25  20 18 16  28 26 26  106 104 105
176 176 176  179 179 179  179 179 179  179 179 179  179 179 179  179 179 179
179 179 179  179 179 179  179 179 179  179 179 179  179 179 179  179 179 179
179 179 179  179 179 179  179 179 179  179 179 179  179 179 179  179 179 179
179 179 179  179 179 179  179 179 179  179 179 179  179 179 179  179 179 179
179 179 179  179 179 179  179 179 179  112 111 111  26 23 23  18 16 15
31 27 26  36 32 31  36 32 31  34 30 29  34 30 29  34 30 29
35 32 31  35 31 30  36 32 31  36 32 31  35 31 30  35 31 30
34 30 29  35 31 30  27 22 21  28 24 23  31 27 26  34 30 29
34 30 29  35 31 30  36 32 31  35 31 30  34 31 30  24 22 20
21 18 17  65 64 64  167 167 167  179 179 179  179 179 179  179 179 179
179 179 179  179 179 179  179 179 179  179 179 179  179 179 179  179 179 179
179 179 179  179 179 179  179 179 179  179 179 179  179 179 179  179 179 179
179 179 179  179 179 179  179 179 179  179 179 179  179 179 179  179 179 179
179 179 179  179 179 179  179 179 179  0 0 0  0 0 0  0 0 0
0 0 0  0 0 0  0 0 0  0 0 0  0 0 0  0 0 0
0 0 0  0 0 0  0 0 0  0 0 0  0 0 0  0 0 0
0 0 0  0 0 0  0 0 0  0 0 0  0 0 0  0 0 0
0 0 0  0 0 0  0 0 0  0 0 0  0 0 0  0 0 0
0 0 0  0 0 0  0 0 0  0 0 0  0 0 0  0 0 0
0 0 0  0 0 0  0 0 0  0 0 0  0 0 0  0 0 0
0 0 0  0 0 0  0 0 0  0 0 0  0 0 0  0 0 0
0 0 0  0 0 0  0 0 0  0 0 0  0 0 0  0 0 0
0 0 0  0 0 0  0 0 0  0 0 0  0 0 0  0 0 0
0 0 0  0 0 0  0 0 0  0 0 0  0 0 0  0 0 0
0 0 0  0 0 0  0 0 0  0 0 0  0 0 0  0 0 0
0 0 0  0 0 0  179 179 179  178 178 178  178 178 178  177 177 177
177 177 177  176 176 176  176 176 176  175 175 175  175 175 175  174 174 174
173 173 173  173 173 173  172 172 172  172 172 172  172 172 172  172 172 172
172 172 172  172 172 172  172 172 172  173 173 173  173 173 173  174 174 174
174 174 174  175 175 175  176 176 176  176 176 176  177 177 177  177 177 177
178 178 178  178 178 178  178 178 178  179 179 179  179 179 179  179 179 179
179 179 179  179 179 179  179 179 179  179 179 179  179 179 179  179 179 179
179 179 179  179 179 179  179 179 179  179 179 179  179 179 179  179 179 179
179 179 179  179 179 179  179 179 179  179 179 179  179 179 179  179 179 179
179 179 179  179 179 179  179 179 179  179 179 179  179 179 179  179 179 179
145 145 145  42 38 37  18 15 13  28 25 24  36 32 31  34 30 29
36 32 31  35 31 30  35 31 30  37 33 32  29 25 24  30 26 25
36 32 31  35 31 30  35 31 30  35 31 30  35 31 30  35 31 30
35 31 30  35 31 30  35 31 30  35 31 30  34 30 29  34 30 29
37 33 32  28 27 26  18 16 15  28 26 26  123 123 123  177 177 177
179 179 179  179 179 179  179 179 179  179 179 179  179 179 179  179 179 179
179 179 179  179 179 179  179 179 179  179 179 179  179 179 179  179 179 179
179 179 179  179 179 179  179 179 179  179 179 179  179 179 179  179 179 179
179 179 179  179 179 179  179 179 179  179 179 179  179 179 179  179 179 179
179 179 179  179 179 179  179 179 179  179 179 179  114 114 114  27 25 23
18 17 15  30 26 25  34 30 29  37 33 32  37 33 32  36 32 31
34 30 29  36 32 31  33 29 28  34 30 29  35 31 30  35 31 30
36 32 31  33 29 28  35 31 30  34 30 29  35 31 30  34 30 29
39 34 34  33 29 28  35 31 30  34 30 29  24 22 20  23 19 18
92 90 91  173 173 173  179 179 179  179 179 179  179 179 179  179 179 179
179 179 179  179 179 179  179 179 179  179 179 179  179 179 179  179 179 179
179 179 179  179 179 179  179 179 179  179 179 179  179 179 179  179 179 179
179 179 179  179 179 179  179 179 179  179 179 179  179 179 179  179 179 179
179 179 179  179 179 179  0 0 0  0 0 0  0 0 0  0 0 0
0 0 0  0 0 0  0 0 0  0 0 0  0 0 0  0 0 0
0 0 0  0 0 0  0 0 0  0 0 0  0 0 0  0 0 0
0 0 0  0 0 0  0 0 0  0 0 0  0 0 0  0 0 0
0 0 0  0 0 0  0 0 0  0 0 0  0 0 0  0 0 0
0 0 0  0 0 0  0 0 0  0 0 0  0 0 0  0 0 0
0 0 0  0 0 0  0 0 0  0 0 0  0 0 0  0 0 0
0 0 0  0 0 0  0 0 0  0 0 0  0 0 0  0 0 0
0 0 0  0 0 0  0 0 0  0 0 0  0 0 0  0 0 0
0 0 0  0 0 0  0 0 0  0 0 0  0 0 0  0 0 0
0 0 0  0 0 0  0 0 0  0 0 0  0 0 0  0 0 0
0 0 0  0 0 0  0 0 0  0 0 0  0 0 0  0 0 0
0 0 0  0 0 0  0 0 0  0 0 0  177 177 177  176 176 176
176 176 176  175 175 175  174 174 174  173 173 173  172 172 172  171 171 171
170 169 169  170 169 169  169 169 169  168 168 168  168 168 168  168 168 168
168 168 168  168 168 168  169 169 169  169 169 169  170 169 169  171 171 171
172 172 172  172 172 172  173 173 173  174 174 174  175 175 175  176 176 176
176 176 176  177 177 177  0 0 0  0 0 0  0 0 0  0 0 0
0 0 0  179 179 179  179 179 179  179 179 179  179 179 179  179 179 179
179 179 179  179 179 179  179 179 179  179 179 179  179 179 179  179 179 179
179 179 179  179 179 179  179 179 179  179 179 179  179 179 179  179 179 179
179 179 179  179 179 179  179 179 179  179 179 179  179 179 179  179 179 179
179 179 179  157 157 157  42 38 37  19 15 14  30 26 25  35 31 30
34 30 29  35 31 30  34 30 29  36 32 31  35 31 30  36 32 31
35 31 30  35 31 30  35 31 30  35 31 30  35 31 30  35 31 30
35 31 30  35 31 30  35 31 30  35 31 30  36 32 32  36 32 31
30 28 26  17 15 13  28 26 26  166 166 166  179 179 179  179 179 179
179 179 179  179 179 179  179 179 179  179 179 179  179 179 179  179 179 179
179 179 179  179 179 179  179 179 179  179 179 179  179 179 179  179 179 179
179 179 179  179 179 179  179 179 179  179 179 179  179 179 179  179 179 179
179 179 179  179 179 179  179 179 179  179 179 179  179 179 179  179 179 179
179 179 179  179 179 179  179 179 179  179 179 179  179 179 179  112 111 111
24 21 22  18 16 17  32 28 27  36 32 31  33 29 28  34 30 29
34 30 29  35 31 30  36 32 31  36 32 31  34 30 29  34 30 29
35 31 30  35 31 30  36 32 31  35 31 30  36 32 31  34 30 29
34 30 29  35 31 30  35 31 30  26 22 21  22 17 18  88 87 87
179 179 179  179 179 179  179 179 179  179 179 179  179 179 179  179 179 179
179 179 179  179 179 179  179 179 179  179 179 179  179 179 179  179 179 179
179 179 179  179 179 179  179 179 179  179 179 179  179 179 179  179 179 179
179 179 179  179 179 179  179 179 179  179 179 179  179 179 179  179 179 179
179 179 179  0 0 0  0 0 0  0 0 0  0 0 0  0 0 0
0 0 0  0 0 0  0 0 0  0 0 0  0 0 0  0 0 0
0 0 0  0 0 0  0 0 0  0 0 0  0 0 0  0 0 0
0 0 0  0 0 0  0 0 0  0 0 0  0 0 0  0 0 0
0 0 0  0 0 0  0 0 0  0 0 0  0 0 0  0 0 0
0 0 0  0 0 0  0 0 0  0 0 0  0 0 0  0 0 0
0 0 0  0 0 0  0 0 0  0 0 0  0 0 0  0 0 0
0 0 0  0 0 0  0 0 0  0 0 0  0 0 0  0 0 0
0 0 0  0 0 0  0 0 0  0 0 0  0 0 0  0 0 0
0 0 0  0 0 0  0 0 0  0 0 0  0 0 0  0 0 0
0 0 0  0 0 0  0 0 0  0 0 0  0 0 0  0 0 0
0 0 0  0 0 0  0 0 0  0 0 0  0 0 0  0 0 0
0 0 0  0 0 0  0 0 0  0 0 0  0 0 0  0 0 0
173 173 173  172 172 172  171 171 171  169 169 169  168 168 168  167 167 167
166 166 166  165 165 164  163 162 163  163 162 163  163 162 163  163 162 163
163 162 163  163 162 163  163 162 163  165 165 164  165 165 164  166 166 166
167 167 167  168 168 168  170 169 169  171 171 171  172 172 172  174 174 174
0 0 0  0 0 0  0 0 0  0 0 0  0 0 0  0 0 0
0 0 0  0 0 0  179 179 179  179 179 179  179 179 179  179 179 179
179 179 179  179 179 179  179 179 179  179 179 179  179 179 179  179 179 179
179 179 179  179 179 179  179 179 179  179 179 179  179 179 179  179 179 179
179 179 179  179 179 179  179 179 179  179 179 179  179 179 179  179 179 179
179 179 179  179 179 179  145 145 145  39 34 34  19 15 14  30 26 25
35 31 30  35 31 30  35 31 30  33 29 28  36 32 31  36 31 30
35 31 30  35 31 30  34 31 30  35 31 30  35 31 30  35 31 30
35 31 30  35 31 30  35 31 30  35 31 30  34 30 29  30 28 26
19 17 16  28 26 26  148 148 148  179 179 179  179 179 179  179 179 179
179 179 179  179 179 179  179 179 179  179 179 179  179 179 179  179 179 179
179 179 179  179 179 179  179 179 179  179 179 179  179 179 179  179 179 179
179 179 179  179 179 179  179 179 179  179 179 179  179 179 179  179 179 179
179 179 179  179 179 179  179 179 179  179 179 179  179 179 179  179 179 179
179 179 179  179 179 179  179 179 179  179 179 179  179 179 179  179 179 179
95 95 95  24 21 22  20 17 16  31 27 26  37 33 32  35 31 30
35 31 30  35 31 30  35 31 30  35 31 30  35 31 30  35 31 30
35 31 30  36 32 31  34 30 29  34 30 29  35 31 30  35 31 30
34 30 29  35 32 31  26 23 22  21 18 17  65 64 64  169 169 169
179 179 179  179 179 179  179 179 179  179 179 179  179 179 179  179 179 179
179 179 179  179 179 179  179 179 179  179 179 179  179 179 179  179 179 179
179 179 179  179 179 179  179 179 179  179 179 179  179 179 179  179 179 179
179 179 179  179 179 179  179 179 179  179 179 179  179 179 179  179 179 179
0 0 0  0 0 0  0 0 0  0 0 0  0 0 0  0 0 0
0 0 0  0 0 0  0 0 0  0 0 0  0 0 0  0 0 0
0 0 0  0 0 0  0 0 0  0 0 0  0 0 0  0 0 0
0 0 0  0 0 0  0 0 0  0 0 0  0 0 0  0 0 0
0 0 0  0 0 0  0 0 0  0 0 0  0 0 0  0 0 0
0 0 0  0 0 0  0 0 0  0 0 0  0 0 0  0 0 0
0 0 0  0 0 0  0 0 0  0 0 0  0 0 0  0 0 0
0 0 0  0 0 0  0 0 0  0 0 0  0 0 0  0 0 0
0 0 0  0 0 0  0 0 0  0 0 0  0 0 0  0 0 0
0 0 0  0 0 0  0 0 0  0 0 0  0 0 0  0 0 0
0 0 0  0 0 0  0 0 0  0 0 0  0 0 0  0 0 0
0 0 0  0 0 0  0 0 0  0 0 0  0 0 0  0 0 0
0 0 0  0 0 0  0 0 0  0 0 0  0 0 0  0 0 0
0 0 0  0 0 0  0 0 0  165 165 164  165 165 164  163 162 163
162 161 161  160 160 160  160 160 160  157 157 157  157 157 157  157 157 157
157 157 157  157 157 157  157 157 157  160 160 160  160 160 160  162 161 161
163 162 163  165 165 164  166 166 166  0 0 0  0 0 0  0 0 0
0 0 0  0 0 0  0 0 0  0 0 0  0 0 0  0 0 0
0 0 0  0 0 0  0 0 0  179 179 179  179 179 179  179 179 179
179 179 179  179 179 179  179 179 179  179 179 179  179 179 179  179 179 179
179 179 179  179 179 179  179 179 179  179 179 179  179 179 179  179 179 179
179 179 179  179 179 179  179 179 179  179 179 179  179 179 179  179 179 179
179 179 179  179 179 179  179 179 179  142 141 141  42 38 37  21 16 16
30 26 25  35 31 30  34 30 29  35 31 30  35 31 30  35 31 30
34 30 29  35 32 31  34 31 30  35 31 30  35 31 30  35 31 30
35 31 30  35 31 30  35 31 30  35 31 30  31 27 26  21 19 17
28 26 26  123 123 123  179 179 179  179 179 179  179 179 179  179 179 179
179 179 179  179 179 179  179 179 179  179 179 179  179 179 179  179 179 179
179 179 179  179 179 179  179 179 179  179 179 179  179 179 179  179 179 179
179 179 179  179 179 179  179 179 179  179 179 179  179 179 179  179 179 179
179 179 179  179 179 179  179 179 179  179 179 179  179 179 179  179 179 179
179 179 179  179 179 179  179 179 179  179 179 179  179 179 179  179 179 179
179 179 179  99 97 97  26 21 22  21 17 16  31 27 26  35 31 30
35 31 30  35 31 30  35 31 30  35 32 31  35 31 30  34 30 29
36 32 31  35 31 30  34 30 29  35 31 30  35 31 30  35 31 30
35 31 30  29 25 24  24 22 20  60 56 57  167 167 167  176 176 176
179 179 179  179 179 179  179 179 179  179 179 179  179 179 179  179 179 179
179 179 179  179 179 179  179 179 179  179 179 179  179 179 179  179 179 179
179 179 179  179 179 179  179 179 179  179 179 179  179 179 179  179 179 179
179 179 179  179 179 179  179 179 179  179 179 179  179 179 179  0 0 0
0 0 0  0 0 0  0 0 0  0 0 0  0 0 0  0 0 0
0 0 0  0 0 0  0 0 0  0 0 0  0 0 0  0 0 0
0 0 0  0 0 0  0 0 0  0 0 0  0 0 0  0 0 0
0 0 0  0 0 0  0 0 0  0 0 0  0 0 0  0 0 0
0 0 0  0 0 0  0 0 0  0 0 0  0 0 0  0 0 0
0 0 0  0 0 0  0 0 0  0 0 0  0 0 0  0 0 0
0 0 0  0 0 0  0 0 0  0 0 0  0 0 0  0 0 0
0 0 0  0 0 0  0 0 0  0 0 0  0 0 0  0 0 0
0 0 0  0 0 0  0 0 0  0 0 0  0 0 0  0 0 0
0 0 0  0 0 0  0 0 0  0 0 0  0 0 0  0 0 0
0 0 0  0 0 0  0 0 0  0 0 0  0 0 0  0 0 0
0 0 0  0 0 0  0 0 0  0 0 0  0 0 0  0 0 0
0 0 0  0 0 0  0 0 0  0 0 0  0 0 0  0 0 0
0 0 0  0 0 0  0 0 0  0 0 0  0 0 0  0 0 0
0 0 0  0 0 0  156 155 155  156 155 155  154 154 154  154 154 154
154 154 154  154 154 154  156 155 155  156 155 155  0 0 0  0 0 0
0 0 0  0 0 0  0 0 0  0 0 0  0 0 0  0 0 0
0 0 0  0 0 0  0 0 0  0 0 0  0 0 0  0 0 0
0 0 0  0 0 0  0 0 0  179 179 179  179 179 179  179 179 179
179 179 179  179 179 179  179 179 179  179 179 179  179 179 179  179 179 179
179 179 179  179 179 179  179 179 179  179 179 179  179 179 179  179 179 179
179 179 179  179 179 179  179 179 179  179 179 179  179 179 179  179 179 179
179 179 179  179 179 179  179 179 179  176 176 176  157 157 157  36 31 30
24 20 19  34 30 29  35 31 30  35 31 30  35 31 30  35 32 31
35 31 30  34 31 30  34 31 30  35 31 30  35 31 30  35 31 30
34 30 29  35 31 30  36 32 31  31 27 26  20 18 19  28 26 26
109 108 108  178 178 178  179 179 179  179 179 179  179 179 179  179 179 179
179 179 179  179 179 179  179 179 179  179 179 179  179 179 179  179 179 179
179 179 179  179 179 179  179 179 179  179 179 179  179 179 179  179 179 179
179 179 179  179 179 179  179 179 179  179 179 179  179 179 179  179 179 179
179 179 179  179 179 179  179 179 179  179 179 179  179 179 179  179 179 179
179 179 179  179 179 179  179 179 179  179 179 179  179 179 179  179 179 179
179 179 179  179 179 179  109 108 108  27 24 24  20 17 16  29 26 25
36 32 31  35 31 30  36 32 31  35 31 30  36 32 31  36 32 31
35 31 30  35 31 30  35 31 30  35 31 30  35 31 30  35 31 30
34 30 29  29 26 25  22 19 18  56 55 55  166 166 166  179 179 179
179 179 179  179 179 179  179 179 179  179 179 179  179 179 179  179 179 179
179 179 179  179 179 179  179 179 179  179 179 179  179 179 179  179 179 179
179 179 179  179 179 179  179 179 179  179 179 179  179 179 179  179 179 179
179 179 179  179 179 179  179 179 179  179 179 179  179 179 179  0 0 0
0 0 0  0 0 0  0 0 0  0 0 0  0 0 0  0 0 0
0 0 0  0 0 0  0 0 0  0 0 0  0 0 0  0 0 0
0 0 0  0 0 0  0 0 0  0 0 0  0 0 0  0 0 0
0 0 0  0 0 0  0 0 0  0 0 0  0 0 0  0 0 0
0 0 0  0 0 0  0 0 0  0 0 0  0 0 0  0 0 0
0 0 0  0 0 0  0 0 0  0 0 0  0 0 0  0 0 0
0 0 0  0 0 0  0 0 0  0 0 0  0 0 0  0 0 0
0 0 0  0 0 0  0 0 0  0 0 0  0 0 0  0 0 0
0 0 0  0 0 0  0 0 0  0 0 0  0 0 0  0 0 0
0 0 0  0 0 0  0 0 0  0 0 0  0 0 0  0 0 0
0 0 0  0 0 0  0 0 0  0 0 0  0 0 0  0 0 0
0 0 0  0 0 0  0 0 0  0 0 0  0 0 0  0 0 0
0 0 0  0 0 0  0 0 0  0 0 0  0 0 0  0 0 0
0 0 0  0 0 0  0 0 0  0 0 0  0 0 0  0 0 0
0 0 0  0 0 0  0 0 0  0 0 0  0 0 0  0 0 0
0 0 0  0 0 0  0 0 0  0 0 0  0 0 0  0 0 0
0 0 0  0 0 0  0 0 0  0 0 0  0 0 0  0 0 0
0 0 0  0 0 0  0 0 0  0 0 0  0 0 0  0 0 0
0 0 0  0 0 0  0 0 0  179 179 179  179 179 179  179 179 179
179 179 179  179 179 179  179 179 179  179 179 179  179 179 179  179 179 179
179 179 179  179 179 179  179 179 179  179 179 179  179 179 179  179 179 179
179 179 179  179 179 179  179 179 179  179 179 179  179 179 179  179 179 179
179 179 179  179 179 179  179 179 179  174 174 174  60 59 59  23 19 18
28 24 23  35 31 30  35 31 30  35 31 30  35 31 30  35 31 30
35 31 30  35 31 30  35 31 30  33 29 28  36 32 31  36 32 31
36 32 31  37 33 32  31 27 26  20 17 16  28 25 26  114 114 114
177 177 177  179 179 179  179 179 179  179 179 179  179 179 179  179 179 179
179 179 179  179 179 179  179 179 179  179 179 179  179 179 179  179 179 179
179 179 179  179 179 179  179 179 179  179 179 179  179 179 179  179 179 179
179 179 179  179 179 179  179 179 179  179 179 179  179 179 179  179 179 179
179 179 179  179 179 179  179 179 179  179 179 179  179 179 179  179 179 179
179 179 179  179 179 179  179 179 179  179 179 179  179 179 179  179 179 179
179 179 179  179 179 179  179 179 179  114 114 114  27 24 24  18 16 15
29 26 25  35 31 30  34 30 29  35 31 30  34 30 29  36 32 31
36 32 31  33 29 28  32 28 27  34 30 29  34 30 29  36 32 31
35 31 30  33 29 28  26 23 22  20 18 17  63 60 61  172 172 172
179 179 179  179 179 179  179 179 179  179 179 179  179 179 179  179 179 179
179 179 179  179 179 179  179 179 179  179 179 179  179 179 179  179 179 179
179 179 179  179 179 179  179 179 179  179 179 179  179 179 179  179 179 179
179 179 179  179 179 179  179 179 179  179 179 179  179 179 179  179 179 179
0 0 0  0 0 0  0 0 0  0 0 0  0 0 0  0 0 0
0 0 0  0 0 0  0 0 0  0 0 0  0 0 0  0 0 0
0 0 0  0 0 0  0 0 0  0 0 0  0 0 0  0 0 0
0 0 0  0 0 0  0 0 0  0 0 0  0 0 0  0 0 0
0 0 0  0 0 0  0 0 0  0 0 0  0 0 0  0 0 0
0 0 0  0 0 0  0 0 0  0 0 0  0 0 0  0 0 0
0 0 0  0 0 0  0 0 0  0 0 0  0 0 0  0 0 0
0 0 0  0 0 0  0 0 0  0 0 0  0 0 0  0 0 0
0 0 0  0 0 0  0 0 0  0 0 0  0 0 0  0 0 0
0 0 0  0 0 0  0 0 0  0 0 0  0 0 0  0 0 0
0 0 0  0 0 0  0 0 0  0 0 0  0 0 0  0 0 0
0 0 0  0 0 0  0 0 0  0 0 0  0 0 0  0 0 0
0 0 0  0 0 0  0 0 0  0 0 0  0 0 0  0 0 0
0 0 0  0 0 0  0 0 0  0 0 0  0 0 0  0 0 0
0 0 0  0 0 0  0 0 0  0 0 0  0 0 0  0 0 0
0 0 0  0 0 0  0 0 0  0 0 0  0 0 0  0 0 0
0 0 0  0 0 0  0 0 0  0 0 0  0 0 0  0 0 0
0 0 0  0 0 0  0 0 0  0 0 0  0 0 0  0 0 0
0 0 0  0 0 0  179 179 179  179 179 179  179 179 179  179 179 179
179 179 179  179 179 179  179 179 179  179 179 179  179 179 179  179 179 179
179 179 179  179 179 179  179 179 179  179 179 179  179 179 179  179 179 179
179 179 179  179 179 179  179 179 179  179 179 179  179 179 179  179 179 179
179 179 179  179 179 179  171 171 171  60 59 59  21 17 16  24 20 19
35 31 30  34 30 29  35 31 30  35 31 30  35 31 30  35 31 30
35 31 30  35 31 30  35 31 30  36 32 31  34 30 29  33 29 28
35 31 30  31 27 26  18 17 15  27 25 24  152 151 151  179 179 179
179 179 179  179 179 179  179 179 179  179 179 179  179 179 179  179 179 179
179 179 179  179 179 179  179 179 179  179 179 179  179 179 179  179 179 179
179 179 179  179 179 179  179 179 179  179 179 179  179 179 179  179 179 179
179 179 179  179 179 179  179 179 179  179 179 179  179 179 179  179 179 179
179 179 179  179 179 179  179 179 179  179 179 179  179 179 179  179 179 179
179 179 179  179 179 179  179 179 179  179 179 179  179 179 179  179 179 179
179 179 179  179 179 179  179 179 179  179 179 179  114 114 114  26 23 23
20 16 15  31 27 26  37 34 33  36 32 31  35 31 30  33 29 28
35 31 30  37 33 32  37 33 32  36 32 31  37 33 32  34 30 29
33 29 28  37 33 32  34 31 30  22 21 19  19 16 16  79 76 76
176 176 176  179 179 179  179 179 179  179 179 179  179 179 179  179 179 179
179 179 179  179 179 179  179 179 179  179 179 179  179 179 179  179 179 179
179 179 179  179 179 179  179 179 179  179 179 179  179 179 179  179 179 179
179 179 179  179 179 179  179 179 179  179 179 179  179 179 179  179 179 179
179 179 179  0 0 0  0 0 0  0 0 0  0 0 0  0 0 0
0 0 0  0 0 0  0 0 0  0 0 0  0 0 0  0 0 0
0 0 0  0 0 0  0 0 0  0 0 0  0 0 0  0 0 0
0 0 0  0 0 0  0 0 0  0 0 0  0 0 0  0 0 0
0 0 0  0 0 0  0 0 0  0 0 0  0 0 0  0 0 0
0 0 0  0 0 0  0 0 0  0 0 0  0 0 0  0 0 0
0 0 0  0 0 0  0 0 0  0 0 0  0 0 0  0 0 0
0 0 0  0 0 0  0 0 0  0 0 0  0 0 0  0 0 0
0 0 0  0 0 0  0 0 0  0 0 0  0 0 0  0 0 0
0 0 0  0 0 0  0 0 0  0 0 0  0 0 0  0 0 0
0 0 0  0 0 0  0 0 0  0 0 0  0 0 0  0 0 0
0 0 0  0 0 0  0 0 0  0 0 0  0 0 0  0 0 0
0 0 0  0 0 0  0 0 0  0 0 0  0 0 0  0 0 0
0 0 0  0 0 0  0 0 0  0 0 0  0 0 0  0 0 0
0 0 0  0 0 0  0 0 0  0 0 0  0 0 0  0 0 0
0 0 0  0 0 0  0 0 0  0 0 0  0 0 0  0 0 0
0 0 0  0 0 0  0 0 0  0 0 0  0 0 0  0 0 0
0 0 0  0 0 0  0 0 0  0 0 0  0 0 0  0 0 0
0 0 0  179 179 179  179 179 179  179 179 179  179 179 179  179 179 179
179 179 179  179 179 179  179 179 179  179 179 179  179 179 179  179 179 179
179 179 179  179 179 179  179 179 179  179 179 179  179 179 179  179 179 179
179 179 179  179 179 179  179 179 179  179 179 179  179 179 179  179 179 179
179 179 179  150 149 149  52 50 50  21 17 16  26 22 21  35 31 30
35 31 30  35 31 30  35 31 30  35 31 30  35 31 30  35 31 30
35 31 30  35 31 30  35 31 30  35 31 30  35 31 30  36 32 31
30 28 26  19 17 16  28 26 26  150 149 149  179 179 179  179 179 179
179 179 179  179 179 179  179 179 179  179 179 179  179 179 179  179 179 179
179 179 179  179 179 179  179 179 179  179 179 179  179 179 179  179 179 179
179 179 179  179 179 179  179 179 179  179 179 179  179 179 179  177 177 177
177 177 177  179 179 179  178 178 178  178 178 178  179 179 179  179 179 179
179 179 179  179 179 179  179 179 179  179 179 179  179 179 179  179 179 179
179 179 179  179 179 179  179 179 179  179 179 179  179 179 179  179 179 179
179 179 179  179 179 179  179 179 179  179 179 179  179 179 179  99 97 97
23 21 22  20 18 17  32 28 27  35 31 30  36 32 31  35 31 30
35 31 30  34 30 29  35 31 30  33 29 28  35 31 30  35 31 30
34 31 30  36 32 31  33 29 28  34 30 29  24 21 22  20 17 16
68 67 67  173 173 173  179 179 179  179 179 179  179 179 179  179 179 179
179 179 179  179 179 179  179 179 179  179 179 179  179 179 179  179 179 179
179 179 179  179 179 179  179 179 179  179 179 179  179 179 179  179 179 179
179 179 179  179 179 179  179 179 179  179 179 179  179 179 179  179 179 179
179 179 179  179 179 179  0 0 0  0 0 0  0 0 0  0 0 0
0 0 0  0 0 0  0 0 0  0 0 0  0 0 0  0 0 0
0 0 0  0 0 0  0 0 0  0 0 0  0 0 0  0 0 0
0 0 0  0 0 0  0 0 0  0 0 0  0 0 0  0 0 0
0 0 0  0 0 0  0 0 0  0 0 0  0 0 0  0 0 0
0 0 0  0 0 0  0 0 0  0 0 0  0 0 0  0 0 0
0 0 0  0 0 0  0 0 0  0 0 0  0 0 0  0 0 0
0 0 0  0 0 0  0 0 0  0 0 0  0 0 0  0 0 0
0 0 0  0 0 0  0 0 0  0 0 0  0 0 0  0 0 0
0 0 0  0 0 0  0 0 0  0 0 0  0 0 0  0 0 0
0 0 0  0 0 0  0 0 0  0 0 0  0 0 0  0 0 0
0 0 0  0 0 0  0 0 0  0 0 0  0 0 0  0 0 0
0 0 0  0 0 0  0 0 0  0 0 0  0 0 0  0 0 0
0 0 0  0 0 0  0 0 0  0 0 0  0 0 0  0 0 0
0 0 0  0 0 0  0 0 0  0 0 0  0 0 0  0 0 0
0 0 0  0 0 0  0 0 0  0 0 0  0 0 0  0 0 0
0 0 0  0 0 0  0 0 0  0 0 0  0 0 0  0 0 0
0 0 0  0 0 0  0 0 0  0 0 0  0 0 0  0 0 0
179 179 179  179 179 179  179 179 179  179 179 179  179 179 179  179 179 179
179 179 179  179 179 179  179 179 179  179 179 179  179 179 179  179 179 179
179 179 179  179 179 179  179 179 179  179 179 179  179 179 179  179 179 179
179 179 179  179 179 179  179 179 179  179 179 179  179 179 179  171 171 171
156 155 155  50 48 47  23 19 18  26 23 22  36 32 31  35 31 30
35 31 30  35 31 30  35 31 30  35 31 30  35 31 30  35 31 30
35 31 30  35 31 30  35 31 30  34 30 29  36 32 31  29 26 25
20 18 17  28 25 26  142 141 141  179 179 179  179 179 179  179 179 179
179 179 179  179 179 179  179 179 179  179 179 179  179 179 179  179 179 179
179 179 179  179 179 179  179 179 179  179 179 179  179 179 179  179 179 179
179 179 179  179 179 179  178 178 178  165 165 164  142 141 141  119 118 118
112 111 111  109 108 108  112 111 111  123 123 123  142 141 141  166 166 166
179 179 179  179 179 179  179 179 179  179 179 179  179 179 179  179 179 179
179 179 179  179 179 179  179 179 179  179 179 179  179 179 179  179 179 179
179 179 179  179 179 179  179 179 179  179 179 179  179 179 179  179 179 179
99 97 97  24 21 22  18 16 17  31 27 26  35 31 30  34 30 29
36 32 31  34 30 29  35 31 30  35 31 30  34 30 29  35 31 30
35 31 30  35 31 30  35 31 30  35 31 30  34 30 29  25 23 21
22 18 17  56 55 55  165 165 164  179 179 179  179 179 179  179 179 179
179 179 179  179 179 179  179 179 179  179 179 179  179 179 179  179 179 179
179 179 179  179 179 179  179 179 179  179 179 179  179 179 179  179 179 179
179 179 179  179 179 179  179 179 179  179 179 179  179 179 179  179 179 179
179 179 179  179 179 179  179 179 179  0 0 0  0 0 0  0 0 0
0 0 0  0 0 0  0 0 0  0 0 0  0 0 0  0 0 0
0 0 0  0 0 0  0 0 0  0 0 0  0 0 0  0 0 0
0 0 0  0 0 0  0 0 0  0 0 0  0 0 0  0 0 0
0 0 0  0 0 0  0 0 0  0 0 0  0 0 0  0 0 0
0 0 0  0 0 0  0 0 0  0 0 0  0 0 0  0 0 0
0 0 0  0 0 0  0 0 0  0 0 0  0 0 0  0 0 0
0 0 0  0 0 0  0 0 0  0 0 0  0 0 0  0 0 0
0 0 0  0 0 0  0 0 0  0 0 0  0 0 0  0 0 0
0 0 0  0 0 0  0 0 0  0 0 0  0 0 0  0 0 0
0 0 0  0 0 0  0 0 0  0 0 0  0 0 0  0 0 0
0 0 0  0 0 0  0 0 0  0 0 0  0 0 0  0 0 0
0 0 0  0 0 0  0 0 0  0 0 0  0 0 0  0 0 0
0 0 0  0 0 0  0 0 0  0 0 0  0 0 0  0 0 0
0 0 0  0 0 0  0 0 0  0 0 0  0 0 0  0 0 0
0 0 0  0 0 0  0 0 0  0 0 0  0 0 0  0 0 0
0 0 0  0 0 0  0 0 0  0 0 0  0 0 0  0 0 0
0 0 0  0 0 0  0 0 0  0 0 0  0 0 0  179 179 179
179 179 179  179 179 179  179 179 179  179 179 179  179 179 179  179 179 179
179 179 179  179 179 179  179 179 179  179 179 179  179 179 179  179 179 179
179 179 179  179 179 179  179 179 179  179 179 179  179 179 179  179 179 179
179 179 179  179 179 179  179 179 179  179 179 179  179 179 179  171 171 171
55 52 53  22 17 18  25 23 21  34 30 29  35 31 30  36 32 31
34 30 29  36 32 31  35 31 30  35 31 30  35 31 30  35 31 30
35 31 30  35 31 30  35 31 30  36 32 31  31 27 26  20 18 17
27 25 24  109 108 108  178 178 178  179 179 179  179 179 179  179 179 179
179 179 179  179 179 179  179 179 179  179 179 179  179 179 179  179 179 179
179 179 179  179 179 179  179 179 179  179 179 179  179 179 179  179 179 179
102 101 102  63 60 61  47 43 44  36 32 32  32 28 27  29 25 24
27 25 23  26 23 22  26 23 23  28 25 24  30 26 25  36 32 31
43 42 42  65 64 64  102 101 102  166 166 166  179 179 179  179 179 179
179 179 179  179 179 179  179 179 179  179 179 179  179 179 179  179 179 179
179 179 179  179 179 179  179 179 179  179 179 179  179 179 179  179 179 179
179 179 179  102 101 102  26 22 23  20 16 15  31 27 26  36 32 31
35 31 30  35 31 30  35 31 30  35 31 30  34 30 29  36 32 31
34 30 29  35 31 30  36 32 31  35 31 30  35 31 30  35 31 30
27 24 22  20 18 17  55 52 53  165 165 164  179 179 179  179 179 179
179 179 179  179 179 179  179 179 179  179 179 179  179 179 179  179 179 179
179 179 179  179 179 179  179 179 179  179 179 179  179 179 179  179 179 179
179 179 179  179 179 179  179 179 179  179 179 179  179 179 179  179 179 179
179 179 179  179 179 179  179 179 179  179 179 179  0 0 0  0 0 0
0 0 0  0 0 0  0 0 0  0 0 0  0 0 0  0 0 0
0 0 0  0 0 0  0 0 0  0 0 0  0 0 0  0 0 0
0 0 0  0 0 0  0 0 0  0 0 0  0 0 0  0 0 0
0 0 0  0 0 0  0 0 0  0 0 0  0 0 0  0 0 0
0 0 0  0 0 0  0 0 0  0 0 0  0 0 0  0 0 0
0 0 0  0 0 0  0 0 0  0 0 0  0 0 0  0 0 0
0 0 0  0 0 0  0 0 0  0 0 0  0 0 0  0 0 0
0 0 0  0 0 0  0 0 0  0 0 0  0 0 0  0 0 0
0 0 0  0 0 0  0 0 0  0 0 0  0 0 0  0 0 0
0 0 0  0 0 0  0 0 0  0 0 0  0 0 0  0 0 0
0 0 0  0 0 0  0 0 0  0 0 0  0 0 0  0 0 0
0 0 0  0 0 0  0 0 0  0 0 0  0 0 0  0 0 0
0 0 0  0 0 0  0 0 0  0 0 0  0 0 0  0 0 0
0 0 0  0 0 0  0 0 0  0 0 0  0 0 0  0 0 0
0 0 0  0 0 0  0 0 0  0 0 0  0 0 0  0 0 0
0 0 0  0 0 0  0 0 0  0 0 0  0 0 0  0 0 0
0 0 0  0 0 0  0 0 0  0 0 0  179 179 179  179 179 179
179 179 179  179 179 179  179 179 179  179 179 179  179 179 179  179 179 179
179 179 179  179 179 179  179 179 179  179 179 179  179 179 179  179 179 179
179 179 179  179 179 179  179 179 179  179 179 179  179 179 179  179 179 179
179 179 179  179 179 179  179 179 179  179 179 179  179 179 179  60 56 57
21 16 16  26 21 22  34 30 29  35 31 30  35 31 30  34 31 30
37 33 32  34 30 29  35 31 30  35 31 30  35 31 30  35 31 30
35 31 30  35 31 30  35 31 30  31 27 26  20 17 16  27 25 24
114 114 114  177 177 177  179 179 179  179 179 179  179 179 179  179 179 179
179 179 179  179 179 179  179 179 179  179 179 179  179 179 179  179 179 179
179 179 179  179 179 179  179 179 179  123 123 123  52 50 50  30 28 26
24 22 20  20 18 16  19 17 16  20 16 15  23 20 18  23 19 18
22 21 19  23 22 20  22 21 19  22 21 19  20 18 16  19 17 16
20 18 16  21 19 20  26 23 23  32 29 29  55 52 53  126 125 126
175 175 175  174 174 174  179 179 179  179 179 179  179 179 179  179 179 179
179 179 179  179 179 179  179 179 179  179 179 179  179 179 179  179 179 179
179 179 179  179 179 179  119 118 118  29 25 24  21 16 16  31 27 26
35 31 30  35 31 30  35 31 30  35 31 30  34 30 29  36 32 31
35 31 30  35 31 30  35 31 30  35 31 30  36 32 31  33 29 28
35 31 30  26 23 22  18 16 17  60 56 57  170 169 169  179 179 179
179 179 179  179 179 179  179 179 179  179 179 179  179 179 179  179 179 179
179 179 179  179 179 179  179 179 179  179 179 179  179 179 179  179 179 179
179 179 179  179 179 179  179 179 179  179 179 179  179 179 179  179 179 179
179 179 179  179 179 179  179 179 179  179 179 179  179 179 179  0 0 0
0 0 0  0 0 0  0 0 0  0 0 0  0 0 0  0 0 0
0 0 0  0 0 0  0 0 0  0 0 0  0 0 0  0 0 0
0 0 0  0 0 0  0 0 0  0 0 0  0 0 0  0 0 0
0 0 0  0 0 0  0 0 0  0 0 0  0 0 0  0 0 0
0 0 0  0 0 0  0 0 0  0 0 0  0 0 0  0 0 0
0 0 0  0 0 0  0 0 0  0 0 0  0 0 0  0 0 0
0 0 0  0 0 0  0 0 0  0 0 0  0 0 0  0 0 0
0 0 0  0 0 0  0 0 0  0 0 0  0 0 0  0 0 0
0 0 0  0 0 0  0 0 0  0 0 0  0 0 0  0 0 0
0 0 0  0 0 0  0 0 0  0 0 0  0 0 0  0 0 0
0 0 0  0 0 0  0 0 0  0 0 0  0 0 0  0 0 0
0 0 0  0 0 0  0 0 0  0 0 0  0 0 0  0 0 0
0 0 0  0 0 0  0 0 0  0 0 0  0 0 0  0 0 0
0 0 0  0 0 0  0 0 0  0 0 0  0 0 0  0 0 0
0 0 0  0 0 0  0 0 0  0 0 0  0 0 0  0 0 0
0 0 0  0 0 0  0 0 0  0 0 0  0 0 0  0 0 0
0 0 0  0 0 0  0 0 0  179 179 179  179 179 179  179 179 179
179 179 179  179 179 179  179 179 179  179 179 179  179 179 179  179 179 179
179 179 179  179 179 179  179 179 179  179 179 179  179 179 179  179 179 179
179 179 179  179 179 179  179 179 179  179 179 179  179 179 179  179 179 179
179 179 179  179 179 179  176 176 176  176 176 176  60 56 57  19 15 14
25 21 20  35 31 30  35 31 30  35 31 30  35 31 30  35 31 30
35 31 30  35 31 30  34 30 29  36 32 31  35 31 30  35 31 30
35 31 30  35 31 30  32 28 27  17 15 16  28 25 26  154 154 154
179 179 179  179 179 179  179 179 179  179 179 179  179 179 179  179 179 179
179 179 179  179 179 179  179 179 179  179 179 179  179 179 179  179 179 179
179 179 179  133 133 133  42 39 40  22 19 18  20 16 17  21 17 16
24 20 19  29 25 24  33 29 28  35 31 30  35 31 30  36 32 31
36 32 31  36 32 31  36 32 31  36 32 31  36 32 31  35 31 30
33 30 29  29 25 24  25 21 20  21 17 16  19 15 14  24 19 18
42 38 37  119 118 118  179 179 179  179 179 179  179 179 179  179 179 179
179 179 179  179 179 179  179 179 179  179 179 179  179 179 179  179 179 179
179 179 179  179 179 179  179 179 179  114 114 114  26 22 23  18 15 16
32 29 28  36 32 31  33 29 28  35 31 30  34 30 29  34 30 29
36 32 31  36 32 31  34 30 29  36 32 31  35 31 30  34 30 29
35 31 30  35 31 30  23 21 19  18 16 15  76 75 75  179 179 179
179 179 179  179 179 179  179 179 179  179 179 179  179 179 179  179 179 179
179 179 179  179 179 179  179 179 179  179 179 179  179 179 179  179 179 179
179 179 179  179 179 179  179 179 179  179 179 179  179 179 179  179 179 179
179 179 179  179 179 179  179 179 179  179 179 179  179 179 179  179 179 179
0 0 0  0 0 0  0 0 0  0 0 0  0 0 0  0 0 0
0 0 0  0 0 0  0 0 0  0 0 0  0 0 0  0 0 0
0 0 0  0 0 0  0 0 0  0 0 0  0 0 0  0 0 0
0 0 0  0 0 0  0 0 0  0 0 0  0 0 0  0 0 0
0 0 0  0 0 0  0 0 0  0 0 0  0 0 0  0 0 0
0 0 0  0 0 0  0 0 0  0 0 0  0 0 0  0 0 0
0 0 0  0 0 0  0 0 0  0 0 0  0 0 0  0 0 0
0 0 0  0 0 0  0 0 0  0 0 0  0 0 0  0 0 0
0 0 0  0 0 0  0 0 0  0 0 0  0 0 0  0 0 0
0 0 0  0 0 0  0 0 0  0 0 0  0 0 0  0 0 0
0 0 0  0 0 0  0 0 0  0 0 0  0 0 0  0 0 0
0 0 0  0 0 0  0 0 0  0 0 0  0 0 0  0 0 0
0 0 0  0 0 0  0 0 0  0 0 0  0 0 0  0 0 0
0 0 0  0 0 0  0 0 0  0 0 0  0 0 0  0 0 0
0 0 0  0 0 0  0 0 0  0 0 0  0 0 0  0 0 0
0 0 0  0 0 0  0 0 0  0 0 0  0 0 0  0 0 0
0 0 0  0 0 0  179 179 179  179 179 179  179 179 179  179 179 179
179 179 179  179 179 179  179 179 179  179 179 179  179 179 179  179 179 179
179 179 179  179 179 179  179 179 179  179 179 179  179 179 179  179 179 179
179 179 179  179 179 179  179 179 179  179 179 179  179 179 179  179 179 179
179 179 179  178 178 178  154 154 154  52 50 50  21 17 16  22 18 17
37 34 33  36 32 31  35 31 30  35 31 30  35 31 30  35 31 30
35 31 30  35 31 30  35 31 30  35 31 30  35 31 30  36 32 31
36 32 31  32 28 27  21 17 16  28 25 26  150 149 149  179 179 179
179 179 179  179 179 179  179 179 179  179 179 179  179 179 179  179 179 179
179 179 179  179 179 179  179 179 179  179 179 179  160 160 160  92 90 91
36 35 34  19 16 16  20 17 16  26 22 23  32 29 29  34 31 30
35 31 30  36 32 31  36 32 31  35 31 30  35 31 30  36 32 31
35 31 30  35 31 30  35 31 30  35 31 30  35 31 30  35 31 30
35 31 30  35 31 30  35 31 30  37 34 33  32 28 27  23 19 18
21 17 16  22 19 18  42 38 37  99 97 97  168 168 168  179 179 179
179 179 179  179 179 179  179 179 179  179 179 179  179 179 179  179 179 179
179 179 179  179 179 179  179 179 179  179 179 179  106 104 105  23 21 22
16 14 14  32 28 27  37 33 32  34 30 29  35 31 30  35 31 30
35 32 31  37 33 32  35 31 30  35 31 30  35 31 30  37 33 32
33 29 28  34 30 29  35 32 31  23 22 20  19 17 16  76 75 75
170 169 169  179 179 179  179 179 179  179 179 179  179 179 179  179 179 179
179 179 179  179 179 179  179 179 179  179 179 179  179 179 179  179 179 179
179 179 179  179 179 179  179 179 179  179 179 179  179 179 179  179 179 179
179 179 179  179 179 179  179 179 179  179 179 179  179 179 179  179 179 179
179 179 179  0 0 0  0 0 0  0 0 0  0 0 0  0 0 0
0 0 0  0 0 0  0 0 0  0 0 0  0 0 0  0 0 0
0 0 0  0 0 0  0 0 0  0 0 0  0 0 0  0 0 0
0 0 0  0 0 0  0 0 0  0 0 0  0 0 0  0 0 0
0 0 0  0 0 0  0 0 0  0 0 0  0 0 0  0 0 0
0 0 0  0 0 0  0 0 0  0 0 0  0 0 0  0 0 0
0 0 0  0 0 0  0 0 0  0 0 0  0 0 0  0 0 0
0 0 0  0 0 0  0 0 0  0 0 0  0 0 0  0 0 0
0 0 0  0 0 0  0 0 0  0 0 0  0 0 0  0 0 0
0 0 0  0 0 0  0 0 0  0 0 0  0 0 0  0 0 0
0 0 0  0 0 0  0 0 0  0 0 0  0 0 0  0 0 0
0 0 0  0 0 0  0 0 0  0 0 0  0 0 0  0 0 0
0 0 0  0 0 0  0 0 0  0 0 0  0 0 0  0 0 0
0 0 0  0 0 0  0 0 0  0 0 0  0 0 0  0 0 0
0 0 0  0 0 0  0 0 0  0 0 0  0 0 0  0 0 0
0 0 0  0 0 0  0 0 0  0 0 0  0 0 0  0 0 0
0 0 0  179 179 179  179 179 179  179 179 179  179 179 179  179 179 179
179 179 179  179 179 179  179 179 179  179 179 179  179 179 179  179 179 179
179 179 179  179 179 179  179 179 179  179 179 179  179 179 179  179 179 179
179 179 179  179 179 179  179 179 179  179 179 179  179 179 179  179 179 179
179 179 179  150 149 149  50 48 47  21 18 17  26 22 21  36 32 31
35 31 30  35 31 30  35 31 30  35 31 30  35 31 30  35 31 30
35 31 30  35 31 30  36 32 31  35 31 30  35 31 30  35 31 30
29 26 25  20 17 16  28 25 24  152 151 151  179 179 179  179 179 179
179 179 179  179 179 179  179 179 179  179 179 179  179 179 179  179 179 179
179 179 179  179 179 179  177 177 177  123 123 123  43 42 42  22 19 19
19 16 17  25 23 21  34 30 29  35 31 30  35 31 30  35 31 30
35 31 30  35 31 30  35 31 30  34 31 30  35 31 30  36 32 31
35 31 30  35 31 30  35 31 30  35 31 30  35 31 30  35 31 30
35 31 30  35 31 30  35 31 30  33 29 28  35 31 30  37 34 33
32 28 27  26 23 23  20 17 18  23 21 20  50 48 47  119 118 118
178 178 178  179 179 179  179 179 179  179 179 179  179 179 179  179 179 179
179 179 179  179 179 179  179 179 179  179 179 179  179 179 179  99 97 97
24 21 22  20 16 15  30 28 26  35 31 30  34 30 29  35 31 30
35 31 30  34 30 29  35 31 30  35 31 30  35 31 30  35 31 30
36 32 31  34 30 29  35 31 30  32 29 28  23 21 20  18 16 17
60 56 57  162 161 161  179 179 179  179 179 179  179 179 179  179 179 179
179 179 179  179 179 179  179 179 179  179 179 179  179 179 179  179 179 179
179 179 179  179 179 179  179 179 179  179 179 179  179 179 179  179 179 179
179 179 179  179 179 179  179 179 179  179 179 179  179 179 179  179 179 179
179 179 179  179 179 179  0 0 0  0 0 0  0 0 0  0 0 0
0 0 0  0 0 0  0 0 0  0 0 0  0 0 0  0 0 0
0 0 0  0 0 0  0 0 0  0 0 0  0 0 0  0 0 0
0 0 0  0 0 0  0 0 0  0 0 0  0 0 0  0 0 0
0 0 0  0 0 0  0 0 0  0 0 0  0 0 0  0 0 0
0 0 0  0 0 0  0 0 0  0 0 0  0 0 0  0 0 0
0 0 0  0 0 0  0 0 0  0 0 0  0 0 0  0 0 0
0 0 0  0 0 0  0 0 0  0 0 0  0 0 0  0 0 0
0 0 0  0 0 0  0 0 0  0 0 0  0 0 0  0 0 0
0 0 0  0 0 0  0 0 0  0 0 0  0 0 0  0 0 0
0 0 0  0 0 0  0 0 0  0 0 0  0 0 0  0 0 0
0 0 0  0 0 0  0 0 0  0 0 0  0 0 0  0 0 0
0 0 0  0 0 0  0 0 0  0 0 0  0 0 0  0 0 0
0 0 0  0 0 0  0 0 0  0 0 0  0 0 0  0 0 0
0 0 0  0 0 0  0 0 0  0 0 0  0 0 0  0 0 0
0 0 0  0 0 0  0 0 0  0 0 0  0 0 0  0 0 0
179 179 179  179 179 179  179 179 179  179 179 179  179 179 179  179 179 179
179 179 179  179 179 179  179 179 179  179 179 179  179 179 179  179 179 179
179 179 179  179 179 179  179 179 179  179 179 179  179 179 179  179 179 179
179 179 179  179 179 179  179 179 179  179 179 179  179 179 179  179 179 179
177 177 177  52 50 50  21 18 17  23 21 20  35 31 30  35 31 30
34 30 29  35 31 30  35 31 30  35 31 30  35 31 30  35 31 30
35 31 30  35 31 30  35 31 30  35 31 30  36 32 31  28 25 24
20 18 17  28 26 26  114 114 114  179 179 179  179 179 179  179 179 179
179 179 179  179 179 179  179 179 179  179 179 179  179 179 179  179 179 179
179 179 179  179 179 179  95 95 95  28 25 24  20 18 17  26 23 22
32 28 27  35 31 30  36 32 31  35 31 30  36 31 30  35 31 31
36 32 31  36 32 31  36 32 31  35 31 30  35 31 30  35 31 30
35 31 30  35 31 30  35 31 30  35 31 30  35 31 30  35 31 30
36 32 31  35 31 30  35 31 30  35 31 30  34 30 29  36 32 31
35 31 30  36 32 32  29 26 25  25 23 21  19 17 16  29 26 25
88 87 87  175 175 175  179 179 179  179 179 179  179 179 179  179 179 179
179 179 179  179 179 179  179 179 179  179 179 179  179 179 179  179 179 179
99 97 97  24 21 22  18 16 17  28 26 26  35 31 30  35 31 30
35 31 30  35 31 30  34 31 30  35 31 30  35 31 30  35 31 30
35 31 30  35 31 30  36 32 31  35 31 30  34 30 29  24 20 21
19 16 17  55 52 53  171 171 171  179 179 179  179 179 179  179 179 179
179 179 179  179 179 179  179 179 179  179 179 179  179 179 179  179 179 179
179 179 179  179 179 179  179 179 179  179 179 179  179 179 179  179 179 179
179 179 179  179 179 179  179 179 179  179 179 179  179 179 179  179 179 179
179 179 179  179 179 179  179 179 179  0 0 0  0 0 0  0 0 0
0 0 0  0 0 0  0 0 0  0 0 0  0 0 0  0 0 0
0 0 0  0 0 0  0 0 0  0 0 0  0 0 0  0 0 0
0 0 0  0 0 0  0 0 0  0 0 0  0 0 0  0 0 0
0 0 0  0 0 0  0 0 0  0 0 0  0 0 0  0 0 0
0 0 0  0 0 0  0 0 0  0 0 0  0 0 0  0 0 0
0 0 0  0 0 0  0 0 0  0 0 0  0 0 0  0 0 0
0 0 0  0 0 0  0 0 0  0 0 0  0 0 0  0 0 0
0 0 0  0 0 0  0 0 0  0 0 0  0 0 0  0 0 0
0 0 0  0 0 0  0 0 0  0 0 0  0 0 0  0 0 0
0 0 0  0 0 0  0 0 0  0 0 0  0 0 0  0 0 0
0 0 0  0 0 0  0 0 0  0 0 0  0 0 0  0 0 0
0 0 0  0 0 0  0 0 0  0 0 0  0 0 0  0 0 0
0 0 0  0 0 0  0 0 0  0 0 0  0 0 0  0 0 0
0 0 0  0 0 0  0 0 0  0 0 0  0 0 0  0 0 0
0 0 0  0 0 0  0 0 0  0 0 0  0 0 0  179 179 179
179 179 179  179 179 179  179 179 179  179 179 179  179 179 179  179 179 179
179 179 179  179 179 179  179 179 179  179 179 179  179 179 179  179 179 179
179 179 179  179 179 179  179 179 179  179 179 179  179 179 179  179 179 179
179 179 179  179 179 179  179 179 179  179 179 179  176 176 176  178 178 178
60 56 57  19 17 16  24 22 20  34 30 29  35 31 30  34 30 29
35 31 30  36 32 31  35 31 30  35 31 30  35 31 30  35 31 30
35 31 30  35 31 30  35 31 30  36 32 31  30 26 25  18 16 15
28 26 26  109 108 108  177 177 177  179 179 179  179 179 179  179 179 179
179 179 179  179 179 179  179 179 179  179 179 179  179 179 179  179 179 179
179 179 179  74 72 73  21 18 17  21 19 17  29 26 25  34 30 29
35 31 30  35 31 30  36 32 31  34 30 29  35 31 30  35 31 30
34 31 30  34 31 30  34 31 30  35 31 30  35 32 31  36 32 31
35 31 30  35 31 30  35 31 30  35 31 30  35 31 30  35 31 30
35 31 30  34 30 29  35 31 30  35 31 30  35 31 30  35 31 30
35 31 30  35 31 30  36 32 31  36 32 31  29 26 25  19 17 16
22 19 18  74 72 73  174 174 174  179 179 179  179 179 179  179 179 179
179 179 179  179 179 179  179 179 179  179 179 179  179 179 179  179 179 179
179 179 179  114 114 114  26 22 23  19 16 16  30 26 25  37 33 32
33 29 28  36 32 31  35 32 31  35 31 30  34 30 29  35 31 30
36 32 31  35 31 30  35 31 30  35 31 30  35 31 30  35 31 30
26 23 22  20 17 18  55 52 53  168 168 168  179 179 179  179 179 179
179 179 179  179 179 179  179 179 179  179 179 179  179 179 179  179 179 179
179 179 179  179 179 179  179 179 179  179 179 179  179 179 179  179 179 179
179 179 179  179 179 179  179 179 179  179 179 179  179 179 179  179 179 179
179 179 179  179 179 179  179 179 179  179 179 179  0 0 0  0 0 0
0 0 0  0 0 0  0 0 0  0 0 0  0 0 0  0 0 0
0 0 0  0 0 0  0 0 0  0 0 0  0 0 0  0 0 0
0 0 0  0 0 0  0 0 0  0 0 0  0 0 0  0 0 0
0 0 0  0 0 0  0 0 0  0 0 0  0 0 0  0 0 0
0 0 0  0 0 0  0 0 0  0 0 0  0 0 0  0 0 0
0 0 0  0 0 0  0 0 0  0 0 0  0 0 0  0 0 0
0 0 0  0 0 0  0 0 0  0 0 0  0 0 0  0 0 0
0 0 0  0 0 0  0 0 0  0 0 0  0 0 0  0 0 0
0 0 0  0 0 0  0 0 0  0 0 0  0 0 0  0 0 0
0 0 0  0 0 0  0 0 0  0 0 0  0 0 0  0 0 0
0 0 0  0 0 0  0 0 0  0 0 0  0 0 0  0 0 0
0 0 0  0 0 0  0 0 0  0 0 0  0 0 0  0 0 0
0 0 0  0 0 0  0 0 0  0 0 0  0 0 0  0 0 0
0 0 0  0 0 0  0 0 0  0 0 0  0 0 0  0 0 0
0 0 0  0 0 0  0 0 0  0 0 0  179 179 179  179 179 179
179 179 179  179 179 179  179 179 179  179 179 179  179 179 179  179 179 179
179 179 179  179 179 179  179 179 179  179 179 179  179 179 179  179 179 179
179 179 179  179 179 179  179 179 179  179 179 179  179 179 179  179 179 179
179 179 179  179 179 179  179 179 179  179 179 179  179 179 179  60 56 57
16 15 15  25 23 21  34 31 30  34 30 29  36 32 31  36 32 31
33 29 28  35 31 30  35 31 30  35 31 30  35 31 30  35 31 30
35 31 30  35 31 30  35 31 30  31 27 26  17 15 13  28 25 24
129 128 129  177 177 177  179 179 179  179 179 179  179 179 179  179 179 179
179 179 179  179 179 179  179 179 179  179 179 179  179 179 179  173 173 173
63 60 61  17 15 13  21 17 16  35 31 30  36 32 31  35 31 30
33 29 28  37 34 33  35 31 30  36 32 31  35 31 30  36 32 31
36 32 31  35 31 30  35 31 30  35 31 30  35 31 30  35 31 30
35 31 30  35 31 30  35 31 30  35 31 30  35 31 30  35 31 30
35 31 30  34 31 30  35 32 31  34 30 29  35 31 30  34 30 29
36 32 31  35 31 30  34 30 29  34 30 29  37 34 33  32 28 27
24 20 19  22 17 18  81 80 80  179 179 179  179 179 179  179 179 179
179 179 179  179 179 179  179 179 179  179 179 179  179 179 179  179 179 179
179 179 179  179 179 179  114 114 114  26 23 23  20 16 15  30 26 25
37 33 32  36 32 31  33 29 28  34 31 30  35 31 30  35 31 30
35 31 30  35 31 30  33 29 28  36 32 31  35 31 30  35 31 30
35 31 30  26 23 23  19 16 17  68 67 67  176 176 176  179 179 179
179 179 179  179 179 179  179 179 179  179 179 179  179 179 179  179 179 179
179 179 179  179 179 179  179 179 179  179 179 179  179 179 179  179 179 179
179 179 179  179 179 179  179 179 179  179 179 179  179 179 179  179 179 179
179 179 179  179 179 179  179 179 179  179 179 179  179 179 179  0 0 0
0 0 0  0 0 0  0 0 0  0 0 0  0 0 0  0 0 0
0 0 0  0 0 0  0 0 0  0 0 0  0 0 0  0 0 0
0 0 0  0 0 0  0 0 0  0 0 0  0 0 0  0 0 0
0 0 0  0 0 0  0 0 0  0 0 0  0 0 0  0 0 0
0 0 0  0 0 0  0 0 0  0 0 0  0 0 0  0 0 0
0 0 0  0 0 0  0 0 0  0 0 0  0 0 0  0 0 0
0 0 0  0 0 0  0 0 0  0 0 0  0 0 0  0 0 0
0 0 0  0 0 0  0 0 0  0 0 0  0 0 0  0 0 0
0 0 0  0 0 0  0 0 0  0 0 0  0 0 0  0 0 0
0 0 0  0 0 0  0 0 0  0 0 0  0 0 0  0 0 0
0 0 0  0 0 0  0 0 0  0 0 0  0 0 0  0 0 0
0 0 0  0 0 0  0 0 0  0 0 0  0 0 0  0 0 0
0 0 0  0 0 0  0 0 0  0 0 0  0 0 0  0 0 0
0 0 0  0 0 0  0 0 0  0 0 0  0 0 0  0 0 0
0 0 0  0 0 0  0 0 0  179 179 179  179 179 179  179 179 179
179 179 179  179 179 179  179 179 179  179 179 179  179 179 179  179 179 179
179 179 179  179 179 179  179 179 179  179 179 179  179 179 179  179 179 179
179 179 179  179 179 179  179 179 179  179 179 179  179 179 179  179 179 179
179 179 179  179 179 179  179 179 179  157 157 157  52 50 50  17 17 15
21 20 21  34 31 30  35 31 30  34 30 29  35 31 30  35 31 30
36 32 31  34 30 29  35 31 30  35 31 30  35 31 30  35 31 30
35 31 30  35 31 30  30 28 26  20 16 15  29 26 25  157 157 157
179 179 179  179 179 179  179 179 179  179 179 179  179 179 179  179 179 179
179 179 179  179 179 179  179 179 179  179 179 179  165 165 164  56 55 55
17 14 13  22 18 17  37 33 32  35 31 30  35 31 30  36 32 31
36 32 31  35 31 30  34 30 29  35 31 30  35 31 30  35 31 30
35 31 30  35 31 30  35 31 30  36 32 31  35 31 30  35 31 30
35 31 30  35 31 30  35 31 30  35 31 30  35 31 30  35 31 30
35 31 30  34 31 30  34 31 30  35 31 30  37 34 33  34 30 29
35 31 30  35 31 30  35 31 30  36 32 31  34 30 29  35 31 30
34 30 29  25 21 20  20 17 16  76 75 75  174 174 174  179 179 179
179 179 179  179 179 179  179 179 179  179 179 179  179 179 179  179 179 179
179 179 179  179 179 179  179 179 179  109 108 108  26 21 22  20 16 15
32 28 27  36 32 31  35 31 30  35 31 30  35 31 30  34 30 29
33 29 28  35 31 30  35 32 31  35 31 30  35 31 30  37 34 33
33 29 28  35 31 31  24 21 22  18 15 16  79 76 76  173 173 173
179 179 179  179 179 179  179 179 179  179 179 179  179 179 179  179 179 179
179 179 179  179 179 179  179 179 179  179 179 179  179 179 179  179 179 179
179 179 179  179 179 179  179 179 179  179 179 179  179 179 179  179 179 179
179 179 179  179 179 179  179 179 179  179 179 179  179 179 179  179 179 179
0 0 0  0 0 0  0 0 0  0 0 0  0 0 0  0 0 0
0 0 0  0 0 0  0 0 0  0 0 0  0 0 0  0 0 0
0 0 0  0 0 0  0 0 0  0 0 0  0 0 0  0 0 0
0 0 0  0 0 0  0 0 0  0 0 0  0 0 0  0 0 0
0 0 0  0 0 0  0 0 0  0 0 0  0 0 0  0 0 0
0 0 0  0 0 0  0 0 0  0 0 0  0 0 0  0 0 0
0 0 0  0 0 0  0 0 0  0 0 0  0 0 0  0 0 0
0 0 0  0 0 0  0 0 0  0 0 0  0 0 0  0 0 0
0 0 0  0 0 0  0 0 0  0 0 0  0 0 0  0 0 0
0 0 0  0 0 0  0 0 0  0 0 0  0 0 0  0 0 0
0 0 0  0 0 0  0 0 0  0 0 0  0 0 0  0 0 0
0 0 0  0 0 0  0 0 0  0 0 0  0 0 0  0 0 0
0 0 0  0 0 0  0 0 0  0 0 0  0 0 0  0 0 0
0 0 0  0 0 0  0 0 0  0 0 0  0 0 0  0 0 0
0 0 0  0 0 0  179 179 179  179 179 179  179 179 179  179 179 179
179 179 179  179 179 179  179 179 179  179 179 179  179 179 179  179 179 179
179 179 179  179 179 179  179 179 179  179 179 179  179 179 179  179 179 179
179 179 179  179 179 179  179 179 179  179 179 179  179 179 179  179 179 179
179 179 179  179 179 179  150 149 149  50 48 47  20 17 16  25 23 21
35 32 31  35 31 30  35 31 30  35 31 30  35 31 30  35 31 30
35 31 30  35 31 30  35 31 30  35 31 30  36 32 31  33 30 29
36 32 31  31 27 26  22 17 18  29 26 28  157 157 157  179 179 179
179 179 179  179 179 179  179 179 179  179 179 179  179 179 179  179 179 179
179 179 179  179 179 179  179 179 179  169 169 169  65 64 64  22 17 16
24 20 19  34 30 29  36 32 31  35 31 30  35 31 30  35 31 30
35 31 30  35 31 30  35 31 30  35 31 30  35 31 30  35 31 30
35 31 30  35 31 30  35 31 30  35 31 30  35 31 30  35 31 30
35 31 30  35 31 30  35 31 30  35 31 30  35 31 30  35 31 30
35 31 30  35 31 30  35 31 30  35 31 30  35 31 30  35 31 30
35 31 30  35 31 30  35 31 30  35 31 30  35 31 30  35 31 30
35 31 30  35 31 30  24 20 21  20 16 18  74 72 73  172 171 171
177 177 177  179 179 179  179 179 179  179 179 179  179 179 179  179 179 179
179 179 179  179 179 179  179 179 179  179 179 179  99 97 97  23 19 21
17 15 16  30 28 26  35 31 30  35 31 30  36 32 31  34 30 29
36 32 31  35 31 30  35 32 31  35 31 30  35 31 30  35 31 30
35 31 30  36 32 31  35 31 30  22 20 19  19 16 17  63 60 61
165 165 164  179 179 179  179 179 179  179 179 179  179 179 179  179 179 179
179 179 179  179 179 179  179 179 179  179 179 179  179 179 179  179 179 179
179 179 179  179 179 179  179 179 179  179 179 179  179 179 179  179 179 179
179 179 179  179 179 179  179 179 179  179 179 179  179 179 179  179 179 179
179 179 179  0 0 0  0 0 0  0 0 0  0 0 0  0 0 0
0 0 0  0 0 0  0 0 0  0 0 0  0 0 0  0 0 0
0 0 0  0 0 0  0 0 0  0 0 0  0 0 0  0 0 0
0 0 0  0 0 0  0 0 0  0 0 0  0 0 0  0 0 0
0 0 0  0 0 0  0 0 0  0 0 0  0 0 0  0 0 0
0 0 0  0 0 0  0 0 0  0 0 0  0 0 0  0 0 0
0 0 0  0 0 0  0 0 0  0 0 0  0 0 0  0 0 0
0 0 0  0 0 0  0 0 0  0 0 0  0 0 0  0 0 0
0 0 0  0 0 0  0 0 0  0 0 0  0 0 0  0 0 0
0 0 0  0 0 0  0 0 0  0 0 0  0 0 0  0 0 0
0 0 0  0 0 0  0 0 0  0 0 0  0 0 0  0 0 0
0 0 0  0 0 0  0 0 0  0 0 0  0 0 0  0 0 0
0 0 0  0 0 0  0 0 0  0 0 0  0 0 0  0 0 0
0 0 0  0 0 0  0 0 0  0 0 0  0 0 0  0 0 0
0 0 0  179 179 179  179 179 179  179 179 179  179 179 179  179 179 179
179 179 179  179 179 179  179 179 179  179 179 179  179 179 179  179 179 179
179 179 179  179 179 179  179 179 179  179 179 179  179 179 179  179 179 179
179 179 179  179 179 179  179 179 179  179 179 179  179 179 179  179 179 179
179 179 179  165 165 164  52 50 50  21 18 17  25 23 21  35 32 31
33 30 29  35 31 30  35 31 30  35 31 30  35 31 30  35 31 30
35 31 30  35 31 30  36 32 31  34 30 29  34 30 29  36 32 31
30 26 25  21 18 17  31 26 27  114 114 114  179 179 179  179 179 179
179 179 179  179 179 179  179 179 179  179 179 179  179 179 179  179 179 179
179 179 179  179 179 179  179 179 179  92 90 91  25 21 20  24 20 19
33 29 28  35 31 30  34 31 30  35 31 30  35 31 30  35 31 30
35 31 30  35 31 30  35 31 30  35 31 30  35 31 30  35 31 30
35 31 30  35 31 30  35 31 30  35 31 30  35 31 30  35 31 30
35 31 30  35 31 30  35 31 30  35 31 30  35 31 30  35 31 30
35 31 30  35 31 30  35 31 30  35 31 30  35 31 30  35 31 30
35 31 30  35 31 30  35 31 30  35 31 30  35 31 30  35 31 30
35 31 30  35 31 30  34 31 30  23 19 20  21 18 19  84 83 83
176 176 176  179 179 179  179 179 179  179 179 179  179 179 179  179 179 179
179 179 179  179 179 179  179 179 179  179 179 179  179 179 179  102 101 102
23 19 21  17 15 13  31 27 26  36 32 31  36 32 31  34 30 29
35 31 30  35 31 30  36 32 31  35 31 30  36 32 31  34 31 30
37 33 32  33 29 28  35 31 30  34 31 30  21 20 21  19 16 17
55 52 53  167 167 167  179 179 179  179 179 179  179 179 179  179 179 179
179 179 179  179 179 179  179 179 179  179 179 179  179 179 179  179 179 179
179 179 179  179 179 179  179 179 179  179 179 179  179 179 179  179 179 179
179 179 179  179 179 179  179 179 179  179 179 179  179 179 179  179 179 179
179 179 179  179 179 179  0 0 0  0 0 0  0 0 0  0 0 0
0 0 0  0 0 0  0 0 0  0 0 0  0 0 0  0 0 0
0 0 0  0 0 0  0 0 0  0 0 0  0 0 0  0 0 0
0 0 0  0 0 0  0 0 0  0 0 0  0 0 0  0 0 0
0 0 0  0 0 0  0 0 0  0 0 0  0 0 0  0 0 0
0 0 0  0 0 0  0 0 0  0 0 0  0 0 0  0 0 0
0 0 0  0 0 0  0 0 0  0 0 0  0 0 0  0 0 0
0 0 0  0 0 0  0 0 0  0 0 0  0 0 0  0 0 0
0 0 0  0 0 0  0 0 0  0 0 0  0 0 0  0 0 0
0 0 0  0 0 0  0 0 0  0 0 0  0 0 0  0 0 0
0 0 0  0 0 0  0 0 0  0 0 0  0 0 0  0 0 0
0 0 0  0 0 0  0 0 0  0 0 0  0 0 0  0 0 0
0 0 0  0 0 0  0 0 0  0 0 0  0 0 0  0 0 0
0 0 0  0 0 0  0 0 0  0 0 0  0 0 0  0 0 0
179 179 179  179 179 179  179 179 179  179 179 179  179 179 179  179 179 179
179 179 179  179 179 179  179 179 179  179 179 179  179 179 179  179 179 179
179 179 179  179 179 179  179 179 179  179 179 179  179 179 179  179 179 179
179 179 179  179 179 179  179 179 179  179 179 179  179 179 179  179 179 179
179 179 179  56 55 55  20 17 16  25 21 20  34 30 29  34 30 29
36 32 31  35 31 30  35 31 30  35 31 30  35 31 30  35 31 30
35 31 30  35 31 30  34 30 29  35 31 30  37 33 32  28 27 26
20 18 17  29 26 28  106 104 105  177 177 177  179 179 179  179 179 179
179 179 179  179 179 179  179 179 179  179 179 179  179 179 179  179 179 179
179 179 179  179 179 179  163 162 163  32 28 27  25 20 19  32 28 27
35 31 30  36 32 31  36 32 31  35 31 30  35 31 30  35 31 30
35 31 30  35 31 30  35 31 30  35 31 30  35 31 30  35 31 30
35 31 30  35 31 30  35 31 30  35 31 30  35 31 30  35 31 30
35 31 30  35 31 30  35 31 30  35 31 30  35 31 30  35 31 30
35 31 30  35 31 30  35 31 30  35 31 30  35 31 30  35 31 30
35 31 30  35 31 30  35 31 30  35 31 30  35 31 30  35 31 30
35 31 30  35 31 30  36 32 31  35 31 31  18 15 16  26 23 23
119 118 118  179 179 179  179 179 179  179 179 179  179 179 179  179 179 179
179 179 179  179 179 179  179 179 179  179 179 179  179 179 179  179 179 179
109 108 108  26 22 23  19 17 16  29 26 25  34 30 29  36 32 31
36 32 31  35 31 30  35 31 30  35 31 30  34 30 29  36 32 31
34 30 29  35 31 30  35 31 30  36 32 31  32 29 28  26 23 22
18 16 17  55 52 53  163 162 163  179 179 179  179 179 179  179 179 179
179 179 179  179 179 179  179 179 179  179 179 179  179 179 179  179 179 179
179 179 179  179 179 179  179 179 179  179 179 179  179 179 179  179 179 179
179 179 179  179 179 179  179 179 179  179 179 179  179 179 179  179 179 179
179 179 179  179 179 179  179 179 179  0 0 0  0 0 0  0 0 0
0 0 0  0 0 0  0 0 0  0 0 0  0 0 0  0 0 0
0 0 0  0 0 0  0 0 0  0 0 0  0 0 0  0 0 0
0 0 0  0 0 0  0 0 0  0 0 0  0 0 0  0 0 0
0 0 0  0 0 0  0 0 0  0 0 0  0 0 0  0 0 0
0 0 0  0 0 0  0 0 0  0 0 0  0 0 0  0 0 0
0 0 0  0 0 0  0 0 0  0 0 0  0 0 0  0 0 0
0 0 0  0 0 0  0 0 0  0 0 0  0 0 0  0 0 0
0 0 0  0 0 0  0 0 0  0 0 0  0 0 0  0 0 0
0 0 0  0 0 0  0 0 0  0 0 0  0 0 0  0 0 0
0 0 0  0 0 0  0 0 0  0 0 0  0 0 0  0 0 0
0 0 0  0 0 0  0 0 0  0 0 0  0 0 0  0 0 0
0 0 0  0 0 0  0 0 0  0 0 0  0 0 0  0 0 0
0 0 0  0 0 0  0 0 0  0 0 0  0 0 0  179 179 179
179 179 179  179 179 179  179 179 179  179 179 179  179 179 179  179 179 179
179 179 179  179 179 179  179 179 179  179 179 179  179 179 179  179 179 179
179 179 179  179 179 179  179 179 179  179 179 179  179 179 179  179 179 179
179 179 179  179 179 179  179 179 179  179 179 179  179 179 179  179 179 179
60 56 57  19 15 14  24 20 19  35 31 30  37 33 32  35 31 30
34 30 29  35 31 30  35 31 30  35 31 30  35 31 30  35 31 30
35 31 30  35 32 31  36 32 31  36 32 31  30 28 26  17 15 16
29 26 28  126 125 126  177 177 177  179 179 179  179 179 179  179 179 179
179 179 179  179 179 179  179 179 179  179 179 179  179 179 179  179 179 179
179 179 179  179 179 179  48 46 45  18 15 16  30 26 25  36 32 31
37 33 32  33 29 28  33 29 28  37 33 32  35 31 30  35 31 30
35 31 30  35 31 30  35 31 30  35 31 30  35 31 30  35 31 30
35 31 30  35 31 30  35 31 30  35 31 30  35 31 30  35 31 30
35 31 30  35 31 30  35 31 30  35 31 30  35 31 30  35 31 30
35 31 30  35 31 30  35 31 30  35 31 30  35 31 30  35 31 30
35 31 30  35 31 30  35 31 30  35 31 30  35 31 30  35 31 30
35 31 30  35 31 30  34 29 29  37 33 32  32 28 27  20 17 16
47 43 44  168 168 168  179 179 179  179 179 179  179 179 179  179 179 179
179 179 179  179 179 179  179 179 179  179 179 179  179 179 179  179 179 179
179 179 179  114 114 114  26 23 23  18 16 17  30 28 26  37 33 32
33 29 28  34 30 29  35 31 30  35 31 30  36 32 31  33 30 29
36 32 31  35 31 30  35 31 30  35 31 30  36 32 31  34 30 29
25 23 21  19 17 16  65 64 64  176 176 176  179 179 179  179 179 179
179 179 179  179 179 179  179 179 179  179 179 179  179 179 179  179 179 179
179 179 179  179 179 179  179 179 179  179 179 179  179 179 179  179 179 179
179 179 179  179 179 179  179 179 179  179 179 179  179 179 179  179 179 179
179 179 179  179 179 179  179 179 179  179 179 179  0 0 0  0 0 0
0 0 0  0 0 0  0 0 0  0 0 0  0 0 0  0 0 0
0 0 0  0 0 0  0 0 0  0 0 0  0 0 0  0 0 0
0 0 0  0 0 0  0 0 0  0 0 0  0 0 0  0 0 0
0 0 0  0 0 0  0 0 0  0 0 0  0 0 0  0 0 0
0 0 0  0 0 0  0 0 0  0 0 0  0 0 0  0 0 0
0 0 0  0 0 0  0 0 0  0 0 0  0 0 0  0 0 0
0 0 0  0 0 0  0 0 0  0 0 0  0 0 0  0 0 0
0 0 0  0 0 0  0 0 0  0 0 0  0 0 0  0 0 0
0 0 0  0 0 0  0 0 0  0 0 0  0 0 0  0 0 0
0 0 0  0 0 0  0 0 0  0 0 0  0 0 0  0 0 0
0 0 0  0 0 0  0 0 0  0 0 0  0 0 0  0 0 0
0 0 0  0 0 0  0 0 0  0 0 0  0 0 0  0 0 0
0 0 0  0 0 0  0 0 0  0 0 0  0 0 0  179 179 179
179 179 179  179 179 179  179 179 179  179 179 179  179 179 179  179 179 179
179 179 179  179 179 179  179 179 179  179 179 179  179 179 179  179 179 179
179 179 179  179 179 179  179 179 179  179 179 179  179 179 179  179 179 179
179 179 179  179 179 179  179 179 179  177 177 177  163 162 163  55 52 53
20 16 15  24 20 19  36 32 31  34 31 30  35 31 30  35 31 30
35 31 30  35 31 30  35 31 30  35 31 30  35 31 30  35 31 30
35 31 30  35 31 30  35 31 30  30 26 25  18 16 15  28 26 26
148 148 148  179 179 179  179 179 179  179 179 179  179 179 179  179 179 179
179 179 179  179 179 179  179 179 179  179 179 179  179 179 179  179 179 179
179 179 179  88 87 87  21 18 19  24 20 21  35 31 30  34 30 29
34 30 29  35 31 30  37 34 33  34 30 29  35 31 30  35 31 30
35 31 30  35 31 30  35 31 30  35 31 30  35 31 30  35 31 30
35 31 30  35 31 30  35 31 30  35 31 30  35 31 30  35 31 30
35 31 30  35 31 30  35 31 30  35 31 30  35 31 30  35 31 30
35 31 30  35 31 30  35 31 30  35 31 30  35 31 30  35 31 30
35 31 30  35 31 30  35 31 30  35 31 30  35 31 30  35 31 30
35 31 30  35 31 30  35 31 30  36 32 31  34 30 29  26 23 23
20 18 19  92 90 91  173 173 173  179 179 179  179 179 179  179 179 179
179 179 179  179 179 179  179 179 179  179 179 179  179 179 179  179 179 179
179 179 179  179 179 179  109 108 108  24 21 22  20 17 16  31 27 26
37 34 33  34 31 30  35 32 31  35 31 30  35 31 30  36 32 31
35 31 30  35 31 30  35 31 30  34 30 29  36 32 31  35 31 30
35 31 30  26 22 21  20 17 16  74 72 73  175 175 175  179 179 179
179 179 179  179 179 179  179 179 179  179 179 179  179 179 179  179 179 179
179 179 179  179 179 179  179 179 179  179 179 179  179 179 179  179 179 179
179 179 179  179 179 179  179 179 179  179 179 179  179 179 179  179 179 179
179 179 179  179 179 179  179 179 179  179 179 179  0 0 0  0 0 0
0 0 0  0 0 0  0 0 0  0 0 0  0 0 0  0 0 0
0 0 0  0 0 0  0 0 0  0 0 0  0 0 0  0 0 0
0 0 0  0 0 0  0 0 0  0 0 0  0 0 0  0 0 0
0 0 0  0 0 0  0 0 0  0 0 0  0 0 0  0 0 0
0 0 0  0 0 0  0 0 0  0 0 0  0 0 0  0 0 0
0 0 0  0 0 0  0 0 0  0 0 0  0 0 0  0 0 0
0 0 0  0 0 0  0 0 0  0 0 0  0 0 0  0 0 0
0 0 0  0 0 0  0 0 0  0 0 0  0 0 0  0 0 0
0 0 0  0 0 0  0 0 0  0 0 0  0 0 0  0 0 0
0 0 0  0 0 0  0 0 0  0 0 0  0 0 0  0 0 0
0 0 0  0 0 0  0 0 0  0 0 0  0 0 0  0 0 0
0 0 0  0 0 0  0 0 0  0 0 0  0 0 0  0 0 0
0 0 0  0 0 0  0 0 0  0 0 0  179 179 179  179 179 179
179 179 179  179 179 179  179 179 179  179 179 179  179 179 179  179 179 179
179 179 179  179 179 179  179 179 179  179 179 179  179 179 179  179 179 179
179 179 179  179 179 179  179 179 179  179 179 179  179 179 179  179 179 179
179 179 179  179 179 179  179 179 179  150 149 149  50 48 47  20 17 18
24 22 20  36 32 31  35 31 30  34 30 29  35 31 30  35 31 30
36 32 31  35 31 30  35 31 30  35 31 30  35 31 30  35 31 30
35 31 30  34 31 30  31 27 26  21 18 17  28 26 26  157 157 157
179 179 179  179 179 179  179 179 179  179 179 179  179 179 179  179 179 179
179 179 179  179 179 179  179 179 179  179 179 179  179 179 179  179 179 179
145 145 145  29 26 28  24 20 21  35 31 31  36 32 31  35 31 30
35 31 30  34 30 29  36 32 31  35 31 30  36 32 31  35 31 30
35 31 30  35 31 30  35 31 30  35 31 30  35 31 30  35 31 30
35 31 30  35 31 30  35 31 30  35 31 30  35 31 30  35 31 30
35 31 30  35 31 30  35 31 30  35 31 30  35 31 30  35 31 30
35 31 30  35 31 30  35 31 30  35 31 30  35 31 30  35 31 30
35 31 30  35 31 30  35 31 30  35 31 30  35 31 30  35 31 30
35 31 30  35 31 30  34 30 29  35 32 31  35 31 30  31 27 26
20 18 17  35 31 31  179 179 179  179 179 179  179 179 179  179 179 179
179 179 179  179 179 179  179 179 179  179 179 179  179 179 179  179 179 179
179 179 179  179 179 179  179 179 179  99 97 97  24 19 20  20 16 15
32 28 27  35 31 30  35 31 30  35 31 30  35 31 30  34 31 30
35 31 30  35 31 30  35 31 30  36 32 31  36 32 31  33 30 29
35 31 30  34 30 29  25 23 21  19 16 17  65 64 64  165 165 164
179 179 179  179 179 179  179 179 179  179 179 179  179 179 179  179 179 179
179 179 179  179 179 179  179 179 179  179 179 179  179 179 179  179 179 179
179 179 179  179 179 179  179 179 179  179 179 179  179 179 179  179 179 179
179 179 179  179 179 179  179 179 179  179 179 179  179 179 179  0 0 0
0 0 0  0 0 0  0 0 0  0 0 0  0 0 0  0 0 0
0 0 0  0 0 0  0 0 0  0 0 0  0 0 0  0 0 0
0 0 0  0 0 0  0 0 0  0 0 0  0 0 0  0 0 0
0 0 0  0 0 0  0 0 0  0 0 0  0 0 0  0 0 0
0 0 0  0 0 0  0 0 0  0 0 0  0 0 0  0 0 0
0 0 0  0 0 0  0 0 0  0 0 0  0 0 0  0 0 0
0 0 0  0 0 0  0 0 0  0 0 0  0 0 0  0 0 0
0 0 0  0 0 0  0 0 0  0 0 0  0 0 0  0 0 0
0 0 0  0 0 0  0 0 0  0 0 0  0 0 0  0 0 0
0 0 0  0 0 0  0 0 0  0 0 0  0 0 0  0 0 0
0 0 0  0 0 0  0 0 0  0 0 0  0 0 0  0 0 0
0 0 0  0 0 0  0 0 0  0 0 0  0 0 0  0 0 0
0 0 0  0 0 0  0 0 0  179 179 179  179 179 179  179 179 179
179 179 179  179 179 179  179 179 179  179 179 179  179 179 179  179 179 179
179 179 179  179 179 179  179 179 179  179 179 179  179 179 179  179 179 179
179 179 179  179 179 179  179 179 179  179 179 179  179 179 179  179 179 179
179 179 179  176 176 176  160 160 160  50 48 47  21 18 19  24 21 22
34 30 29  35 31 30  35 31 30  35 31 30  35 31 30  35 31 30
34 30 29  35 31 30  35 31 30  35 31 30  34 30 29  35 31 30
35 32 31  31 27 26  22 19 19  28 26 26  129 128 129  179 179 179
179 179 179  179 179 179  179 179 179  179 179 179  179 179 179  179 179 179
179 179 179  179 179 179  179 179 179  179 179 179  179 179 179  179 179 179
63 60 61  21 18 17  30 26 25  35 31 31  36 32 31  34 30 29
36 32 31  36 32 31  35 31 30  34 30 29  34 30 29  35 31 30
35 31 30  35 31 30  34 30 29  35 31 30  35 31 30  35 31 30
35 31 30  35 31 30  36 32 31  35 31 30  34 30 29  32 28 27
30 28 26  29 26 25  30 26 25  31 27 26  34 30 29  35 31 30
36 31 30  35 31 30  35 31 30  35 31 30  35 31 30  34 30 29
35 31 30  35 31 30  35 31 30  35 31 30  34 30 29  35 31 30
35 31 30  35 31 30  35 31 30  35 31 30  35 31 30  36 32 31
25 23 21  18 15 16  95 95 95  179 179 179  179 179 179  179 179 179
179 179 179  179 179 179  179 179 179  179 179 179  179 179 179  179 179 179
179 179 179  179 179 179  179 179 179  179 179 179  99 97 97  25 21 20
20 17 16  29 26 25  35 31 30  35 31 30  36 32 31  36 32 31
35 31 30  35 31 30  35 31 30  34 30 29  36 32 31  36 32 31
35 31 30  35 31 30  35 31 30  23 21 20  17 15 13  55 52 53
163 162 163  179 179 179  179 179 179  179 179 179  179 179 179  179 179 179
179 179 179  179 179 179  179 179 179  179 179 179  179 179 179  179 179 179
179 179 179  179 179 179  179 179 179  179 179 179  179 179 179  179 179 179
179 179 179  179 179 179  179 179 179  179 179 179  179 179 179  179 179 179
0 0 0  0 0 0  0 0 0  0 0 0  0 0 0  0 0 0
0 0 0  0 0 0  0 0 0  0 0 0  0 0 0  0 0 0
0 0 0  0 0 0  0 0 0  0 0 0  0 0 0  0 0 0
0 0 0  0 0 0  0 0 0  0 0 0  0 0 0  0 0 0
0 0 0  0 0 0  0 0 0  0 0 0  0 0 0  0 0 0
0 0 0  0 0 0  0 0 0  0 0 0  0 0 0  0 0 0
0 0 0  0 0 0  0 0 0  0 0 0  0 0 0  0 0 0
0 0 0  0 0 0  0 0 0  0 0 0  0 0 0  0 0 0
0 0 0  0 0 0  0 0 0  0 0 0  0 0 0  0 0 0
0 0 0  0 0 0  0 0 0  0 0 0  0 0 0  0 0 0
0 0 0  0 0 0  0 0 0  0 0 0  0 0 0  0 0 0
0 0 0  0 0 0  0 0 0  0 0 0  0 0 0  0 0 0
0 0 0  0 0 0  179 179 179  179 179 179  179 179 179  179 179 179
179 179 179  179 179 179  179 179 179  179 179 179  179 179 179  179 179 179
179 179 179  179 179 179  179 179 179  179 179 179  179 179 179  179 179 179
179 179 179  179 179 179  179 179 179  179 179 179  179 179 179  179 179 179
179 179 179  177 177 177  55 52 53  20 17 16  24 22 20  34 31 30
35 31 30  35 31 30  35 31 30  35 31 30  35 31 30  35 31 30
35 31 30  34 30 29  36 32 31  36 32 31  35 31 30  36 32 32
31 27 26  21 18 17  28 26 26  106 104 105  178 178 178  179 179 179
179 179 179  179 179 179  179 179 179  179 179 179  179 179 179  179 179 179
179 179 179  179 179 179  179 179 179  179 179 179  179 179 179  133 133 133
32 29 28  22 18 17  36 32 31  35 31 30  35 31 30  35 31 30
35 31 30  35 31 30  35 31 30  35 31 30  35 31 30  35 31 30
34 30 29  35 31 30  36 32 31  34 30 29  35 31 30  34 30 29
35 31 30  36 32 31  33 29 28  28 24 23  25 21 20  24 20 19
22 21 19  22 19 18  22 19 18  23 19 18  25 21 20  27 23 22
33 29 28  36 32 31  34 30 29  34 30 29  35 31 30  35 31 30
36 32 31  35 31 30  36 32 31  35 31 30  35 31 30  36 32 31
36 32 31  35 31 30  35 31 30  35 31 30  36 32 31  36 32 31
28 25 24  14 12 12  32 29 29  179 179 179  179 179 179  179 179 179
179 179 179  179 179 179  179 179 179  179 179 179  179 179 179  179 179 179
179 179 179  179 179 179  179 179 179  179 179 179  179 179 179  102 101 102
26 22 23  17 15 16  29 26 25  35 31 30  35 31 30  35 31 30
34 30 29  36 32 31  36 32 31  34 30 29  33 29 28  35 31 30
35 31 30  35 31 30  34 31 30  36 32 31  25 23 21  19 17 16
55 52 53  165 165 164  179 179 179  179 179 179  179 179 179  179 179 179
179 179 179  179 179 179  179 179 179  179 179 179  179 179 179  179 179 179
179 179 179  179 179 179  179 179 179  179 179 179  179 179 179  179 179 179
179 179 179  179 179 179  179 179 179  179 179 179  179 179 179  179 179 179
179 179 179  0 0 0  0 0 0  0 0 0  0 0 0  0 0 0
0 0 0  0 0 0  0 0 0  0 0 0  0 0 0  0 0 0
0 0 0  0 0 0  0 0 0  0 0 0  0 0 0  0 0 0
0 0 0  0 0 0  0 0 0  0 0 0  0 0 0  0 0 0
0 0 0  0 0 0  0 0 0  0 0 0  0 0 0  0 0 0
0 0 0  0 0 0  0 0 0  0 0 0  0 0 0  0 0 0
0 0 0  0 0 0  0 0 0  0 0 0  0 0 0  0 0 0
0 0 0  0 0 0  0 0 0  0 0 0  0 0 0  0 0 0
0 0 0  0 0 0  0 0 0  0 0 0  0 0 0  0 0 0
0 0 0  0 0 0  0 0 0  0 0 0  0 0 0  0 0 0
0 0 0  0 0 0  0 0 0  0 0 0  0 0 0  0 0 0
0 0 0  0 0 0  0 0 0  0 0 0  0 0 0  0 0 0
0 0 0  0 0 0  179 179 179  179 179 179  179 179 179  179 179 179
179 179 179  179 179 179  179 179 179  179 179 179  179 179 179  179 179 179
179 179 179  179 179 179  179 179 179  179 179 179  179 179 179  179 179 179
179 179 179  179 179 179  179 179 179  179 179 179  179 179 179  179 179 179
175 175 175  63 60 61  20 17 16  26 22 21  35 31 30  35 31 30
35 31 30  35 31 30  35 31 30  35 31 30  35 31 30  35 31 30
35 31 30  35 31 30  34 30 29  34 30 29  36 32 31  32 28 26
19 17 16  28 25 26  112 111 111  176 176 176  179 179 179  179 179 179
179 179 179  179 179 179  179 179 179  179 179 179  179 179 179  179 179 179
179 179 179  179 179 179  179 179 179  179 179 179  179 179 179  74 72 73
22 19 18  28 24 23  35 31 30  34 30 29  35 31 30  35 31 30
35 31 30  35 31 30  35 31 30  35 31 30  35 31 30  35 31 30
36 32 31  34 30 29  35 31 30  35 31 30  35 31 30  35 31 31
36 33 33  31 26 27  21 18 19  19 16 16  26 23 22  42 38 37
52 50 50  60 56 57  52 50 50  38 37 36  27 25 23  19 15 16
20 16 17  28 24 23  34 30 29  37 34 33  34 30 29  36 32 31
35 31 30  34 30 29  34 30 29  34 30 29  35 31 30  33 29 28
34 30 29  36 32 31  34 30 29  36 32 31  29 25 24  22 19 19
18 16 17  17 15 16  47 43 44  179 179 179  179 179 179  179 179 179
179 179 179  179 179 179  179 179 179  179 179 179  179 179 179  179 179 179
179 179 179  179 179 179  179 179 179  179 179 179  179 179 179  179 179 179
114 114 114  26 23 23  19 15 14  30 26 25  37 33 32  36 32 31
35 31 30  34 30 29  35 31 30  36 32 31  36 32 31  36 32 31
34 30 29  36 32 31  34 30 29  36 32 31  33 30 29  23 22 20
19 17 16  60 56 57  171 171 171  179 179 179  179 179 179  179 179 179
179 179 179  179 179 179  179 179 179  179 179 179  179 179 179  179 179 179
179 179 179  179 179 179  179 179 179  179 179 179  179 179 179  179 179 179
179 179 179  179 179 179  179 179 179  179 179 179  179 179 179  179 179 179
179 179 179  0 0 0  0 0 0  0 0 0  0 0 0  0 0 0
0 0 0  0 0 0  0 0 0  0 0 0  0 0 0  0 0 0
0 0 0  0 0 0  0 0 0  0 0 0  0 0 0  0 0 0
0 0 0  0 0 0  0 0 0  0 0 0  0 0 0  0 0 0
0 0 0  0 0 0  0 0 0  0 0 0  0 0 0  0 0 0
0 0 0  0 0 0  0 0 0  0 0 0  0 0 0  0 0 0
0 0 0  0 0 0  0 0 0  0 0 0  0 0 0  0 0 0
0 0 0  0 0 0  0 0 0  0 0 0  0 0 0  0 0 0
0 0 0  0 0 0  0 0 0  0 0 0  0 0 0  0 0 0
0 0 0  0 0 0  0 0 0  0 0 0  0 0 0  0 0 0
0 0 0  0 0 0  0 0 0  0 0 0  0 0 0  0 0 0
0 0 0  0 0 0  0 0 0  0 0 0  0 0 0  0 0 0
0 0 0  179 179 179  179 179 179  179 179 179  179 179 179  179 179 179
179 179 179  179 179 179  179 179 179  179 179 179  179 179 179  179 179 179
179 179 179  179 179 179  179 179 179  179 179 179  179 179 179  179 179 179
179 179 179  179 179 179  179 179 179  179 179 179  179 179 179  175 175 175
60 56 57  20 16 15  24 20 19  35 31 30  34 30 29  34 30 29
35 31 30  35 31 30  35 31 30  35 31 30  35 31 30  35 31 30
35 31 30  35 31 30  35 31 30  37 33 32  30 28 26  18 16 17
28 25 26  152 151 151  179 179 179  179 179 179  179 179 179  179 179 179
179 179 179  179 179 179  179 179 179  179 179 179  179 179 179  179 179 179
179 179 179  179 179 179  179 179 179  179 179 179  163 162 163  47 43 44
23 20 19  33 29 28  33 29 28  36 32 31  35 31 30  35 31 30
35 31 30  35 31 30  35 31 30  35 31 30  35 31 30  34 30 29
35 31 30  35 31 30  35 31 30  37 33 32  33 29 28  35 31 31
26 21 22  19 15 16  30 28 26  92 90 91  177 177 177  179 179 179
179 179 179  179 179 179  179 179 179  179 179 179  179 179 179  102 101 102
32 29 28  20 16 15  28 24 23  34 30 29  32 28 27  35 31 30
34 30 29  36 32 31  37 33 32  36 32 31  35 31 30  36 32 31
36 32 31  34 29 29  28 25 24  17 15 13  17 15 13  23 21 19
48 46 45  142 141 141  179 179 179  179 179 179  179 179 179  179 179 179
179 179 179  179 179 179  179 179 179  179 179 179  179 179 179  179 179 179
179 179 179  179 179 179  179 179 179  179 179 179  179 179 179  179 179 179
179 179 179  114 114 114  24 21 22  18 17 15  32 28 27  34 30 29
36 32 31  35 31 30  35 31 30  34 30 29  36 32 31  32 28 27
35 31 30  34 30 29  35 31 30  37 33 32  37 33 32  33 29 28
25 22 23  18 16 17  74 72 73  179 179 179  179 179 179  179 179 179
179 179 179  179 179 179  179 179 179  179 179 179  179 179 179  179 179 179
179 179 179  179 179 179  179 179 179  179 179 179  179 179 179  179 179 179
179 179 179  179 179 179  179 179 179  179 179 179  179 179 179  179 179 179
179 179 179  179 179 179  0 0 0  0 0 0  0 0 0  0 0 0
0 0 0  0 0 0  0 0 0  0 0 0  0 0 0  0 0 0
0 0 0  0 0 0  0 0 0  0 0 0  0 0 0  0 0 0
0 0 0  0 0 0  0 0 0  0 0 0  0 0 0  0 0 0
0 0 0  0 0 0  0 0 0  0 0 0  0 0 0  0 0 0
0 0 0  0 0 0  0 0 0  0 0 0  0 0 0  0 0 0
0 0 0  0 0 0  0 0 0  0 0 0  0 0 0  0 0 0
0 0 0  0 0 0  0 0 0  0 0 0  0 0 0  0 0 0
0 0 0  0 0 0  0 0 0  0 0 0  0 0 0  0 0 0
0 0 0  0 0 0  0 0 0  0 0 0  0 0 0  0 0 0
0 0 0  0 0 0  0 0 0  0 0 0  0 0 0  0 0 0
0 0 0  0 0 0  0 0 0  0 0 0  0 0 0  0 0 0
0 0 0  179 179 179  179 179 179  179 179 179  179 179 179  179 179 179
179 179 179  179 179 179  179 179 179  179 179 179  179 179 179  179 179 179
179 179 179  179 179 179  179 179 179  179 179 179  179 179 179  179 179 179
179 179 179  179 179 179  179 179 179  178 178 178  152 151 151  52 50 50
24 19 18  25 21 20  34 30 29  37 33 32  35 31 30  35 31 31
35 31 30  35 31 30  35 31 30  35 31 30  35 31 30  35 31 30
35 31 30  35 31 30  35 31 30  29 26 25  19 16 17  27 25 24
165 165 164  179 179 179  179 179 179  179 179 179  179 179 179  179 179 179
179 179 179  179 179 179  179 179 179  179 179 179  179 179 179  179 179 179
179 179 179  179 179 179  179 179 179  179 179 179  123 123 123  30 26 25
26 21 22  33 29 28  36 32 31  34 30 29  35 31 30  35 31 30
35 31 30  35 31 30  35 31 30  35 31 30  35 31 30  35 31 30
34 30 29  35 31 30  36 32 31  36 32 31  35 31 30  26 21 22
19 16 17  50 48 47  172 172 172  176 176 176  177 177 177  179 179 179
179 179 179  179 179 179  179 179 179  179 179 179  179 179 179  179 179 179
162 161 161  55 52 53  21 17 16  24 20 19  36 32 31  35 31 30
35 31 30  34 30 29  36 32 31  33 29 28  34 30 29  32 28 27
25 21 20  20 16 15  18 16 15  27 25 23  63 60 61  145 145 145
179 179 179  179 179 179  179 179 179  179 179 179  179 179 179  179 179 179
179 179 179  179 179 179  179 179 179  179 179 179  179 179 179  179 179 179
179 179 179  179 179 179  179 179 179  179 179 179  179 179 179  179 179 179
179 179 179  179 179 179  102 101 102  23 19 21  18 16 17  32 28 27
36 32 31  33 29 28  35 31 30  35 31 30  35 32 31  35 31 30
35 31 30  36 32 31  35 31 30  34 30 29  34 30 29  36 32 31
34 30 29  25 22 23  21 18 19  76 75 75  168 168 168  179 179 179
179 179 179  179 179 179  179 179 179  179 179 179  179 179 179  179 179 179
179 179 179  179 179 179  179 179 179  179 179 179  179 179 179  179 179 179
179 179 179  179 179 179  179 179 179  179 179 179  179 179 179  179 179 179
179 179 179  179 179 179  0 0 0  0 0 0  0 0 0  0 0 0
0 0 0  0 0 0  0 0 0  0 0 0  0 0 0  0 0 0
0 0 0  0 0 0  0 0 0  0 0 0  0 0 0  0 0 0
0 0 0  0 0 0  0 0 0  0 0 0  0 0 0  0 0 0
0 0 0  0 0 0  0 0 0  0 0 0  0 0 0  0 0 0
0 0 0  0 0 0  0 0 0  0 0 0  0 0 0  0 0 0
0 0 0  0 0 0  0 0 0  0 0 0  0 0 0  0 0 0
0 0 0  0 0 0  0 0 0  0 0 0  0 0 0  0 0 0
0 0 0  0 0 0  0 0 0  0 0 0  0 0 0  0 0 0
0 0 0  0 0 0  0 0 0  0 0 0  0 0 0  0 0 0
0 0 0  0 0 0  0 0 0  0 0 0  0 0 0  0 0 0
0 0 0  0 0 0  0 0 0  0 0 0  0 0 0  0 0 0
179 179 179  179 179 179  179 179 179  179 179 179  179 179 179  179 179 179
179 179 179  179 179 179  179 179 179  179 179 179  179 179 179  179 179 179
179 179 179  179 179 179  179 179 179  179 179 179  179 179 179  179 179 179
179 179 179  179 179 179  179 179 179  152 151 151  50 48 47  24 19 20
27 23 22  35 31 30  34 30 29  35 31 30  35 31 30  35 31 30
35 31 30  35 31 30  35 31 30  35 31 30  35 31 30  35 31 30
35 31 30  35 31 30  31 27 26  20 18 17  27 25 24  138 138 138
179 179 179  179 179 179  179 179 179  179 179 179  179 179 179  179 179 179
179 179 179  179 179 179  179 179 179  179 179 179  179 179 179  179 179 179
179 179 179  179 179 179  179 179 179  179 179 179  92 90 91  23 19 20
28 25 24  34 29 29  36 32 32  34 30 29  35 31 30  35 31 30
35 31 30  35 31 30  35 31 30  35 31 30  35 31 30  35 31 30
36 32 31  34 30 29  35 31 30  34 30 29  26 22 21  21 18 17
65 64 64  179 179 179  179 179 179  179 179 179  179 179 179  179 179 179
179 179 179  179 179 179  179 179 179  179 179 179  179 179 179  179 179 179
179 179 179  177 177 177  63 60 61  20 17 16  25 21 20  34 30 29
35 31 30  35 31 30  33 29 28  28 24 23  24 19 20  20 17 16
22 20 19  36 33 33  79 76 76  168 168 168  179 179 179  179 179 179
179 179 179  179 179 179  179 179 179  179 179 179  179 179 179  179 179 179
179 179 179  179 179 179  179 179 179  179 179 179  179 179 179  179 179 179
179 179 179  179 179 179  179 179 179  179 179 179  179 179 179  179 179 179
179 179 179  179 179 179  179 179 179  95 95 95  23 19 21  19 15 14
30 26 25  36 32 31  35 31 30  35 31 30  35 31 30  34 30 29
35 31 30  35 31 30  35 31 30  35 31 30  35 31 30  36 32 31
35 31 30  34 31 30  26 23 22  19 18 18  56 55 55  165 165 164
179 179 179  179 179 179  179 179 179  179 179 179  179 179 179  179 179 179
179 179 179  179 179 179  179 179 179  179 179 179  179 179 179  179 179 179
179 179 179  179 179 179  179 179 179  179 179 179  179 179 179  179 179 179
179 179 179  179 179 179  179 179 179  0 0 0  0 0 0  0 0 0
0 0 0  0 0 0  0 0 0  0 0 0  0 0 0  0 0 0
0 0 0  0 0 0  0 0 0  0 0 0  0 0 0  0 0 0
0 0 0  0 0 0  0 0 0  0 0 0  0 0 0  0 0 0
0 0 0  0 0 0  0 0 0  0 0 0  0 0 0  0 0 0
0 0 0  0 0 0  0 0 0  0 0 0  0 0 0  0 0 0
0 0 0  0 0 0  0 0 0  0 0 0  0 0 0  0 0 0
0 0 0  0 0 0  0 0 0  0 0 0  0 0 0  0 0 0
0 0 0  0 0 0  0 0 0  0 0 0  0 0 0  0 0 0
0 0 0  0 0 0  0 0 0  0 0 0  0 0 0  0 0 0
0 0 0  0 0 0  0 0 0  0 0 0  0 0 0  0 0 0
0 0 0  0 0 0  0 0 0  0 0 0  0 0 0  0 0 0
179 179 179  179 179 179  179 179 179  179 179 179  179 179 179  179 179 179
179 179 179  179 179 179  179 179 179  179 179 179  179 179 179  179 179 179
179 179 179  179 179 179  179 179 179  179 179 179  179 179 179  179 179 179
179 179 179  179 179 179  179 179 179  52 50 50  21 19 20  26 23 22
34 31 30  35 31 30  34 30 29  35 32 31  35 31 30  35 31 30
35 31 30  35 31 30  35 31 30  35 31 30  35 31 30  35 31 30
35 31 30  31 27 26  21 18 17  25 25 24  109 108 108  178 178 178
179 179 179  179 179 179  179 179 179  179 179 179  179 179 179  179 179 179
179 179 179  179 179 179  179 179 179  179 179 179  179 179 179  179 179 179
179 179 179  179 179 179  179 179 179  179 179 179  63 60 61  21 18 19
31 26 27  36 31 30  34 30 29  35 31 30  35 31 30  35 31 30
35 31 30  35 31 30  35 31 30  35 31 30  35 31 30  35 31 30
35 31 30  36 32 31  35 31 30  30 26 25  23 19 18  50 48 47
170 169 169  179 179 179  179 179 179  179 179 179  179 179 179  179 179 179
179 179 179  179 179 179  179 179 179  179 179 179  179 179 179  179 179 179
179 179 179  179 179 179  175 175 175  56 55 55  18 15 16  28 25 24
31 26 27  26 23 22  22 19 18  20 17 16  27 24 24  48 46 45
95 95 95  160 160 160  179 179 179  179 179 179  179 179 179  179 179 179
179 179 179  179 179 179  179 179 179  179 179 179  179 179 179  179 179 179
179 179 179  179 179 179  179 179 179  179 179 179  179 179 179  179 179 179
179 179 179  179 179 179  179 179 179  179 179 179  179 179 179  179 179 179
179 179 179  179 179 179  179 179 179  179 179 179  102 101 102  26 21 22
21 16 16  31 27 26  35 31 30  35 31 30  35 31 30  35 31 30
35 31 30  35 31 30  36 32 31  34 30 29  35 31 30  35 31 30
35 31 30  34 30 29  35 31 30  26 23 23  18 16 17  55 52 53
165 165 164  179 179 179  179 179 179  179 179 179  179 179 179  179 179 179
179 179 179  179 179 179  179 179 179  179 179 179  179 179 179  179 179 179
179 179 179  179 179 179  179 179 179  179 179 179  179 179 179  179 179 179
179 179 179  179 179 179  179 179 179  0 0 0  0 0 0  0 0 0
0 0 0  0 0 0  0 0 0  0 0 0  0 0 0  0 0 0
0 0 0  0 0 0  0 0 0  0 0 0  0 0 0  0 0 0
0 0 0  0 0 0  0 0 0  0 0 0  0 0 0  0 0 0
0 0 0  0 0 0  0 0 0  0 0 0  0 0 0  0 0 0
0 0 0  0 0 0  0 0 0  0 0 0  0 0 0  0 0 0
0 0 0  0 0 0  0 0 0  0 0 0  0 0 0  0 0 0
0 0 0  0 0 0  0 0 0  0 0 0  0 0 0  0 0 0
0 0 0  0 0 0  0 0 0  0 0 0  0 0 0  0 0 0
0 0 0  0 0 0  0 0 0  0 0 0  0 0 0  0 0 0
0 0 0  0 0 0  0 0 0  0 0 0  0 0 0  0 0 0
0 0 0  0 0 0  0 0 0  0 0 0  0 0 0  0 0 0
179 179 179  179 179 179  179 179 179  179 179 179  179 179 179  179 179 179
179 179 179  179 179 179  179 179 179  179 179 179  179 179 179  179 179 179
179 179 179  179 179 179  179 179 179  179 179 179  179 179 179  179 179 179
179 179 179  179 179 179  60 56 57  22 19 18  26 22 21  34 30 29
35 31 30  35 31 30  35 31 30  35 31 30  35 31 30  35 31 30
35 31 30  37 33 32  34 30 29  36 32 31  35 31 30  37 33 32
29 26 25  19 16 17  28 25 26  112 111 111  178 178 178  179 179 179
179 179 179  179 179 179  179 179 179  179 179 179  179 179 179  179 179 179
179 179 179  179 179 179  179 179 179  179 179 179  179 179 179  179 179 179
179 179 179  179 179 179  179 179 179  179 179 179  43 42 42  23 19 18
32 28 27  36 32 31  35 31 30  34 30 29  35 31 30  35 31 30
35 31 30  35 31 30  35 31 30  35 31 30  35 31 30  35 31 30
35 32 31  35 31 30  33 29 28  23 19 18  32 29 28  129 128 129
179 179 179  179 179 179  179 179 179  179 179 179  179 179 179  179 179 179
179 179 179  179 179 179  179 179 179  179 179 179  179 179 179  179 179 179
179 179 179  179 179 179  179 179 179  167 167 167  38 37 36  14 12 12
18 15 16  21 18 19  36 35 34  76 75 75  126 125 126  171 171 171
179 179 179  179 179 179  179 179 179  179 179 179  179 179 179  179 179 179
179 179 179  179 179 179  179 179 179  179 179 179  179 179 179  179 179 179
179 179 179  179 179 179  179 179 179  179 179 179  179 179 179  179 179 179
179 179 179  179 179 179  179 179 179  179 179 179  179 179 179  179 179 179
179 179 179  179 179 179  179 179 179  179 179 179  179 179 179  119 118 118
28 23 24  18 16 17  30 28 26  35 31 30  35 30 29  36 31 30
35 31 30  35 31 30  34 30 29  36 32 31  35 31 30  35 31 30
35 31 30  34 30 29  36 32 31  35 31 31  25 21 20  19 15 14
56 55 55  168 168 168  179 179 179  179 179 179  179 179 179  179 179 179
179 179 179  179 179 179  179 179 179  179 179 179  179 179 179  179 179 179
179 179 179  179 179 179  179 179 179  179 179 179  179 179 179  179 179 179
179 179 179  179 179 179  179 179 179  0 0 0  0 0 0  0 0 0
0 0 0  0 0 0  0 0 0  0 0 0  0 0 0  0 0 0
0 0 0  0 0 0  0 0 0  0 0 0  0 0 0  0 0 0
0 0 0  0 0 0  0 0 0  0 0 0  0 0 0  0 0 0
0 0 0  0 0 0  0 0 0  0 0 0  0 0 0  0 0 0
0 0 0  0 0 0  0 0 0  0 0 0  0 0 0  0 0 0
0 0 0  0 0 0  0 0 0  0 0 0  0 0 0  0 0 0
0 0 0  0 0 0  0 0 0  0 0 0  0 0 0  0 0 0
0 0 0  0 0 0  0 0 0  0 0 0  0 0 0  0 0 0
0 0 0  0 0 0  0 0 0  0 0 0  0 0 0  0 0 0
0 0 0  0 0 0  0 0 0  0 0 0  0 0 0  0 0 0
0 0 0  0 0 0  0 0 0  0 0 0  0 0 0  0 0 0
179 179 179  179 179 179  179 179 179  179 179 179  179 179 179  179 179 179
179 179 179  179 179 179  179 179 179  179 179 179  179 179 179  179 179 179
179 179 179  179 179 179  179 179 179  179 179 179  179 179 179  179 179 179
179 179 179  60 59 59  20 18 16  26 23 22  35 31 30  35 31 30
35 31 30  35 31 30  35 31 30  35 31 30  35 31 30  35 31 30
36 32 31  33 29 28  34 31 30  33 30 29  36 32 31  29 26 25
18 17 15  27 25 24  138 138 138  178 178 178  179 179 179  179 179 179
179 179 179  179 179 179  179 179 179  179 179 179  179 179 179  179 179 179
179 179 179  179 179 179  179 179 179  179 179 179  179 179 179  179 179 179
179 179 179  179 179 179  179 179 179  179 179 179  35 31 31  25 21 20
34 30 29  35 31 30  35 31 30  35 31 30  35 31 30  35 31 30
35 31 30  35 31 30  35 31 30  35 31 30  35 31 30  36 32 31
36 32 31  34 30 29  31 27 26  22 18 17  60 59 59  177 177 177
179 179 179  179 179 179  179 179 179  179 179 179  179 179 179  179 179 179
179 179 179  179 179 179  179 179 179  179 179 179  179 179 179  179 179 179
179 179 179  179 179 179  179 179 179  179 179 179  166 166 166  38 37 36
50 48 47  138 138 138  166 166 166  178 178 178  179 179 179  179 179 179
179 179 179  179 179 179  179 179 179  179 179 179  179 179 179  179 179 179
179 179 179  179 179 179  179 179 179  179 179 179  179 179 179  179 179 179
179 179 179  179 179 179  179 179 179  179 179 179  179 179 179  179 179 179
179 179 179  179 179 179  179 179 179  179 179 179  179 179 179  179 179 179
179 179 179  179 179 179  179 179 179  179 179 179  179 179 179  179 179 179
119 118 118  24 21 22  14 12 12  32 29 28  34 30 29  35 31 30
35 31 30  36 32 31  35 31 30  35 31 30  34 30 29  34 30 29
35 31 30  37 33 32  33 29 28  33 29 28  37 33 32  25 23 21
18 16 15  68 67 67  177 177 177  179 179 179  179 179 179  179 179 179
179 179 179  179 179 179  179 179 179  179 179 179  179 179 179  179 179 179
179 179 179  179 179 179  179 179 179  179 179 179  179 179 179  179 179 179
179 179 179  179 179 179  179 179 179  0 0 0  0 0 0  0 0 0
0 0 0  0 0 0  0 0 0  0 0 0  0 0 0  0 0 0
0 0 0  0 0 0  0 0 0  0 0 0  0 0 0  0 0 0
0 0 0  0 0 0  0 0 0  0 0 0  0 0 0  0 0 0
0 0 0  0 0 0  0 0 0  0 0 0  0 0 0  0 0 0
0 0 0  0 0 0  0 0 0  0 0 0  0 0 0  0 0 0
0 0 0  0 0 0  0 0 0  0 0 0  0 0 0  0 0 0
0 0 0  0 0 0  0 0 0  0 0 0  0 0 0  0 0 0
0 0 0  0 0 0  0 0 0  0 0 0  0 0 0  0 0 0
0 0 0  0 0 0  0 0 0  0 0 0  0 0 0  0 0 0
0 0 0  0 0 0  0 0 0  0 0 0  0 0 0  0 0 0
0 0 0  0 0 0  0 0 0  0 0 0  0 0 0  179 179 179
179 179 179  179 179 179  179 179 179  179 179 179  179 179 179  179 179 179
179 179 179  179 179 179  179 179 179  179 179 179  179 179 179  179 179 179
179 179 179  179 179 179  179 179 179  179 179 179  179 179 179  154 154 154
55 52 53  22 19 18  22 21 19  35 31 30  36 32 31  36 32 31
35 31 30  35 31 30  35 31 30  35 31 30  35 31 30  35 31 30
36 32 31  35 31 30  35 31 30  37 33 32  32 28 27  19 18 18
25 25 24  157 157 157  179 179 179  179 179 179  179 179 179  179 179 179
179 179 179  179 179 179  179 179 179  179 179 179  179 179 179  179 179 179
179 179 179  179 179 179  179 179 179  179 179 179  179 179 179  179 179 179
179 179 179  179 179 179  179 179 179  179 179 179  26 23 23  26 22 21
35 31 30  35 31 30  35 31 30  35 31 30  35 31 30  35 31 30
35 31 30  35 31 30  35 31 30  35 31 30  35 31 30  35 31 30
36 32 31  36 32 31  25 21 20  26 23 22  114 114 114  179 179 179
179 179 179  179 179 179  179 179 179  179 179 179  179 179 179  179 179 179
179 179 179  179 179 179  179 179 179  179 179 179  179 179 179  179 179 179
179 179 179  179 179 179  179 179 179  179 179 179  179 179 179  179 179 179
179 179 179  179 179 179  179 179 179  179 179 179  179 179 179  179 179 179
179 179 179  179 179 179  179 179 179  179 179 179  179 179 179  179 179 179
179 179 179  179 179 179  179 179 179  179 179 179  179 179 179  179 179 179
179 179 179  179 179 179  179 179 179  179 179 179  179 179 179  179 179 179
179 179 179  179 179 179  179 179 179  179 179 179  179 179 179  179 179 179
179 179 179  179 179 179  179 179 179  179 179 179  179 179 179  179 179 179
179 179 179  109 108 108  23 21 20  17 15 13  33 29 28  35 31 30
34 30 29  35 31 30  35 31 30  35 31 30  35 31 30  34 30 29
34 30 29  35 31 30  36 32 31  34 30 29  35 31 30  32 29 28
22 21 19  19 17 16  74 72 73  172 172 172  179 179 179  179 179 179
179 179 179  179 179 179  179 179 179  179 179 179  179 179 179  179 179 179
179 179 179  179 179 179  179 179 179  179 179 179  179 179 179  179 179 179
179 179 179  179 179 179  179 179 179  0 0 0  0 0 0  0 0 0
0 0 0  0 0 0  0 0 0  0 0 0  0 0 0  0 0 0
0 0 0  0 0 0  0 0 0  0 0 0  0 0 0  0 0 0
0 0 0  0 0 0  0 0 0  0 0 0  0 0 0  0 0 0
0 0 0  0 0 0  0 0 0  0 0 0  0 0 0  0 0 0
0 0 0  0 0 0  0 0 0  0 0 0  0 0 0  0 0 0
0 0 0  0 0 0  0 0 0  0 0 0  0 0 0  0 0 0
0 0 0  0 0 0  0 0 0  0 0 0  0 0 0  0 0 0
0 0 0  0 0 0  0 0 0  0 0 0  0 0 0  0 0 0
0 0 0  0 0 0  0 0 0  0 0 0  0 0 0  0 0 0
0 0 0  0 0 0  0 0 0  0 0 0  0 0 0  0 0 0
0 0 0  0 0 0  0 0 0  0 0 0  0 0 0  179 179 179
179 179 179  179 179 179  179 179 179  179 179 179  179 179 179  179 179 179
179 179 179  179 179 179  179 179 179  179 179 179  179 179 179  179 179 179
179 179 179  179 179 179  179 179 179  179 179 179  150 149 149  50 48 47
22 19 19  25 23 21  33 30 29  36 32 31  35 31 30  35 31 30
35 31 30  35 31 30  35 31 30  35 31 30  35 31 30  35 31 30
34 30 29  36 32 31  35 31 30  30 26 25  21 18 19  28 26 26
157 157 157  179 179 179  179 179 179  179 179 179  179 179 179  179 179 179
179 179 179  179 179 179  179 179 179  179 179 179  179 179 179  179 179 179
179 179 179  179 179 179  179 179 179  179 179 179  179 179 179  179 179 179
179 179 179  179 179 179  179 179 179  174 174 174  24 19 20  26 22 21
35 31 30  35 31 30  35 31 30  34 30 29  35 31 30  35 31 30
35 31 30  35 31 30  35 31 30  35 31 30  35 31 30  36 32 31
34 30 29  33 29 28  21 18 17  35 31 31  166 166 166  179 179 179
179 179 179  179 179 179  179 179 179  179 179 179  179 179 179  179 179 179
179 179 179  179 179 179  179 179 179  179 179 179  179 179 179  179 179 179
179 179 179  179 179 179  179 179 179  179 179 179  179 179 179  179 179 179
179 179 179  179 179 179  179 179 179  179 179 179  179 179 179  179 179 179
179 179 179  179 179 179  179 179 179  179 179 179  179 179 179  179 179 179
179 179 179  179 179 179  179 179 179  179 179 179  179 179 179  179 179 179
179 179 179  179 179 179  179 179 179  179 179 179  179 179 179  179 179 179
179 179 179  179 179 179  179 179 179  179 179 179  179 179 179  179 179 179
179 179 179  179 179 179  179 179 179  179 179 179  179 179 179  179 179 179
179 179 179  179 179 179  95 95 95  23 21 22  17 17 15  30 28 26
35 31 30  35 31 30  34 30 29  35 31 30  36 32 31  35 31 30
36 32 31  34 30 29  35 31 30  35 31 30  35 31 30  36 32 31
34 30 29  23 19 20  16 14 14  60 59 59  165 165 164  179 179 179
179 179 179  179 179 179  179 179 179  179 179 179  179 179 179  179 179 179
179 179 179  179 179 179  179 179 179  179 179 179  179 179 179  179 179 179
179 179 179  179 179 179  179 179 179  179 179 179  0 0 0  0 0 0
0 0 0  0 0 0  0 0 0  0 0 0  0 0 0  0 0 0
0 0 0  0 0 0  0 0 0  0 0 0  0 0 0  0 0 0
0 0 0  0 0 0  0 0 0  0 0 0  0 0 0  0 0 0
0 0 0  0 0 0  0 0 0  0 0 0  0 0 0  0 0 0
0 0 0  0 0 0  0 0 0  0 0 0  0 0 0  0 0 0
0 0 0  0 0 0  0 0 0  0 0 0  0 0 0  0 0 0
0 0 0  0 0 0  0 0 0  0 0 0  0 0 0  0 0 0
0 0 0  0 0 0  0 0 0  0 0 0  0 0 0  0 0 0
0 0 0  0 0 0  0 0 0  0 0 0  0 0 0  0 0 0
0 0 0  0 0 0  0 0 0  0 0 0  0 0 0  0 0 0
0 0 0  0 0 0  0 0 0  0 0 0  0 0 0  179 179 179
179 179 179  179 179 179  179 179 179  179 179 179  179 179 179  179 179 179
179 179 179  179 179 179  179 179 179  179 179 179  179 179 179  179 179 179
179 179 179  179 179 179  179 179 179  170 169 169  48 46 45  21 20 19
26 23 22  34 31 30  35 31 30  35 31 30  35 31 30  35 31 30
35 31 30  35 31 30  35 31 30  35 31 30  35 31 30  35 31 30
35 31 30  36 32 31  33 29 28  24 20 19  29 26 28  114 114 114
179 179 179  179 179 179  179 179 179  179 179 179  179 179 179  179 179 179
179 179 179  179 179 179  179 179 179  179 179 179  179 179 179  179 179 179
179 179 179  179 179 179  179 179 179  179 179 179  179 179 179  179 179 179
179 179 179  179 179 179  179 179 179  154 154 154  22 19 19  26 22 21
35 32 31  36 32 31  34 30 29  35 31 30  35 31 30  35 31 30
35 31 30  35 31 30  35 31 30  35 31 30  35 31 30  36 32 31
35 31 30  33 29 28  22 19 18  42 38 37  179 179 179  179 179 179
179 179 179  179 179 179  179 179 179  179 179 179  179 179 179  179 179 179
179 179 179  179 179 179  179 179 179  179 179 179  179 179 179  179 179 179
179 179 179  179 179 179  179 179 179  179 179 179  179 179 179  179 179 179
179 179 179  179 179 179  179 179 179  179 179 179  179 179 179  179 179 179
179 179 179  179 179 179  179 179 179  179 179 179  179 179 179  179 179 179
179 179 179  179 179 179  179 179 179  179 179 179  179 179 179  179 179 179
179 179 179  179 179 179  179 179 179  179 179 179  179 179 179  179 179 179
179 179 179  179 179 179  179 179 179  179 179 179  179 179 179  179 179 179
179 179 179  179 179 179  179 179 179  179 179 179  179 179 179  179 179 179
179 179 179  179 179 179  179 179 179  102 101 102  28 25 24  21 18 19
31 27 26  35 31 30  36 32 31  35 31 30  35 31 30  35 31 30
34 31 30  35 31 30  35 31 30  35 31 30  35 31 30  35 31 30
35 31 30  33 29 29  23 21 20  17 15 16  52 50 50  174 174 174
179 179 179  179 179 179  179 179 179  179 179 179  179 179 179  179 179 179
179 179 179  179 179 179  179 179 179  179 179 179  179 179 179  179 179 179
179 179 179  179 179 179  179 179 179  179 179 179  0 0 0  0 0 0
0 0 0  0 0 0  0 0 0  0 0 0  0 0 0  0 0 0
0 0 0  0 0 0  0 0 0  0 0 0  0 0 0  0 0 0
0 0 0  0 0 0  0 0 0  0 0 0  0 0 0  0 0 0
0 0 0  0 0 0  0 0 0  0 0 0  0 0 0  0 0 0
0 0 0  0 0 0  0 0 0  0 0 0  0 0 0  0 0 0
0 0 0  0 0 0  0 0 0  0 0 0  0 0 0  0 0 0
0 0 0  0 0 0  0 0 0  0 0 0  0 0 0  0 0 0
0 0 0  0 0 0  0 0 0  0 0 0  0 0 0  0 0 0
0 0 0  0 0 0  0 0 0  0 0 0  0 0 0  0 0 0
0 0 0  0 0 0  0 0 0  0 0 0  0 0 0  0 0 0
0 0 0  0 0 0  0 0 0  0 0 0  0 0 0  178 178 178
179 179 179  179 179 179  179 179 179  179 179 179  179 179 179  179 179 179
179 179 179  179 179 179  179 179 179  179 179 179  179 179 179  179 179 179
179 179 179  179 179 179  179 179 179  166 166 166  29 26 28  17 15 13
30 28 26  35 31 30  34 30 29  37 33 32  36 32 31  34 30 29
35 31 30  35 31 30  35 31 30  35 31 30  35 31 30  35 31 30
36 32 31  35 31 30  29 25 24  22 19 19  60 59 59  175 175 175
179 179 179  179 179 179  179 179 179  179 179 179  179 179 179  179 179 179
179 179 179  179 179 179  179 179 179  179 179 179  179 179 179  179 179 179
179 179 179  179 179 179  179 179 179  179 179 179  179 179 179  179 179 179
179 179 179  179 179 179  179 179 179  148 148 148  22 19 18  27 23 22
37 33 32  35 31 30  33 29 28  36 32 31  35 31 30  35 31 30
35 31 30  35 31 30  35 31 30  35 31 30  36 32 31  34 30 29
35 31 30  35 31 30  21 20 19  43 42 42  179 179 179  179 179 179
179 179 179  179 179 179  179 179 179  179 179 179  179 179 179  179 179 179
179 179 179  179 179 179  179 179 179  179 179 179  179 179 179  179 179 179
179 179 179  179 179 179  179 179 179  179 179 179  179 179 179  179 179 179
179 179 179  179 179 179  179 179 179  179 179 179  179 179 179  179 179 179
179 179 179  179 179 179  179 179 179  179 179 179  179 179 179  179 179 179
179 179 179  179 179 179  179 179 179  179 179 179  179 179 179  179 179 179
179 179 179  179 179 179  179 179 179  179 179 179  179 179 179  179 179 179
179 179 179  179 179 179  179 179 179  179 179 179  179 179 179  179 179 179
179 179 179  179 179 179  179 179 179  179 179 179  179 179 179  179 179 179
179 179 179  179 179 179  179 179 179  179 179 179  71 69 70  20 17 18
28 24 23  34 30 29  35 31 30  35 31 30  35 31 30  35 31 30
34 30 29  34 30 29  35 31 30  36 32 31  34 30 29  36 32 31
35 31 31  36 31 30  33 29 28  14 12 12  28 26 26  162 161 161
179 179 179  179 179 179  179 179 179  179 179 179  179 179 179  179 179 179
179 179 179  179 179 179  179 179 179  179 179 179  179 179 179  179 179 179
179 179 179  179 179 179  179 179 179  178 178 178  0 0 0  0 0 0
0 0 0  0 0 0  0 0 0  0 0 0  0 0 0  0 0 0
0 0 0  0 0 0  0 0 0  0 0 0  0 0 0  0 0 0
0 0 0  0 0 0  0 0 0  0 0 0  0 0 0  0 0 0
0 0 0  0 0 0  0 0 0  0 0 0  0 0 0  0 0 0
0 0 0  0 0 0  0 0 0  0 0 0  0 0 0  0 0 0
0 0 0  0 0 0  0 0 0  0 0 0  0 0 0  0 0 0
0 0 0  0 0 0  0 0 0  0 0 0  0 0 0  0 0 0
0 0 0  0 0 0  0 0 0  0 0 0  0 0 0  0 0 0
0 0 0  0 0 0  0 0 0  0 0 0  0 0 0  0 0 0
0 0 0  0 0 0  0 0 0  0 0 0  0 0 0  0 0 0
0 0 0  0 0 0  0 0 0  0 0 0  0 0 0  177 177 177
178 178 178  179 179 179  179 179 179  179 179 179  179 179 179  179 179 179
179 179 179  179 179 179  179 179 179  179 179 179  179 179 179  179 179 179
179 179 179  179 179 179  179 179 179  177 177 177  88 87 87  21 19 20
21 18 17  35 31 30  34 30 29  34 30 29  35 31 30  35 31 30
35 31 30  35 31 30  35 31 30  35 31 30  35 31 30  35 31 30
34 30 29  37 33 32  33 29 28  25 22 23  23 21 22  95 95 95
179 179 179  179 179 179  179 179 179  179 179 179  179 179 179  179 179 179
179 179 179  179 179 179  179 179 179  179 179 179  179 179 179  179 179 179
179 179 179  179 179 179  179 179 179  179 179 179  179 179 179  179 179 179
179 179 179  179 179 179  179 179 179  150 149 149  21 18 19  26 22 21
35 31 30  35 31 30  35 31 30  35 31 30  35 31 30  35 31 30
35 31 30  35 31 30  35 31 30  35 31 30  35 31 30  35 31 30
36 32 31  33 29 28  21 20 19  42 39 40  179 179 179  179 179 179
179 179 179  179 179 179  179 179 179  179 179 179  179 179 179  179 179 179
179 179 179  179 179 179  179 179 179  179 179 179  179 179 179  179 179 179
179 179 179  179 179 179  179 179 179  179 179 179  179 179 179  179 179 179
179 179 179  179 179 179  179 179 179  179 179 179  179 179 179  179 179 179
179 179 179  179 179 179  179 179 179  179 179 179  179 179 179  179 179 179
179 179 179  179 179 179  179 179 179  179 179 179  179 179 179  179 179 179
179 179 179  179 179 179  179 179 179  179 179 179  179 179 179  179 179 179
179 179 179  179 179 179  179 179 179  179 179 179  179 179 179  179 179 179
179 179 179  179 179 179  179 179 179  179 179 179  179 179 179  179 179 179
179 179 179  179 179 179  172 172 172  84 83 83  22 19 18  20 17 18
34 30 29  36 32 31  35 31 30  36 32 31  36 32 31  35 31 30
35 31 30  36 32 31  34 30 29  34 30 29  36 32 31  35 31 30
36 31 30  34 30 29  16 13 13  22 19 18  102 101 102  177 177 177
179 179 179  179 179 179  179 179 179  179 179 179  179 179 179  179 179 179
179 179 179  179 179 179  179 179 179  179 179 179  179 179 179  179 179 179
179 179 179  179 179 179  178 178 178  177 177 177  0 0 0  0 0 0
0 0 0  0 0 0  0 0 0  0 0 0  0 0 0  0 0 0
0 0 0  0 0 0  0 0 0  0 0 0  0 0 0  0 0 0
0 0 0  0 0 0  0 0 0  0 0 0  0 0 0  0 0 0
0 0 0  0 0 0  0 0 0  0 0 0  0 0 0  0 0 0
0 0 0  0 0 0  0 0 0  0 0 0  0 0 0  0 0 0
0 0 0  0 0 0  0 0 0  0 0 0  0 0 0  0 0 0
0 0 0  0 0 0  0 0 0  0 0 0  0 0 0  0 0 0
0 0 0  0 0 0  0 0 0  0 0 0  0 0 0  0 0 0
0 0 0  0 0 0  0 0 0  0 0 0  0 0 0  0 0 0
0 0 0  0 0 0  0 0 0  0 0 0  0 0 0  177 177 177
176 176 176  176 176 176  176 176 176  175 175 175  175 175 175  177 177 177
178 178 178  178 178 178  179 179 179  179 179 179  179 179 179  179 179 179
179 179 179  179 179 179  179 179 179  179 179 179  179 179 179  179 179 179
179 179 179  179 179 179  179 179 179  179 179 179  179 179 179  83 82 83
19 18 18  20 18 19  33 30 29  36 32 32  36 32 31  35 31 30
34 30 29  35 31 30  34 30 29  35 31 30  35 31 30  35 32 31
35 31 30  35 31 30  35 31 30  33 29 28  23 21 19  23 23 21
123 123 123  177 177 177  179 179 179  179 179 179  179 179 179  179 179 179
179 179 179  179 179 179  179 179 179  179 179 179  179 179 179  179 179 179
179 179 179  179 179 179  179 179 179  179 179 179  179 179 179  179 179 179
179 179 179  179 179 179  179 179 179  173 173 173  22 20 19  24 22 20
35 31 30  36 32 31  33 30 29  36 32 31  35 31 30  35 31 30
35 31 30  35 31 30  35 31 30  35 31 30  35 31 30  34 30 29
35 32 31  35 31 30  21 19 17  33 33 33  175 175 175  179 179 179
179 179 179  179 179 179  179 179 179  179 179 179  179 179 179  179 179 179
179 179 179  179 179 179  179 179 179  179 179 179  179 179 179  179 179 179
179 179 179  179 179 179  179 179 179  179 179 179  179 179 179  179 179 179
179 179 179  179 179 179  179 179 179  179 179 179  179 179 179  179 179 179
179 179 179  179 179 179  179 179 179  179 179 179  179 179 179  179 179 179
179 179 179  179 179 179  179 179 179  179 179 179  179 179 179  179 179 179
179 179 179  179 179 179  179 179 179  179 179 179  179 179 179  179 179 179
179 179 179  179 179 179  179 179 179  179 179 179  179 179 179  179 179 179
179 179 179  179 179 179  179 179 179  179 179 179  179 179 179  179 179 179
179 179 179  169 169 169  76 75 75  23 18 17  22 18 17  35 31 30
35 31 30  35 31 30  35 31 30  35 31 30  35 31 30  35 31 30
35 31 30  35 31 30  35 31 30  37 33 32  34 30 29  36 32 31
33 29 28  19 16 17  20 18 19  126 125 126  179 179 179  179 179 179
179 179 179  179 179 179  179 179 179  179 179 179  179 179 179  179 179 179
179 179 179  179 179 179  179 179 179  179 179 179  179 179 179  179 179 179
179 179 179  178 178 178  178 178 178  177 177 177  175 175 175  176 176 176
176 176 176  176 176 176  176 176 176  0 0 0  0 0 0  0 0 0
0 0 0  0 0 0  0 0 0  0 0 0  0 0 0  0 0 0
0 0 0  0 0 0  0 0 0  0 0 0  0 0 0  0 0 0
0 0 0  0 0 0  0 0 0  0 0 0  0 0 0  0 0 0
0 0 0  0 0 0  0 0 0  0 0 0  0 0 0  0 0 0
0 0 0  0 0 0  0 0 0  0 0 0  0 0 0  0 0 0
0 0 0  0 0 0  0 0 0  0 0 0  0 0 0  0 0 0
0 0 0  0 0 0  0 0 0  0 0 0  0 0 0  0 0 0
0 0 0  0 0 0  0 0 0  0 0 0  0 0 0  0 0 0
0 0 0  178 178 178  178 178 178  178 178 178  177 177 177  177 177 177
177 177 177  177 177 177  177 177 177  177 177 177  176 176 176  177 177 177
177 177 177  178 178 178  178 178 178  179 179 179  179 179 179  179 179 179
179 179 179  179 179 179  179 179 179  179 179 179  179 179 179  179 179 179
179 179 179  179 179 179  179 179 179  179 179 179  179 179 179  178 178 178
76 75 75  20 16 18  21 20 19  32 28 27  35 31 30  35 31 30
35 31 30  36 32 31  35 31 30  34 30 29  35 31 30  34 30 29
35 31 30  34 30 29  36 32 31  35 31 30  32 29 28  23 22 20
23 22 20  86 84 84  177 176 176  179 179 179  179 179 179  179 179 179
179 179 179  179 179 179  179 179 179  179 179 179  179 179 179  179 179 179
179 179 179  179 179 179  179 179 179  179 179 179  179 179 179  179 179 179
179 179 179  179 179 179  179 179 179  179 179 179  23 23 21  24 22 20
36 32 31  34 30 29  36 32 31  34 30 29  35 31 30  35 31 30
35 31 30  35 31 30  35 31 30  35 31 30  35 31 30  36 32 31
36 32 31  36 32 31  21 19 17  26 23 22  123 123 123  179 179 179
179 179 179  179 179 179  179 179 179  179 179 179  179 179 179  179 179 179
179 179 179  179 179 179  179 179 179  179 179 179  179 179 179  179 179 179
179 179 179  179 179 179  179 179 179  179 179 179  179 179 179  169 169 169
175 175 175  179 179 179  179 179 179  179 179 179  179 179 179  179 179 179
179 179 179  179 179 179  179 179 179  179 179 179  179 179 179  179 179 179
179 179 179  179 179 179  179 179 179  179 179 179  179 179 179  179 179 179
179 179 179  179 179 179  179 179 179  179 179 179  179 179 179  179 179 179
179 179 179  179 179 179  179 179 179  179 179 179  179 179 179  179 179 179
179 179 179  179 179 179  179 179 179  179 179 179  179 179 179  179 179 179
165 165 164  71 69 70  25 20 19  22 18 17  36 32 31  34 30 29
35 31 30  35 31 30  35 31 30  35 31 30  35 31 30  35 31 30
35 31 30  36 32 31  34 30 29  36 32 31  36 32 31  32 28 27
21 17 16  21 19 20  114 114 114  179 179 179  179 179 179  179 179 179
179 179 179  179 179 179  179 179 179  179 179 179  179 179 179  179 179 179
179 179 179  179 179 179  179 179 179  179 179 179  179 179 179  179 179 179
178 178 178  178 178 178  177 177 177  177 177 177  177 177 177  177 177 177
177 177 177  177 177 177  177 177 177  177 177 177  178 178 178  178 178 178
178 178 178  0 0 0  0 0 0  0 0 0  0 0 0  0 0 0
0 0 0  0 0 0  0 0 0  0 0 0  0 0 0  0 0 0
0 0 0  0 0 0  0 0 0  0 0 0  0 0 0  0 0 0
0 0 0  0 0 0  0 0 0  0 0 0  0 0 0  0 0 0
0 0 0  0 0 0  0 0 0  0 0 0  0 0 0  0 0 0
0 0 0  0 0 0  0 0 0  0 0 0  0 0 0  0 0 0
0 0 0  0 0 0  0 0 0  0 0 0  0 0 0  0 0 0
0 0 0  0 0 0  0 0 0  0 0 0  0 0 0  179 179 179
178 178 178  179 179 179  178 178 178  178 178 178  178 178 178  178 178 178
178 178 178  178 178 178  178 178 178  177 177 177  177 177 177  177 177 177
178 178 178  178 178 178  178 178 178  179 179 179  179 179 179  179 179 179
179 179 179  179 179 179  179 179 179  179 179 179  179 179 179  179 179 179
179 179 179  179 179 179  179 179 179  179 179 179  179 179 179  177 177 177
177 177 177  76 75 75  20 18 19  23 20 19  32 28 27  34 30 29
35 31 30  35 31 30  35 31 30  36 32 31  34 30 29  35 31 30
35 31 30  36 32 31  35 31 30  35 31 30  35 31 30  33 30 29
24 22 20  23 21 22  74 72 73  178 178 178  179 179 179  179 179 179
179 179 179  179 179 179  179 179 179  179 179 179  179 179 179  179 179 179
179 179 179  179 179 179  179 179 179  179 179 179  179 179 179  179 179 179
179 179 179  179 179 179  179 179 179  179 179 179  28 26 26  23 21 20
35 31 30  35 31 30  37 33 32  34 30 29  35 31 30  35 31 30
35 31 30  35 31 30  35 31 30  35 31 30  35 31 30  36 32 31
34 30 29  35 31 30  29 25 24  19 17 16  65 64 64  178 178 178
179 179 179  179 179 179  179 179 179  179 179 179  179 179 179  179 179 179
179 179 179  179 179 179  179 179 179  179 179 179  179 179 179  179 179 179
179 179 179  179 179 179  179 179 179  179 179 179  148 148 148  43 42 42
48 46 45  102 101 102  170 169 169  179 179 179  179 179 179  179 179 179
179 179 179  179 179 179  179 179 179  179 179 179  179 179 179  179 179 179
179 179 179  179 179 179  179 179 179  179 179 179  179 179 179  179 179 179
179 179 179  179 179 179  179 179 179  179 179 179  179 179 179  179 179 179
179 179 179  179 179 179  179 179 179  179 179 179  179 179 179  179 179 179
179 179 179  179 179 179  179 179 179  179 179 179  179 179 179  179 179 179
71 69 70  24 19 20  24 19 20  32 28 27  36 32 31  34 31 30
35 31 30  35 31 30  35 31 30  35 31 30  35 31 30  35 31 30
34 31 30  34 30 29  37 33 32  35 31 30  32 28 27  20 18 17
22 20 19  86 84 84  178 178 178  179 179 179  179 179 179  179 179 179
179 179 179  179 179 179  179 179 179  179 179 179  179 179 179  179 179 179
179 179 179  179 179 179  179 179 179  179 179 179  179 179 179  179 179 179
178 178 178  178 178 178  178 178 178  178 178 178  177 177 177  178 178 178
178 178 178  178 178 178  178 178 178  178 178 178  178 178 178  178 178 178
178 178 178  179 179 179  179 179 179  0 0 0  0 0 0  0 0 0
0 0 0  0 0 0  0 0 0  0 0 0  0 0 0  0 0 0
0 0 0  0 0 0  0 0 0  0 0 0  0 0 0  0 0 0
0 0 0  0 0 0  0 0 0  0 0 0  0 0 0  0 0 0
0 0 0  0 0 0  0 0 0  0 0 0  0 0 0  0 0 0
0 0 0  0 0 0  0 0 0  0 0 0  0 0 0  0 0 0
0 0 0  0 0 0  0 0 0  0 0 0  0 0 0  0 0 0
0 0 0  0 0 0  0 0 0  179 179 179  179 179 179  179 179 179
179 179 179  179 179 179  179 179 179  178 178 178  178 178 178  178 178 178
178 178 178  178 178 178  178 178 178  178 178 178  178 178 178  178 178 178
178 178 178  178 178 178  178 178 178  179 179 179  179 179 179  179 179 179
179 179 179  179 179 179  179 179 179  179 179 179  179 179 179  179 179 179
179 179 179  179 179 179  179 179 179  179 179 179  179 179 179  179 179 179
179 179 179  179 179 179  88 87 87  22 19 19  20 18 19  32 29 28
35 31 30  34 30 29  35 31 30  34 30 29  34 31 30  35 31 30
35 31 30  35 31 30  35 31 30  35 31 30  34 30 29  37 33 32
33 29 28  23 19 21  25 22 23  76 75 75  178 178 178  179 179 179
179 179 179  179 179 179  179 179 179  179 179 179  179 179 179  179 179 179
179 179 179  179 179 179  179 179 179  179 179 179  179 179 179  179 179 179
179 179 179  179 179 179  179 179 179  179 179 179  38 37 36  22 19 18
32 28 27  35 31 30  35 31 30  36 32 31  35 31 30  35 31 30
35 31 30  35 31 30  35 31 30  35 31 30  35 31 30  34 30 29
35 31 30  36 32 31  33 29 28  21 18 19  29 26 28  138 138 138
179 179 179  179 179 179  179 179 179  179 179 179  179 179 179  179 179 179
179 179 179  179 179 179  179 179 179  179 179 179  179 179 179  179 179 179
179 179 179  179 179 179  179 179 179  179 179 179  43 42 42  16 14 14
19 15 16  22 20 19  36 35 34  92 90 91  175 175 175  179 179 179
179 179 179  179 179 179  179 179 179  179 179 179  179 179 179  179 179 179
179 179 179  179 179 179  179 179 179  179 179 179  179 179 179  179 179 179
179 179 179  179 179 179  179 179 179  179 179 179  179 179 179  179 179 179
179 179 179  179 179 179  179 179 179  179 179 179  179 179 179  179 179 179
179 179 179  179 179 179  179 179 179  179 179 179  179 179 179  84 83 83
22 19 18  22 19 18  33 29 28  35 31 30  37 33 32  33 29 28
35 31 30  35 31 30  35 31 30  35 31 30  35 31 30  35 31 30
35 31 30  35 31 30  35 31 30  31 29 26  19 16 17  21 20 21
83 82 83  172 172 172  179 179 179  179 179 179  179 179 179  179 179 179
179 179 179  179 179 179  179 179 179  179 179 179  179 179 179  179 179 179
179 179 179  179 179 179  179 179 179  179 179 179  179 179 179  179 179 179
178 178 178  178 178 178  178 178 178  178 178 178  178 178 178  178 178 178
178 178 178  178 178 178  178 178 178  178 178 178  179 179 179  179 179 179
179 179 179  179 179 179  179 179 179  179 179 179  179 179 179  0 0 0
0 0 0  0 0 0  0 0 0  0 0 0  0 0 0  0 0 0
0 0 0  0 0 0  0 0 0  0 0 0  0 0 0  0 0 0
0 0 0  0 0 0  0 0 0  0 0 0  0 0 0  0 0 0
0 0 0  0 0 0  0 0 0  0 0 0  0 0 0  0 0 0
0 0 0  0 0 0  0 0 0  0 0 0  0 0 0  0 0 0
0 0 0  0 0 0  0 0 0  0 0 0  0 0 0  0 0 0
0 0 0  179 179 179  179 179 179  179 179 179  179 179 179  179 179 179
179 179 179  179 179 179  179 179 179  178 178 178  178 178 178  178 178 178
178 178 178  178 178 178  178 178 178  178 178 178  178 178 178  178 178 178
178 178 178  178 178 178  178 178 178  179 179 179  179 179 179  179 179 179
179 179 179  179 179 179  179 179 179  179 179 179  179 179 179  179 179 179
179 179 179  179 179 179  179 179 179  179 179 179  179 179 179  179 179 179
179 179 179  179 179 179  168 168 168  88 87 87  21 18 19  21 18 17
33 29 28  36 32 31  36 32 31  34 30 29  35 31 30  35 31 30
33 30 29  36 32 31  37 33 32  34 30 29  36 32 31  33 29 28
37 33 32  32 29 28  26 23 23  25 22 23  88 87 87  178 178 178
179 179 179  179 179 179  179 179 179  179 179 179  179 179 179  179 179 179
179 179 179  179 179 179  179 179 179  179 179 179  179 179 179  179 179 179
179 179 179  179 179 179  179 179 179  179 179 179  52 50 50  20 17 16
30 26 25  34 30 29  35 31 30  35 31 30  35 31 30  35 31 30
35 31 30  35 31 30  35 31 30  35 31 30  35 31 30  35 31 30
36 32 31  36 32 31  34 30 29  28 25 24  19 16 17  63 60 61
176 176 176  179 179 179  179 179 179  179 179 179  179 179 179  179 179 179
179 179 179  179 179 179  179 179 179  179 179 179  179 179 179  179 179 179
179 179 179  179 179 179  179 179 179  71 69 70  17 15 13  26 22 21
31 27 26  23 19 18  20 16 15  19 17 16  28 26 26  71 69 70
156 155 155  179 179 179  179 179 179  179 179 179  179 179 179  179 179 179
179 179 179  179 179 179  179 179 179  179 179 179  179 179 179  179 179 179
179 179 179  179 179 179  179 179 179  179 179 179  179 179 179  179 179 179
179 179 179  179 179 179  179 179 179  179 179 179  179 179 179  179 179 179
179 179 179  179 179 179  179 179 179  179 179 179  84 83 83  21 18 17
23 22 20  33 30 29  35 31 30  34 30 29  35 31 30  35 31 30
35 31 30  35 31 30  35 31 30  35 31 30  35 31 30  35 31 30
35 31 30  35 31 30  34 30 29  19 17 16  21 20 21  92 90 91
174 174 174  179 179 179  179 179 179  179 179 179  179 179 179  179 179 179
179 179 179  179 179 179  179 179 179  179 179 179  179 179 179  179 179 179
179 179 179  179 179 179  179 179 179  179 179 179  179 179 179  179 179 179
178 178 178  178 178 178  178 178 178  178 178 178  178 178 178  178 178 178
178 178 178  178 178 178  178 178 178  178 178 178  179 179 179  179 179 179
179 179 179  179 179 179  179 179 179  179 179 179  179 179 179  179 179 179
179 179 179  0 0 0  0 0 0  0 0 0  0 0 0  0 0 0
0 0 0  0 0 0  0 0 0  0 0 0  0 0 0  0 0 0
0 0 0  0 0 0  0 0 0  0 0 0  0 0 0  0 0 0
0 0 0  0 0 0  0 0 0  0 0 0  0 0 0  0 0 0
0 0 0  0 0 0  0 0 0  0 0 0  0 0 0  0 0 0
0 0 0  0 0 0  0 0 0  0 0 0  0 0 0  0 0 0
179 179 179  179 179 179  179 179 179  179 179 179  179 179 179  179 179 179
179 179 179  179 179 179  179 179 179  178 178 178  178 178 178  178 178 178
178 178 178  178 178 178  178 178 178  178 178 178  178 178 178  178 178 178
178 178 178  178 178 178  178 178 178  179 179 179  179 179 179  179 179 179
179 179 179  179 179 179  179 179 179  179 179 179  179 179 179  179 179 179
179 179 179  179 179 179  179 179 179  179 179 179  179 179 179  179 179 179
179 179 179  179 179 179  179 179 179  179 179 179  88 87 87  23 19 18
24 20 19  34 30 29  34 30 29  35 31 30  36 32 31  34 30 29
36 32 31  36 32 31  33 29 28  36 32 32  35 31 30  35 31 30
34 30 29  35 31 30  34 30 29  24 21 22  25 22 23  126 125 126
179 179 179  179 179 179  179 179 179  179 179 179  179 179 179  179 179 179
179 179 179  179 179 179  179 179 179  179 179 179  179 179 179  179 179 179
179 179 179  179 179 179  179 179 179  179 179 179  81 80 80  22 17 16
29 25 24  35 31 30  37 33 32  33 29 28  35 31 30  35 31 30
35 31 30  35 31 30  35 31 30  35 31 30  36 32 31  36 32 31
34 30 29  35 31 30  35 31 30  36 32 31  25 22 23  19 18 18
102 101 102  176 176 176  179 179 179  179 179 179  179 179 179  179 179 179
179 179 179  179 179 179  179 179 179  179 179 179  179 179 179  179 179 179
179 179 179  174 174 174  95 95 95  22 19 18  20 16 15  35 31 30
36 31 30  36 32 32  35 31 30  27 23 22  19 15 14  17 15 16
25 22 23  56 55 55  133 133 133  166 166 166  179 179 179  179 179 179
179 179 179  179 179 179  179 179 179  179 179 179  179 179 179  179 179 179
179 179 179  179 179 179  179 179 179  179 179 179  179 179 179  179 179 179
179 179 179  179 179 179  179 179 179  179 179 179  179 179 179  179 179 179
179 179 179  179 179 179  173 173 173  83 82 83  20 18 17  17 15 13
36 32 31  35 31 30  34 30 29  37 33 32  33 29 28  36 32 31
35 31 30  35 31 30  35 31 30  35 31 30  35 31 30  35 31 30
36 32 31  33 29 28  19 17 16  21 18 19  123 123 123  176 176 176
176 176 176  179 179 179  179 179 179  179 179 179  179 179 179  179 179 179
179 179 179  179 179 179  179 179 179  179 179 179  179 179 179  179 179 179
179 179 179  179 179 179  179 179 179  179 179 179  179 179 179  179 179 179
178 178 178  178 178 178  178 178 178  178 178 178  178 178 178  178 178 178
178 178 178  178 178 178  178 178 178  178 178 178  179 179 179  179 179 179
179 179 179  179 179 179  179 179 179  179 179 179  179 179 179  179 179 179
179 179 179  179 179 179  0 0 0  0 0 0  0 0 0  0 0 0
0 0 0  0 0 0  0 0 0  0 0 0  0 0 0  0 0 0
0 0 0  0 0 0  0 0 0  0 0 0  0 0 0  0 0 0
0 0 0  0 0 0  0 0 0  0 0 0  0 0 0  0 0 0
0 0 0  0 0 0  0 0 0  0 0 0  0 0 0  0 0 0
0 0 0  0 0 0  0 0 0  0 0 0  0 0 0  179 179 179
179 179 179  179 179 179  179 179 179  179 179 179  179 179 179  179 179 179
179 179 179  179 179 179  179 179 179  179 179 179  178 178 178  178 178 178
178 178 178  178 178 178  178 178 178  178 178 178  178 178 178  178 178 178
178 178 178  178 178 178  178 178 178  179 179 179  179 179 179  179 179 179
179 179 179  179 179 179  179 179 179  179 179 179  179 179 179  179 179 179
179 179 179  179 179 179  179 179 179  179 179 179  179 179 179  179 179 179
179 179 179  179 179 179  179 179 179  179 179 179  179 179 179  79 76 76
23 18 19  22 18 17  33 30 29  35 31 30  35 31 30  35 31 30
35 31 30  33 29 28  36 32 31  35 31 30  35 31 30  36 32 32
35 31 31  36 32 31  35 31 30  32 29 28  23 19 21  23 21 22
92 90 91  178 178 178  179 179 179  179 179 179  179 179 179  179 179 179
179 179 179  179 179 179  179 179 179  179 179 179  179 179 179  179 179 179
179 179 179  179 179 179  179 179 179  179 179 179  112 111 111  25 22 20
25 23 21  33 29 28  35 31 30  34 31 30  35 31 30  35 31 30
35 31 30  35 31 30  35 31 30  35 31 30  35 31 30  34 31 30
35 31 30  36 32 31  35 31 30  35 31 31  33 30 30  21 20 21
19 18 18  65 64 64  142 141 141  179 179 179  179 179 179  179 179 179
179 179 179  179 179 179  179 179 179  179 179 179  179 179 179  178 178 178
145 145 145  63 60 61  24 20 19  24 21 22  36 32 31  35 31 30
36 31 30  35 30 29  33 29 28  37 33 32  34 31 30  28 23 24
20 17 18  19 18 18  23 21 22  36 35 34  76 75 75  123 123 123
169 169 169  179 179 179  179 179 179  179 179 179  179 179 179  179 179 179
179 179 179  179 179 179  179 179 179  179 179 179  179 179 179  179 179 179
179 179 179  179 179 179  179 179 179  179 179 179  179 179 179  179 179 179
179 179 179  163 162 163  68 67 67  22 19 18  21 19 20  34 31 30
34 30 29  36 32 31  35 31 30  35 31 30  36 32 31  34 30 29
34 31 30  35 31 30  35 31 30  35 31 30  35 31 30  35 31 30
32 28 27  21 18 17  23 19 21  129 128 129  179 179 179  179 179 179
179 179 179  179 179 179  179 179 179  179 179 179  179 179 179  179 179 179
179 179 179  179 179 179  179 179 179  179 179 179  179 179 179  179 179 179
179 179 179  179 179 179  179 179 179  179 179 179  179 179 179  179 179 179
178 178 178  178 178 178  178 178 178  178 178 178  178 178 178  178 178 178
178 178 178  178 178 178  178 178 178  178 178 178  179 179 179  179 179 179
179 179 179  179 179 179  179 179 179  179 179 179  179 179 179  179 179 179
179 179 179  179 179 179  179 179 179  0 0 0  0 0 0  0 0 0
0 0 0  0 0 0  0 0 0  0 0 0  0 0 0  0 0 0
0 0 0  0 0 0  0 0 0  0 0 0  0 0 0  0 0 0
0 0 0  0 0 0  0 0 0  0 0 0  0 0 0  0 0 0
0 0 0  0 0 0  0 0 0  0 0 0  0 0 0  0 0 0
0 0 0  0 0 0  0 0 0  179 179 179  179 179 179  179 179 179
179 179 179  179 179 179  179 179 179  179 179 179  179 179 179  179 179 179
179 179 179  179 179 179  179 179 179  179 179 179  179 179 179  179 179 179
179 179 179  178 178 178  178 178 178  178 178 178  178 178 178  178 178 178
178 178 178  178 178 178  178 178 178  179 179 179  179 179 179  179 179 179
179 179 179  179 179 179  179 179 179  179 179 179  179 179 179  179 179 179
179 179 179  179 179 179  179 179 179  179 179 179  179 179 179  179 179 179
179 179 179  179 179 179  179 179 179  179 179 179  179 179 179  177 177 177
76 75 75  21 18 19  20 18 19  32 28 27  35 31 30  35 31 30
35 31 30  34 30 29  36 32 31  35 31 30  35 31 30  35 31 30
35 31 30  35 31 30  35 31 30  36 32 31  32 28 27  23 21 22
23 21 22  76 75 75  176 176 176  179 179 179  179 179 179  179 179 179
179 179 179  179 179 179  179 179 179  179 179 179  179 179 179  179 179 179
179 179 179  179 179 179  179 179 179  179 179 179  150 149 149  36 33 33
21 19 17  33 30 29  34 30 29  35 31 29  35 31 30  35 31 30
35 31 30  35 31 30  35 31 30  35 31 30  35 31 30  35 31 30
35 31 30  35 31 30  35 31 30  35 31 30  35 31 30  32 29 29
26 21 22  20 17 16  33 31 31  71 69 70  133 133 133  176 176 176
179 179 179  179 179 179  179 179 179  175 175 175  142 141 141  76 75 75
36 33 33  23 19 18  25 21 20  34 30 29  34 30 29  36 32 31
34 31 30  35 31 30  35 31 30  35 31 30  35 31 30  36 32 31
33 29 28  30 26 25  25 23 21  22 21 19  20 18 17  28 25 26
48 46 45  95 95 95  165 165 164  179 179 179  179 179 179  179 179 179
179 179 179  179 179 179  179 179 179  179 179 179  179 179 179  179 179 179
179 179 179  179 179 179  179 179 179  179 179 179  179 179 179  179 179 179
174 174 174  68 67 67  24 20 19  23 19 18  34 29 29  35 31 30
35 31 30  35 31 30  35 31 30  35 31 30  35 31 30  35 31 30
34 31 30  35 31 30  35 31 30  35 31 30  35 31 30  30 28 26
20 19 18  21 20 21  95 95 95  179 179 179  179 179 179  179 179 179
179 179 179  179 179 179  179 179 179  179 179 179  179 179 179  179 179 179
179 179 179  179 179 179  179 179 179  179 179 179  179 179 179  179 179 179
179 179 179  179 179 179  179 179 179  179 179 179  179 179 179  179 179 179
178 178 178  178 178 178  178 178 178  178 178 178  178 178 178  178 178 178
178 178 178  179 179 179  179 179 179  179 179 179  179 179 179  179 179 179
179 179 179  179 179 179  179 179 179  179 179 179  179 179 179  179 179 179
179 179 179  179 179 179  179 179 179  179 179 179  0 0 0  0 0 0
0 0 0  0 0 0  0 0 0  0 0 0  0 0 0  0 0 0
0 0 0  0 0 0  0 0 0  0 0 0  0 0 0  0 0 0
0 0 0  0 0 0  0 0 0  0 0 0  0 0 0  0 0 0
0 0 0  0 0 0  0 0 0  0 0 0  0 0 0  0 0 0
0 0 0  0 0 0  179 179 179  179 179 179  179 179 179  179 179 179
179 179 179  179 179 179  179 179 179  179 179 179  179 179 179  179 179 179
179 179 179  179 179 179  179 179 179  179 179 179  179 179 179  179 179 179
179 179 179  179 179 179  179 179 179  179 179 179  179 179 179  179 179 179
179 179 179  179 179 179  179 179 179  179 179 179  179 179 179  179 179 179
179 179 179  179 179 179  179 179 179  179 179 179  179 179 179  179 179 179
179 179 179  179 179 179  179 179 179  179 179 179  179 179 179  179 179 179
179 179 179  179 179 179  179 179 179  179 179 179  179 179 179  177 177 177
178 178 178  84 83 83  23 21 22  22 21 19  33 29 28  35 31 30
35 31 30  34 30 29  34 30 29  36 32 31  34 31 30  36 32 31
35 31 30  35 31 30  35 31 30  35 31 30  35 31 30  33 29 29
24 21 22  23 21 22  74 72 73  176 176 176  179 179 179  179 179 179
179 179 179  179 179 179  179 179 179  179 179 179  179 179 179  179 179 179
179 179 179  179 179 179  179 179 179  179 179 179  177 177 177  60 59 59
19 17 16  27 25 24  35 31 30  35 31 30  35 31 30  35 31 30
35 31 30  35 31 30  35 31 30  35 31 30  35 31 30  35 31 30
35 31 30  35 31 30  35 31 30  35 31 30  35 31 30  35 31 31
34 31 30  29 26 25  23 20 19  22 19 18  29 26 25  42 38 37
52 50 50  56 55 55  50 48 47  42 38 37  29 26 25  21 18 17
20 17 16  29 25 24  33 29 28  35 32 31  34 30 29  36 32 31
35 31 30  35 31 30  35 31 30  35 31 30  35 31 30  35 31 30
36 32 31  36 32 31  33 30 29  33 30 29  30 28 26  23 19 21
21 18 20  21 19 20  43 42 42  179 179 179  179 179 179  179 179 179
179 179 179  179 179 179  179 179 179  179 179 179  179 179 179  179 179 179
179 179 179  179 179 179  179 179 179  179 179 179  179 179 179  175 175 175
81 80 80  22 19 18  23 20 19  33 29 28  36 31 30  35 31 30
35 31 30  35 31 30  35 31 30  35 31 30  35 31 30  35 31 30
35 31 30  35 32 31  34 31 30  35 31 30  34 30 29  21 19 17
23 19 21  81 80 80  172 172 172  179 179 179  179 179 179  179 179 179
179 179 179  179 179 179  179 179 179  179 179 179  179 179 179  179 179 179
179 179 179  179 179 179  179 179 179  179 179 179  179 179 179  179 179 179
179 179 179  179 179 179  179 179 179  179 179 179  179 179 179  179 179 179
179 179 179  179 179 179  179 179 179  179 179 179  179 179 179  179 179 179
179 179 179  179 179 179  179 179 179  179 179 179  179 179 179  179 179 179
179 179 179  179 179 179  179 179 179  179 179 179  179 179 179  179 179 179
179 179 179  179 179 179  179 179 179  179 179 179  179 179 179  0 0 0
0 0 0  0 0 0  0 0 0  0 0 0  0 0 0  0 0 0
0 0 0  0 0 0  0 0 0  0 0 0  0 0 0  0 0 0
0 0 0  0 0 0  0 0 0  0 0 0  0 0 0  0 0 0
0 0 0  0 0 0  0 0 0  0 0 0  0 0 0  0 0 0
0 0 0  0 0 0  179 179 179  179 179 179  179 179 179  179 179 179
179 179 179  179 179 179  179 179 179  179 179 179  179 179 179  179 179 179
179 179 179  179 179 179  179 179 179  179 179 179  179 179 179  179 179 179
179 179 179  179 179 179  179 179 179  179 179 179  179 179 179  179 179 179
179 179 179  179 179 179  179 179 179  179 179 179  179 179 179  179 179 179
179 179 179  179 179 179  179 179 179  179 179 179  179 179 179  179 179 179
179 179 179  179 179 179  179 179 179  179 179 179  179 179 179  179 179 179
179 179 179  179 179 179  179 179 179  179 179 179  179 179 179  179 179 179
179 179 179  179 179 179  88 87 87  25 22 23  23 21 19  32 28 27
34 30 29  36 32 31  34 31 30  33 29 28  34 30 29  34 30 29
34 30 29  35 31 30  35 31 30  35 31 30  36 32 31  34 30 29
35 31 30  24 21 22  24 21 22  86 84 84  178 178 178  179 179 179
179 179 179  179 179 179  179 179 179  179 179 179  179 179 179  179 179 179
179 179 179  179 179 179  179 179 179  179 179 179  179 179 179  119 118 118
23 23 21  22 21 19  34 31 30  36 32 31  35 31 30  35 31 30
35 31 30  35 31 30  35 31 30  35 31 30  35 31 30  35 31 30
35 31 30  35 31 30  35 31 30  35 31 30  35 31 30  34 30 29
35 31 30  35 31 30  34 30 29  29 25 24  22 18 17  20 16 15
21 19 17  22 19 18  21 20 19  20 17 16  20 17 16  29 25 24
33 30 29  35 31 30  35 31 30  37 33 32  35 31 30  33 29 28
36 32 31  34 30 29  35 31 30  36 32 31  36 32 31  35 31 30
34 30 29  34 30 29  36 32 31  34 30 29  35 31 30  34 31 30
30 28 30  16 15 15  28 23 24  179 179 179  179 179 179  179 179 179
179 179 179  179 179 179  179 179 179  179 179 179  179 179 179  179 179 179
179 179 179  179 179 179  179 179 179  179 179 179  179 179 179  81 80 80
21 17 16  20 18 16  33 29 28  34 30 29  35 31 30  35 31 30
35 31 30  35 31 30  35 31 30  35 31 30  35 31 30  35 31 30
35 31 30  35 32 31  36 32 31  33 30 29  20 17 16  23 19 21
88 87 87  171 171 171  179 179 179  179 179 179  179 179 179  179 179 179
179 179 179  179 179 179  179 179 179  179 179 179  179 179 179  179 179 179
179 179 179  179 179 179  179 179 179  179 179 179  179 179 179  179 179 179
179 179 179  179 179 179  179 179 179  179 179 179  179 179 179  179 179 179
179 179 179  179 179 179  179 179 179  179 179 179  179 179 179  179 179 179
179 179 179  179 179 179  179 179 179  179 179 179  179 179 179  179 179 179
179 179 179  179 179 179  179 179 179  179 179 179  179 179 179  179 179 179
179 179 179  179 179 179  179 179 179  179 179 179  179 179 179  179 179 179
0 0 0  0 0 0  0 0 0  0 0 0  0 0 0  0 0 0
0 0 0  0 0 0  0 0 0  0 0 0  0 0 0  0 0 0
0 0 0  0 0 0  0 0 0  0 0 0  0 0 0  0 0 0
0 0 0  0 0 0  0 0 0  0 0 0  0 0 0  0 0 0
0 0 0  179 179 179  179 179 179  179 179 179  179 179 179  179 179 179
179 179 179  179 179 179  179 179 179  179 179 179  179 179 179  179 179 179
179 179 179  179 179 179  179 179 179  179 179 179  179 179 179  179 179 179
179 179 179  179 179 179  179 179 179  179 179 179  179 179 179  179 179 179
179 179 179  179 179 179  179 179 179  179 179 179  179 179 179  179 179 179
179 179 179  179 179 179  179 179 179  179 179 179  179 179 179  179 179 179
179 179 179  179 179 179  179 179 179  179 179 179  179 179 179  179 179 179
179 179 179  179 179 179  179 179 179  179 179 179  179 179 179  179 179 179
179 179 179  179 179 179  179 179 179  92 90 91  23 19 21  20 18 19
34 31 30  36 32 31  35 31 30  36 32 32  37 33 32  36 32 31
34 30 29  35 31 30  35 31 30  35 31 30  33 29 28  35 31 30
37 33 32  33 29 28  23 21 19  25 23 21  119 118 118  179 179 179
179 179 179  179 179 179  179 179 179  179 179 179  179 179 179  179 179 179
179 179 179  179 179 179  179 179 179  179 179 179  179 179 179  178 178 178
48 46 45  19 18 18  36 32 31  33 29 28  35 31 30  35 31 30
35 31 30  35 31 30  35 31 30  35 31 30  35 31 30  35 31 30
35 31 30  35 31 30  35 31 30  35 31 30  35 31 30  36 32 32
35 31 30  35 31 30  36 32 31  35 31 30  36 32 31  36 32 31
32 28 27  31 27 26  32 28 27  36 32 31  36 32 31  35 31 30
34 30 29  36 32 31  34 30 29  34 30 29  33 29 28  36 32 31
36 32 31  35 31 30  35 31 30  35 31 30  34 30 29  35 31 30
35 31 30  35 31 30  33 29 28  35 31 30  36 32 31  36 32 32
29 26 25  17 15 16  76 75 75  179 179 179  179 179 179  179 179 179
179 179 179  179 179 179  179 179 179  179 179 179  179 179 179  179 179 179
179 179 179  179 179 179  179 179 179  179 179 179  86 84 84  20 16 15
17 15 13  36 33 33  36 32 31  37 33 32  34 30 29  35 31 30
35 31 30  35 31 30  35 31 30  35 31 30  35 31 30  35 31 30
36 32 31  34 30 29  32 28 27  19 16 17  21 19 20  126 125 126
178 178 178  179 179 179  179 179 179  179 179 179  179 179 179  179 179 179
179 179 179  179 179 179  179 179 179  179 179 179  179 179 179  179 179 179
179 179 179  179 179 179  179 179 179  179 179 179  179 179 179  179 179 179
179 179 179  179 179 179  179 179 179  179 179 179  179 179 179  179 179 179
179 179 179  179 179 179  179 179 179  179 179 179  179 179 179  179 179 179
179 179 179  179 179 179  179 179 179  179 179 179  179 179 179  179 179 179
179 179 179  179 179 179  179 179 179  179 179 179  179 179 179  179 179 179
179 179 179  179 179 179  179 179 179  179 179 179  179 179 179  179 179 179
179 179 179  0 0 0  0 0 0  0 0 0  0 0 0  0 0 0
0 0 0  0 0 0  0 0 0  0 0 0  0 0 0  0 0 0
0 0 0  0 0 0  0 0 0  0 0 0  0 0 0  0 0 0
0 0 0  0 0 0  0 0 0  0 0 0  0 0 0  0 0 0
179 179 179  179 179 179  179 179 179  179 179 179  179 179 179  179 179 179
179 179 179  179 179 179  179 179 179  179 179 179  179 179 179  179 179 179
179 179 179  179 179 179  179 179 179  179 179 179  179 179 179  179 179 179
179 179 179  179 179 179  179 179 179  179 179 179  179 179 179  179 179 179
179 179 179  179 179 179  179 179 179  179 179 179  179 179 179  179 179 179
179 179 179  179 179 179  179 179 179  179 179 179  179 179 179  179 179 179
179 179 179  179 179 179  179 179 179  179 179 179  179 179 179  179 179 179
179 179 179  179 179 179  179 179 179  179 179 179  179 179 179  179 179 179
179 179 179  179 179 179  179 179 179  179 179 179  81 80 80  21 19 20
23 19 18  33 29 28  35 31 30  35 31 30  33 29 28  35 31 30
35 31 30  34 30 29  37 33 32  35 31 30  37 33 32  35 31 30
33 29 28  36 32 31  33 29 28  25 21 20  26 23 22  102 101 102
179 179 179  179 179 179  179 179 179  179 179 179  179 179 179  179 179 179
179 179 179  179 179 179  179 179 179  179 179 179  179 179 179  179 179 179
119 118 118  21 19 20  22 17 18  36 33 33  35 31 30  35 31 30
35 31 30  35 31 30  35 31 30  35 31 30  35 31 30  35 31 30
35 31 30  35 31 30  35 31 30  35 31 30  35 31 30  34 30 29
35 31 30  35 31 30  34 30 29  35 31 30  35 31 30  35 31 30
36 32 31  36 32 31  34 30 29  35 31 30  36 32 31  34 30 29
36 32 31  35 31 30  35 31 30  35 31 30  37 33 32  35 31 30
34 30 29  35 32 31  35 31 30  34 30 29  34 30 29  35 31 30
35 31 30  36 32 31  35 31 30  35 31 30  33 29 28  33 29 28
22 19 18  26 23 23  179 179 179  179 179 179  179 179 179  179 179 179
179 179 179  179 179 179  179 179 179  179 179 179  179 179 179  179 179 179
179 179 179  179 179 179  166 166 166  71 69 70  23 19 18  25 21 20
34 30 29  34 30 29  34 30 29  33 29 28  36 32 31  35 31 30
35 31 30  35 31 30  35 31 30  35 31 30  35 31 30  35 31 30
34 30 29  33 29 28  22 20 19  23 21 22  126 125 126  179 179 179
179 179 179  179 179 179  179 179 179  179 179 179  179 179 179  179 179 179
179 179 179  179 179 179  179 179 179  179 179 179  179 179 179  179 179 179
179 179 179  179 179 179  179 179 179  179 179 179  179 179 179  179 179 179
179 179 179  179 179 179  179 179 179  179 179 179  179 179 179  179 179 179
179 179 179  179 179 179  179 179 179  179 179 179  179 179 179  179 179 179
179 179 179  179 179 179  179 179 179  179 179 179  179 179 179  179 179 179
179 179 179  179 179 179  179 179 179  179 179 179  179 179 179  179 179 179
179 179 179  179 179 179  179 179 179  179 179 179  179 179 179  179 179 179
179 179 179  179 179 179  0 0 0  0 0 0  0 0 0  0 0 0
0 0 0  0 0 0  0 0 0  0 0 0  0 0 0  0 0 0
0 0 0  0 0 0  0 0 0  0 0 0  0 0 0  0 0 0
0 0 0  0 0 0  0 0 0  0 0 0  0 0 0  179 179 179
179 179 179  179 179 179  179 179 179  179 179 179  179 179 179  179 179 179
179 179 179  179 179 179  179 179 179  179 179 179  179 179 179  179 179 179
179 179 179  179 179 179  179 179 179  179 179 179  179 179 179  179 179 179
179 179 179  179 179 179  179 179 179  179 179 179  179 179 179  179 179 179
179 179 179  179 179 179  179 179 179  179 179 179  179 179 179  179 179 179
179 179 179  179 179 179  179 179 179  179 179 179  179 179 179  179 179 179
179 179 179  179 179 179  179 179 179  179 179 179  179 179 179  179 179 179
179 179 179  179 179 179  179 179 179  179 179 179  179 179 179  179 179 179
179 179 179  179 179 179  179 179 179  179 179 179  179 179 179  79 76 76
25 21 20  23 19 18  32 29 28  36 32 31  35 31 30  36 32 31
34 30 29  36 32 31  34 30 29  34 30 29  35 31 30  35 31 30
36 32 31  35 31 30  36 32 31  33 29 28  23 21 20  23 21 22
79 76 76  176 176 176  179 179 179  179 179 179  179 179 179  179 179 179
179 179 179  179 179 179  179 179 179  179 179 179  179 179 179  179 179 179
177 177 177  55 52 53  17 14 13  29 26 25  35 31 30  35 31 30
35 31 30  35 31 30  35 31 30  35 31 30  35 31 30  35 31 30
35 31 30  35 31 30  35 31 30  35 31 30  35 31 30  35 31 30
36 32 31  34 30 29  34 30 29  36 32 31  35 31 30  34 30 29
34 30 29  35 31 30  35 31 30  35 31 30  36 32 31  33 29 28
35 31 30  35 31 30  36 32 31  34 30 29  35 31 30  35 31 30
35 31 30  35 31 30  35 31 30  35 31 30  35 31 30  35 31 30
35 31 30  34 30 29  34 30 29  35 31 30  35 31 30  27 23 22
20 16 15  65 64 64  179 179 179  179 179 179  179 179 179  179 179 179
179 179 179  179 179 179  179 179 179  179 179 179  179 179 179  179 179 179
179 179 179  168 168 168  68 67 67  21 19 20  22 19 18  34 30 29
36 32 31  34 30 29  36 32 31  35 31 30  36 32 31  35 31 30
35 31 30  35 31 30  35 31 30  35 31 30  35 31 30  35 31 30
32 28 27  21 18 17  24 21 22  99 97 97  179 179 179  179 179 179
179 179 179  179 179 179  179 179 179  179 179 179  179 179 179  179 179 179
179 179 179  179 179 179  179 179 179  179 179 179  179 179 179  179 179 179
179 179 179  179 179 179  179 179 179  179 179 179  179 179 179  179 179 179
179 179 179  179 179 179  179 179 179  179 179 179  179 179 179  179 179 179
179 179 179  179 179 179  179 179 179  179 179 179  179 179 179  179 179 179
179 179 179  179 179 179  179 179 179  179 179 179  179 179 179  179 179 179
179 179 179  179 179 179  179 179 179  179 179 179  179 179 179  179 179 179
179 179 179  179 179 179  179 179 179  179 179 179  179 179 179  179 179 179
179 179 179  179 179 179  0 0 0  0 0 0  0 0 0  0 0 0
0 0 0  0 0 0  0 0 0  0 0 0  0 0 0  0 0 0
0 0 0  0 0 0  0 0 0  0 0 0  0 0 0  0 0 0
0 0 0  0 0 0  0 0 0  0 0 0  0 0 0  179 179 179
179 179 179  179 179 179  179 179 179  179 179 179  179 179 179  179 179 179
179 179 179  179 179 179  179 179 179  179 179 179  179 179 179  179 179 179
179 179 179  179 179 179  179 179 179  179 179 179  179 179 179  179 179 179
179 179 179  179 179 179  179 179 179  179 179 179  179 179 179  179 179 179
179 179 179  179 179 179  179 179 179  179 179 179  179 179 179  179 179 179
179 179 179  179 179 179  179 179 179  179 179 179  179 179 179  179 179 179
179 179 179  179 179 179  179 179 179  179 179 179  179 179 179  179 179 179
179 179 179  179 179 179  179 179 179  179 179 179  179 179 179  179 179 179
179 179 179  179 179 179  179 179 179  179 179 179  179 179 179  179 179 179
83 82 83  25 21 20  23 21 20  33 29 29  35 31 30  34 30 29
36 32 31  35 31 30  34 30 29  35 31 30  34 30 29  35 31 30
36 32 31  34 31 30  35 31 30  35 31 30  33 30 29  23 20 19
23 23 21  74 72 73  178 178 178  179 179 179  179 179 179  179 179 179
179 179 179  179 179 179  179 179 179  179 179 179  179 179 179  179 179 179
179 179 179  148 148 148  31 26 27  17 15 16  31 27 26  36 32 31
35 31 30  35 31 30  34 30 29  35 31 30  35 31 30  35 31 30
35 31 30  35 31 30  35 31 30  35 31 30  35 31 30  35 31 30
35 31 30  35 31 30  35 31 30  35 31 30  35 31 30  35 31 30
35 31 30  35 31 30  35 31 30  34 30 29  35 31 30  35 31 30
35 31 30  35 31 30  35 31 30  35 31 30  35 31 30  35 31 30
35 31 30  35 31 30  34 30 29  35 31 30  36 32 31  35 31 30
35 31 30  35 31 30  36 32 31  34 30 29  32 29 28  20 18 16
32 29 29  142 141 141  179 179 179  179 179 179  179 179 179  179 179 179
179 179 179  179 179 179  179 179 179  179 179 179  179 179 179  179 179 179
179 179 179  74 72 73  23 19 20  22 19 19  33 29 28  34 30 29
35 31 30  35 31 30  34 30 29  35 31 30  35 31 30  36 32 31
35 31 30  35 31 30  35 31 30  35 31 30  35 31 30  32 29 28
23 21 20  24 20 21  86 84 84  175 175 175  179 179 179  179 179 179
179 179 179  179 179 179  179 179 179  179 179 179  179 179 179  179 179 179
179 179 179  179 179 179  179 179 179  179 179 179  179 179 179  179 179 179
179 179 179  179 179 179  179 179 179  179 179 179  179 179 179  179 179 179
179 179 179  179 179 179  179 179 179  179 179 179  179 179 179  179 179 179
179 179 179  179 179 179  179 179 179  179 179 179  179 179 179  179 179 179
179 179 179  179 179 179  179 179 179  179 179 179  179 179 179  179 179 179
179 179 179  179 179 179  179 179 179  179 179 179  179 179 179  179 179 179
179 179 179  179 179 179  179 179 179  179 179 179  179 179 179  179 179 179
179 179 179  179 179 179  179 179 179  0 0 0  0 0 0  0 0 0
0 0 0  0 0 0  0 0 0  0 0 0  0 0 0  0 0 0
0 0 0  0 0 0  0 0 0  0 0 0  0 0 0  0 0 0
0 0 0  0 0 0  0 0 0  0 0 0  179 179 179  179 179 179
179 179 179  179 179 179  179 179 179  179 179 179  179 179 179  179 179 179
179 179 179  179 179 179  179 179 179  179 179 179  179 179 179  179 179 179
179 179 179  179 179 179  179 179 179  179 179 179  179 179 179  179 179 179
179 179 179  179 179 179  179 179 179  179 179 179  179 179 179  179 179 179
179 179 179  179 179 179  179 179 179  179 179 179  179 179 179  179 179 179
179 179 179  179 179 179  179 179 179  179 179 179  179 179 179  179 179 179
179 179 179  179 179 179  179 179 179  179 179 179  179 179 179  179 179 179
179 179 179  179 179 179  179 179 179  179 179 179  179 179 179  179 179 179
179 179 179  179 179 179  179 179 179  179 179 179  179 179 179  179 179 179
179 179 179  88 87 87  26 23 22  26 21 22  32 28 27  35 31 30
34 31 30  35 31 30  35 31 30  35 31 30  35 31 30  35 31 30
35 31 30  35 31 30  34 30 29  36 32 31  37 33 32  32 29 28
23 22 20  23 22 20  81 80 80  177 177 177  179 179 179  179 179 179
179 179 179  179 179 179  179 179 179  179 179 179  179 179 179  179 179 179
179 179 179  179 179 179  112 111 111  21 18 17  25 21 20  35 31 30
35 31 30  37 33 32  34 31 30  35 31 30  35 31 30  35 31 30
35 31 30  35 31 30  35 31 30  35 31 30  35 31 30  35 31 30
35 31 30  35 31 30  35 31 30  35 31 30  35 31 30  35 31 30
35 31 30  35 31 30  35 31 30  35 31 30  35 31 30  35 31 30
35 31 30  35 31 30  35 31 30  35 31 30  35 31 30  35 31 30
35 31 30  35 31 30  36 32 31  35 31 30  33 29 28  37 33 32
34 30 29  35 31 30  34 30 29  35 31 30  24 22 20  22 19 18
88 87 87  178 178 178  179 179 179  179 179 179  179 179 179  179 179 179
179 179 179  179 179 179  179 179 179  179 179 179  179 179 179  179 179 179
86 84 84  22 19 18  23 19 18  33 29 28  35 31 30  35 31 30
35 31 30  35 31 30  35 31 30  35 31 30  35 31 30  34 31 30
35 31 30  34 30 29  36 32 31  35 31 30  34 30 29  24 20 19
25 22 23  86 84 84  172 172 172  179 179 179  179 179 179  179 179 179
179 179 179  179 179 179  179 179 179  179 179 179  179 179 179  179 179 179
179 179 179  179 179 179  179 179 179  179 179 179  179 179 179  179 179 179
179 179 179  179 179 179  179 179 179  179 179 179  179 179 179  179 179 179
179 179 179  179 179 179  179 179 179  179 179 179  179 179 179  179 179 179
179 179 179  179 179 179  179 179 179  179 179 179  179 179 179  179 179 179
179 179 179  179 179 179  179 179 179  179 179 179  179 179 179  179 179 179
179 179 179  179 179 179  179 179 179  179 179 179  179 179 179  179 179 179
179 179 179  179 179 179  179 179 179  179 179 179  179 179 179  179 179 179
179 179 179  179 179 179  179 179 179  0 0 0  0 0 0  0 0 0
0 0 0  0 0 0  0 0 0  0 0 0  0 0 0  0 0 0
0 0 0  0 0 0  0 0 0  0 0 0  0 0 0  0 0 0
0 0 0  0 0 0  0 0 0  0 0 0  179 179 179  179 179 179
179 179 179  179 179 179  179 179 179  179 179 179  179 179 179  179 179 179
179 179 179  179 179 179  179 179 179  179 179 179  179 179 179  179 179 179
179 179 179  179 179 179  179 179 179  179 179 179  179 179 179  179 179 179
179 179 179  179 179 179  179 179 179  179 179 179  179 179 179  179 179 179
179 179 179  179 179 179  179 179 179  179 179 179  179 179 179  179 179 179
179 179 179  179 179 179  179 179 179  179 179 179  179 179 179  179 179 179
179 179 179  179 179 179  179 179 179  179 179 179  179 179 179  179 179 179
179 179 179  179 179 179  179 179 179  179 179 179  179 179 179  179 179 179
179 179 179  179 179 179  179 179 179  179 179 179  179 179 179  179 179 179
179 179 179  112 111 111  25 21 20  28 24 23  36 32 31  36 32 31
35 31 30  35 31 30  35 31 30  35 31 30  35 31 30  35 31 30
35 31 30  35 31 30  36 32 31  36 32 31  32 28 27  36 32 31
33 30 29  23 22 20  23 23 21  109 108 108  179 179 179  179 179 179
179 179 179  179 179 179  179 179 179  179 179 179  179 179 179  179 179 179
179 179 179  179 179 179  179 179 179  71 69 70  21 17 16  27 23 22
34 30 29  34 30 29  36 32 31  34 31 30  34 30 29  35 31 30
35 31 30  35 31 30  35 31 30  35 31 30  35 31 30  35 31 30
35 31 30  35 31 30  35 31 30  35 31 30  35 31 30  35 31 30
35 31 30  35 31 30  35 31 30  35 31 30  35 31 30  35 31 30
35 31 30  35 31 30  35 31 30  35 31 30  35 31 30  35 31 30
35 31 30  34 30 29  34 30 29  37 33 32  35 32 31  34 30 29
34 30 29  35 31 30  37 34 33  28 24 23  17 17 15  60 59 59
173 173 173  179 179 179  179 179 179  179 179 179  179 179 179  179 179 179
179 179 179  179 179 179  179 179 179  179 179 179  179 179 179  88 87 87
20 17 16  19 17 16  34 30 29  35 31 30  35 31 30  35 31 30
35 31 30  35 31 30  35 31 30  35 31 30  35 31 30  33 29 28
39 34 34  35 31 30  35 31 30  35 31 30  27 23 22  23 18 19
102 101 102  172 172 172  177 177 177  179 179 179  179 179 179  179 179 179
179 179 179  179 179 179  179 179 179  179 179 179  179 179 179  179 179 179
179 179 179  179 179 179  179 179 179  179 179 179  179 179 179  179 179 179
179 179 179  179 179 179  179 179 179  179 179 179  179 179 179  179 179 179
179 179 179  179 179 179  179 179 179  179 179 179  179 179 179  179 179 179
179 179 179  179 179 179  179 179 179  179 179 179  179 179 179  179 179 179
179 179 179  179 179 179  179 179 179  179 179 179  179 179 179  179 179 179
179 179 179  179 179 179  179 179 179  179 179 179  179 179 179  179 179 179
179 179 179  179 179 179  179 179 179  179 179 179  179 179 179  179 179 179
179 179 179  179 179 179  179 179 179  179 179 179  0 0 0  0 0 0
0 0 0  0 0 0  0 0 0  0 0 0  0 0 0  0 0 0
0 0 0  0 0 0  0 0 0  0 0 0  0 0 0  0 0 0
0 0 0  0 0 0  0 0 0  179 179 179  179 179 179  179 179 179
179 179 179  179 179 179  179 179 179  179 179 179  179 179 179  179 179 179
179 179 179  179 179 179  179 179 179  179 179 179  179 179 179  179 179 179
179 179 179  179 179 179  179 179 179  179 179 179  179 179 179  179 179 179
179 179 179  177 177 177  165 165 164  142 141 141  123 123 123  114 114 114
114 114 114  126 125 126  148 148 148  171 171 171  179 179 179  179 179 179
179 179 179  179 179 179  179 179 179  179 179 179  179 179 179  179 179 179
179 179 179  179 179 179  179 179 179  179 179 179  179 179 179  179 179 179
179 179 179  179 179 179  179 179 179  179 179 179  179 179 179  179 179 179
179 179 179  179 179 179  179 179 179  179 179 179  179 179 179  174 174 174
92 90 91  23 19 20  23 19 18  31 27 26  33 29 28  36 32 31
34 30 29  35 31 30  35 31 30  35 31 30  35 31 30  35 31 30
35 31 30  35 31 30  34 31 30  35 31 30  36 32 31  35 31 30
34 31 30  34 30 29  22 20 19  24 22 20  114 114 114  178 178 178
179 179 179  179 179 179  179 179 179  179 179 179  179 179 179  179 179 179
179 179 179  179 179 179  179 179 179  162 161 161  43 42 42  17 15 13
28 25 24  36 32 31  35 31 30  34 30 29  37 33 32  35 31 30
35 31 30  35 31 30  35 31 30  35 31 30  35 31 30  35 31 30
35 31 30  35 31 30  35 31 30  35 31 30  35 31 30  35 31 30
35 31 30  35 31 30  35 31 30  35 31 30  35 31 30  35 31 30
35 31 30  35 31 30  35 31 30  35 31 30  35 31 30  35 31 30
35 31 30  36 32 31  35 31 30  34 31 30  34 30 29  35 31 30
36 32 31  34 30 29  26 23 23  17 15 13  43 42 42  176 176 176
179 179 179  179 179 179  179 179 179  179 179 179  179 179 179  179 179 179
179 179 179  179 179 179  178 178 178  168 168 168  74 72 73  21 18 17
18 17 15  35 31 30  34 30 29  35 31 30  35 31 30  35 31 30
35 31 30  35 31 30  35 31 30  35 31 30  35 31 30  36 32 31
33 29 28  35 31 30  35 31 30  34 30 29  35 31 30  22 18 17
29 26 28  119 118 118  177 177 177  179 179 179  179 179 179  179 179 179
179 179 179  179 179 179  179 179 179  179 179 179  179 179 179  179 179 179
179 179 179  179 179 179  179 179 179  179 179 179  179 179 179  179 179 179
179 179 179  179 179 179  179 179 179  179 179 179  179 179 179  179 179 179
179 179 179  179 179 179  179 179 179  177 177 177  165 165 164  142 141 141
119 118 118  114 114 114  114 114 114  126 125 126  145 145 145  173 173 173
179 179 179  179 179 179  179 179 179  179 179 179  179 179 179  179 179 179
179 179 179  179 179 179  179 179 179  179 179 179  179 179 179  179 179 179
179 179 179  179 179 179  179 179 179  179 179 179  179 179 179  179 179 179
179 179 179  179 179 179  179 179 179  179 179 179  0 0 0  0 0 0
0 0 0  0 0 0  0 0 0  0 0 0  0 0 0  0 0 0
0 0 0  0 0 0  0 0 0  0 0 0  0 0 0  0 0 0
0 0 0  0 0 0  0 0 0  179 179 179  179 179 179  179 179 179
179 179 179  179 179 179  179 179 179  179 179 179  179 179 179  179 179 179
179 179 179  179 179 179  179 179 179  179 179 179  179 179 179  179 179 179
179 179 179  179 179 179  179 179 179  179 179 179  179 179 179  179 179 179
145 145 145  74 72 73  42 39 40  30 28 30  25 22 23  21 20 21
23 21 22  27 24 24  33 31 31  50 48 47  92 90 91  163 162 163
179 179 179  179 179 179  179 179 179  179 179 179  179 179 179  179 179 179
179 179 179  179 179 179  179 179 179  179 179 179  179 179 179  179 179 179
179 179 179  179 179 179  179 179 179  179 179 179  179 179 179  179 179 179
179 179 179  179 179 179  179 179 179  179 179 179  169 169 169  74 72 73
22 19 18  23 21 19  32 28 27  36 32 31  36 32 31  36 32 31
34 30 29  35 31 30  35 31 30  35 31 30  35 31 30  35 31 30
35 31 30  35 31 30  35 31 30  35 32 31  34 30 29  35 31 30
35 31 30  36 32 31  32 28 27  23 21 20  24 22 20  83 82 83
176 176 176  179 179 179  179 179 179  179 179 179  179 179 179  179 179 179
179 179 179  179 179 179  179 179 179  179 179 179  133 133 133  33 31 31
16 15 15  28 25 24  35 31 31  36 32 31  34 30 29  35 31 30
35 31 30  35 31 30  35 31 30  35 31 30  35 31 30  35 31 30
35 31 30  35 31 30  35 31 30  35 31 30  35 31 30  35 31 30
35 31 30  35 31 30  35 31 30  35 31 30  35 31 30  35 31 30
35 31 30  35 31 30  35 31 30  35 31 30  35 31 30  35 31 30
35 31 30  35 31 30  34 30 29  36 32 31  34 30 29  35 31 30
34 30 29  28 24 23  18 16 17  38 37 36  179 179 179  179 179 179
179 179 179  179 179 179  179 179 179  179 179 179  179 179 179  179 179 179
179 179 179  179 179 179  163 162 163  68 67 67  23 20 19  21 19 17
35 31 30  36 32 31  35 31 30  36 32 31  35 31 30  35 31 30
35 31 30  35 31 30  35 31 30  35 31 30  35 31 30  34 30 29
35 31 30  35 31 30  35 31 30  35 31 30  36 32 31  32 28 27
20 18 17  28 26 26  106 104 105  176 176 176  179 179 179  179 179 179
179 179 179  179 179 179  179 179 179  179 179 179  179 179 179  179 179 179
179 179 179  179 179 179  179 179 179  179 179 179  179 179 179  179 179 179
179 179 179  179 179 179  179 179 179  179 179 179  179 179 179  179 179 179
179 179 179  178 178 178  138 138 138  71 69 70  42 39 40  30 28 26
26 23 22  25 23 21  25 23 21  27 25 24  36 33 33  52 50 50
88 87 87  156 155 155  179 179 179  179 179 179  179 179 179  179 179 179
179 179 179  179 179 179  179 179 179  179 179 179  179 179 179  179 179 179
179 179 179  179 179 179  179 179 179  179 179 179  179 179 179  179 179 179
179 179 179  179 179 179  179 179 179  179 179 179  179 179 179  0 0 0
0 0 0  0 0 0  0 0 0  0 0 0  0 0 0  0 0 0
0 0 0  0 0 0  0 0 0  0 0 0  0 0 0  0 0 0
0 0 0  0 0 0  179 179 179  179 179 179  179 179 179  179 179 179
179 179 179  179 179 179  179 179 179  179 179 179  179 179 179  179 179 179
179 179 179  179 179 179  179 179 179  179 179 179  179 179 179  179 179 179
179 179 179  179 179 179  179 179 179  179 179 179  174 174 174  79 76 76
29 26 28  20 18 19  21 19 20  24 21 22  27 24 24  25 22 23
26 23 23  26 23 23  25 21 20  21 18 19  21 18 20  38 37 36
102 101 102  179 179 179  179 179 179  179 179 179  179 179 179  179 179 179
179 179 179  179 179 179  179 179 179  179 179 179  179 179 179  179 179 179
179 179 179  179 179 179  179 179 179  179 179 179  179 179 179  179 179 179
179 179 179  179 179 179  179 179 179  167 167 167  65 64 64  20 16 18
24 20 19  34 30 29  36 32 31  35 31 30  35 31 30  34 30 29
35 31 30  34 30 29  34 30 29  35 31 30  35 31 30  35 31 30
35 31 30  35 31 30  35 32 31  35 31 30  34 30 29  37 33 32
35 31 30  35 31 30  35 31 30  34 30 29  25 21 20  23 22 20
74 72 73  179 179 179  179 179 179  179 179 179  179 179 179  179 179 179
179 179 179  179 179 179  179 179 179  179 179 179  179 179 179  123 123 123
33 31 31  18 16 17  28 23 24  36 32 32  35 31 31  35 31 30
35 31 30  35 31 30  35 31 30  35 31 30  35 31 30  35 31 30
35 31 30  35 31 30  35 31 30  35 31 30  35 31 30  35 31 30
35 31 30  35 31 30  35 31 30  35 31 30  35 31 30  35 31 30
35 31 30  35 31 30  35 31 30  35 31 30  35 31 30  35 31 30
35 31 30  34 30 29  35 31 30  33 29 28  36 32 31  34 30 29
27 23 22  20 17 16  38 37 36  170 169 169  179 179 179  179 179 179
179 179 179  179 179 179  179 179 179  179 179 179  179 179 179  179 179 179
179 179 179  179 179 179  74 72 73  22 19 19  25 21 20  34 30 29
34 30 29  36 32 31  34 30 29  35 31 30  35 31 30  35 31 30
35 31 30  35 31 30  35 31 30  35 31 30  35 31 30  34 30 29
35 31 30  35 31 30  35 31 30  34 30 29  35 31 30  35 31 30
32 28 27  21 18 17  28 25 24  119 118 118  179 179 179  179 179 179
179 179 179  179 179 179  179 179 179  179 179 179  179 179 179  179 179 179
179 179 179  179 179 179  179 179 179  179 179 179  179 179 179  179 179 179
179 179 179  179 179 179  179 179 179  179 179 179  179 179 179  179 179 179
179 179 179  76 75 75  28 26 26  20 17 16  21 18 17  25 23 21
26 23 22  29 26 25  27 25 23  27 23 22  25 23 21  20 17 16
21 20 21  38 37 36  106 104 105  179 179 179  179 179 179  179 179 179
179 179 179  179 179 179  179 179 179  179 179 179  179 179 179  179 179 179
179 179 179  179 179 179  179 179 179  179 179 179  179 179 179  179 179 179
179 179 179  179 179 179  179 179 179  179 179 179  179 179 179  0 0 0
0 0 0  0 0 0  0 0 0  0 0 0  0 0 0  0 0 0
0 0 0  0 0 0  0 0 0  0 0 0  0 0 0  0 0 0
0 0 0  0 0 0  179 179 179  179 179 179  179 179 179  179 179 179
179 179 179  179 179 179  179 179 179  179 179 179  179 179 179  179 179 179
179 179 179  179 179 179  179 179 179  179 179 179  179 179 179  179 179 179
179 179 179  179 179 179  177 177 177  162 161 161  50 48 47  19 18 18
22 17 18  28 25 24  32 29 28  33 29 28  36 32 31  35 31 30
35 31 30  36 31 30  34 29 29  31 26 27  26 23 23  19 16 17
22 20 19  74 72 73  179 179 179  179 179 179  179 179 179  179 179 179
179 179 179  179 179 179  179 179 179  179 179 179  179 179 179  179 179 179
179 179 179  179 179 179  179 179 179  179 179 179  179 179 179  179 179 179
179 179 179  179 179 179  171 171 171  74 72 73  20 16 18  26 21 22
34 30 29  35 31 30  35 31 30  35 31 30  34 30 29  36 32 32
34 30 29  28 23 24  29 25 24  35 31 30  35 31 30  35 31 30
35 31 30  35 31 30  35 31 30  34 30 29  36 32 31  34 30 29
36 32 31  36 32 31  35 31 29  36 32 31  34 30 29  23 21 20
22 20 19  76 75 75  178 178 178  179 179 179  179 179 179  179 179 179
179 179 179  179 179 179  179 179 179  179 179 179  179 179 179  179 179 179
133 133 133  43 42 42  19 15 16  26 22 23  33 29 29  35 31 30
35 31 30  35 31 30  35 31 30  35 31 30  35 31 30  35 31 30
35 31 30  35 31 30  35 31 30  35 31 30  35 31 30  35 31 30
35 31 30  35 31 30  35 31 30  35 31 30  35 31 30  35 31 30
35 31 30  35 31 30  35 31 30  35 31 30  35 31 30  35 31 30
35 31 30  35 31 30  34 30 29  37 33 32  32 28 27  23 19 18
21 18 17  43 42 42  145 145 145  179 179 179  179 179 179  179 179 179
179 179 179  179 179 179  179 179 179  179 179 179  179 179 179  179 179 179
179 179 179  81 80 80  20 19 18  21 20 19  32 28 27  35 31 30
36 32 31  34 30 29  35 31 30  35 31 30  35 31 30  35 31 30
35 31 30  35 31 30  35 31 30  35 31 30  35 31 30  34 30 29
29 25 24  34 30 29  35 31 30  36 32 31  35 31 30  35 31 30
36 31 30  32 28 27  20 18 16  27 25 24  145 145 145  179 179 179
179 179 179  179 179 179  179 179 179  179 179 179  179 179 179  179 179 179
179 179 179  179 179 179  179 179 179  179 179 179  179 179 179  179 179 179
179 179 179  179 179 179  179 179 179  179 179 179  179 179 179  172 172 172
48 46 45  17 15 16  19 18 18  29 25 24  33 29 28  34 30 29
35 31 30  35 32 31  34 31 30  35 31 30  35 31 30  31 27 26
26 23 23  17 15 16  25 22 23  83 82 83  175 175 175  179 179 179
179 179 179  179 179 179  179 179 179  179 179 179  179 179 179  179 179 179
179 179 179  179 179 179  179 179 179  179 179 179  179 179 179  179 179 179
179 179 179  179 179 179  179 179 179  179 179 179  179 179 179  0 0 0
0 0 0  0 0 0  0 0 0  0 0 0  0 0 0  0 0 0
0 0 0  0 0 0  0 0 0  0 0 0  0 0 0  0 0 0
0 0 0  0 0 0  179 179 179  179 179 179  179 179 179  179 179 179
179 179 179  179 179 179  179 179 179  179 179 179  179 179 179  179 179 179
179 179 179  179 179 179  179 179 179  179 179 179  179 179 179  179 179 179
179 179 179  179 179 179  163 162 163  43 42 42  17 14 13  27 23 22
35 31 30  34 30 29  36 32 31  34 30 29  28 24 23  27 23 22
26 22 21  30 26 25  36 32 31  35 31 31  39 34 34  33 28 27
21 17 16  21 18 17  81 80 80  179 179 179  179 179 179  179 179 179
179 179 179  179 179 179  179 179 179  179 179 179  179 179 179  179 179 179
179 179 179  179 179 179  179 179 179  179 179 179  179 179 179  179 179 179
179 179 179  179 179 179  106 104 105  22 17 18  24 19 20  35 31 30
33 30 29  36 32 31  35 31 30  34 30 29  35 31 30  34 30 29
26 22 21  28 24 23  26 22 23  24 19 20  31 26 27  35 31 31
35 31 31  35 31 31  35 30 29  35 30 29  34 30 29  34 30 29
36 32 31  35 31 30  35 31 30  36 32 31  35 31 30  33 29 28
23 21 20  23 21 22  95 95 95  179 179 179  179 179 179  179 179 179
179 179 179  179 179 179  179 179 179  179 179 179  179 179 179  179 179 179
179 179 179  162 161 161  71 69 70  21 18 19  19 16 17  28 25 24
36 33 33  36 32 31  34 30 29  35 32 31  34 30 29  35 31 29
35 31 30  36 32 31  35 31 30  34 30 29  35 31 30  34 30 29
35 31 30  35 31 30  35 31 30  35 31 30  35 31 30  35 31 30
35 31 30  35 31 30  35 31 30  35 31 30  36 32 31  34 30 29
35 31 30  36 32 32  36 33 33  28 25 26  20 18 19  20 17 18
60 59 59  156 155 155  179 179 179  179 179 179  179 179 179  179 179 179
179 179 179  179 179 179  179 179 179  179 179 179  179 179 179  179 179 179
81 80 80  22 17 18  21 17 16  34 30 29  35 31 30  35 31 30
35 31 30  35 31 30  35 31 30  35 31 30  35 32 31  34 30 29
34 30 29  37 33 32  34 30 29  36 32 31  32 28 27  22 19 18
20 17 16  25 21 20  33 29 28  34 30 29  36 32 31  35 31 30
35 31 30  34 31 30  30 28 26  18 17 15  28 25 26  152 151 151
179 179 179  179 179 179  179 179 179  179 179 179  179 179 179  179 179 179
179 179 179  179 179 179  179 179 179  179 179 179  179 179 179  179 179 179
179 179 179  179 179 179  179 179 179  179 179 179  176 176 176  42 39 40
22 18 17  23 21 20  34 31 30  37 31 31  35 31 30  32 28 27
31 27 26  26 23 22  25 23 21  29 26 25  34 30 29  37 34 33
34 31 30  32 28 27  22 21 19  23 21 20  99 97 97  179 179 179
179 179 179  179 179 179  179 179 179  179 179 179  179 179 179  179 179 179
179 179 179  179 179 179  179 179 179  179 179 179  179 179 179  179 179 179
179 179 179  179 179 179  179 179 179  179 179 179  179 179 179  179 179 179
0 0 0  0 0 0  0 0 0  0 0 0  0 0 0  0 0 0
0 0 0  0 0 0  0 0 0  0 0 0  0 0 0  0 0 0
0 0 0  0 0 0  179 179 179  179 179 179  179 179 179  179 179 179
179 179 179  179 179 179  179 179 179  179 179 179  179 179 179  179 179 179
179 179 179  179 179 179  179 179 179  179 179 179  179 179 179  179 179 179
179 179 179  168 168 168  60 59 59  20 17 16  27 25 23  35 31 30
33 30 29  35 31 30  25 21 20  22 18 17  22 18 17  22 18 17
23 18 17  20 16 15  20 16 15  28 24 23  37 31 31  33 28 27
35 31 30  22 19 18  22 19 18  112 111 111  179 179 179  179 179 179
179 179 179  179 179 179  179 179 179  179 179 179  179 179 179  179 179 179
179 179 179  179 179 179  179 179 179  179 179 179  179 179 179  179 179 179
174 174 174  102 101 102  21 18 17  25 21 20  34 30 29  34 30 29
36 32 31  37 33 32  33 29 28  35 31 30  35 31 30  23 19 18
27 23 22  133 133 133  84 83 83  24 20 21  22 17 18  36 33 33
35 31 31  36 32 32  36 31 30  36 32 31  36 32 31  34 30 29
35 31 30  35 31 30  35 31 30  31 27 26  37 33 32  36 32 31
32 28 27  23 21 22  23 21 22  119 118 118  178 178 178  179 179 179
179 179 179  179 179 179  179 179 179  179 179 179  179 179 179  179 179 179
179 179 179  179 179 179  179 179 179  102 101 102  27 25 24  19 15 16
21 18 19  36 32 31  34 31 30  35 31 30  35 31 29  36 32 31
34 30 29  34 30 29  35 31 30  36 32 31  36 32 31  34 30 29
33 29 28  34 30 29  35 31 30  34 30 29  35 31 30  35 31 30
35 31 30  35 31 30  35 31 30  34 30 29  34 30 29  37 33 32
35 31 30  32 29 28  23 19 20  16 14 14  31 26 27  109 108 108
179 179 179  179 179 179  179 179 179  179 179 179  179 179 179  179 179 179
179 179 179  179 179 179  179 179 179  179 179 179  171 171 171  79 76 76
23 18 17  22 18 17  34 30 29  35 31 30  35 31 30  35 31 30
35 31 30  35 31 30  35 31 30  35 31 30  36 32 31  37 33 32
32 28 27  37 33 32  36 32 31  32 28 27  21 17 16  27 22 21
63 60 61  22 18 17  28 24 23  36 32 31  36 32 31  32 28 27
35 31 30  35 31 30  33 30 29  30 28 26  17 15 16  28 25 26
123 123 123  177 177 177  179 179 179  179 179 179  179 179 179  179 179 179
179 179 179  179 179 179  179 179 179  179 179 179  179 179 179  179 179 179
179 179 179  179 179 179  179 179 179  171 171 171  52 50 50  22 19 18
27 23 22  37 34 33  35 31 30  33 29 28  26 22 21  23 19 18
21 19 17  21 19 17  20 19 16  21 18 17  21 17 16  30 26 25
36 32 31  34 30 29  33 30 29  22 21 19  22 20 19  138 138 138
179 179 179  179 179 179  179 179 179  179 179 179  179 179 179  179 179 179
179 179 179  179 179 179  179 179 179  179 179 179  179 179 179  179 179 179
179 179 179  179 179 179  179 179 179  179 179 179  179 179 179  179 179 179
0 0 0  0 0 0  0 0 0  0 0 0  0 0 0  0 0 0
0 0 0  0 0 0  0 0 0  0 0 0  0 0 0  0 0 0
0 0 0  179 179 179  179 179 179  179 179 179  179 179 179  179 179 179
179 179 179  179 179 179  179 179 179  179 179 179  179 179 179  179 179 179
179 179 179  179 179 179  179 179 179  179 179 179  179 179 179  179 179 179
179 179 179  102 101 102  24 21 22  25 23 21  34 31 30  35 31 30
33 30 29  21 18 17  22 19 18  36 33 33  60 59 59  88 87 87
81 80 80  52 50 50  32 28 27  23 19 18  26 22 21  33 29 28
35 31 30  32 28 27  17 15 16  32 29 29  169 169 169  179 179 179
179 179 179  179 179 179  179 179 179  179 179 179  179 179 179  179 179 179
179 179 179  179 179 179  179 179 179  179 179 179  179 179 179  172 172 172
74 72 73  21 18 17  25 21 20  35 31 30  35 31 30  35 31 30
35 31 30  34 30 29  35 31 30  32 28 27  22 19 18  25 23 21
142 141 141  179 179 179  179 179 179  81 80 80  23 19 21  21 18 19
35 31 31  34 29 29  35 31 30  35 31 30  34 30 29  36 32 31
34 30 29  35 31 30  35 31 30  35 31 30  34 30 29  33 29 28
36 32 31  33 30 30  23 21 22  23 21 22  88 87 87  178 178 178
179 179 179  179 179 179  179 179 179  179 179 179  179 179 179  179 179 179
179 179 179  179 179 179  179 179 179  179 179 179  138 138 138  50 48 47
21 18 19  18 17 15  24 20 19  32 28 27  33 29 28  35 31 30
35 31 30  36 32 31  36 32 31  34 30 29  35 31 30  35 31 30
36 32 31  35 31 30  36 32 31  35 32 31  34 30 29  34 30 29
36 32 31  35 31 30  36 32 31  34 30 29  34 30 29  30 26 25
25 21 20  20 17 16  21 20 21  55 52 53  163 162 163  179 179 179
179 179 179  179 179 179  179 179 179  179 179 179  179 179 179  179 179 179
179 179 179  179 179 179  179 179 179  165 165 164  68 67 67  23 19 18
22 19 18  34 30 29  35 31 30  35 31 30  35 31 30  35 31 30
35 31 30  35 31 30  35 31 30  35 31 30  35 31 30  33 29 28
37 33 32  35 31 30  33 29 28  23 21 20  26 21 22  126 125 126
160 160 160  60 56 57  22 19 18  27 23 22  35 31 30  35 31 30
34 30 29  35 31 30  35 31 30  36 32 31  31 29 26  19 16 17
29 26 28  102 101 102  176 176 176  177 177 177  179 179 179  179 179 179
179 179 179  179 179 179  179 179 179  179 179 179  179 179 179  179 179 179
179 179 179  179 179 179  176 176 176  84 83 83  23 19 18  25 21 20
36 31 30  33 29 28  32 28 27  25 22 20  24 21 19  39 34 34
65 64 64  88 87 87  79 76 76  52 50 50  28 27 26  21 18 17
26 23 22  34 30 29  36 32 31  32 29 28  17 15 13  30 28 26
152 151 151  179 179 179  179 179 179  179 179 179  179 179 179  179 179 179
179 179 179  179 179 179  179 179 179  179 179 179  179 179 179  179 179 179
179 179 179  179 179 179  179 179 179  179 179 179  179 179 179  179 179 179
0 0 0  0 0 0  0 0 0  0 0 0  0 0 0  0 0 0
0 0 0  0 0 0  0 0 0  0 0 0  0 0 0  0 0 0
0 0 0  179 179 179  179 179 179  179 179 179  179 179 179  179 179 179
179 179 179  179 179 179  179 179 179  179 179 179  179 179 179  179 179 179
179 179 179  179 179 179  179 179 179  179 179 179  179 179 179  179 179 179
179 179 179  42 38 37  22 19 18  32 28 27  36 32 31  30 26 25
21 19 17  25 25 24  81 80 80  163 162 163  179 179 179  179 179 179
179 179 179  179 179 179  138 138 138  60 56 57  24 20 19  25 22 20
32 28 27  37 34 33  26 23 22  18 15 16  79 76 76  176 176 176
174 174 174  179 179 179  179 179 179  179 179 179  179 179 179  179 179 179
179 179 179  176 176 176  179 179 179  179 179 179  169 169 169  68 67 67
22 19 18  22 19 18  35 31 30  34 30 29  35 31 30  34 31 30
34 30 29  37 33 32  30 28 26  21 19 17  25 22 23  99 97 97
179 179 179  179 179 179  179 179 179  179 179 179  79 76 76  23 19 21
23 19 21  32 29 28  35 31 30  35 31 30  35 31 30  35 31 30
35 31 30  34 30 29  34 30 29  36 32 31  34 31 30  35 31 30
35 31 30  35 31 30  33 29 28  22 19 19  23 21 22  76 75 75
178 178 178  179 179 179  179 179 179  179 179 179  179 179 179  179 179 179
179 179 179  179 179 179  179 179 179  179 179 179  179 179 179  179 179 179
106 104 105  43 42 42  23 21 20  20 17 16  23 20 19  27 23 22
29 25 24  31 27 26  33 29 28  35 31 30  36 32 31  35 31 30
35 31 30  35 31 30  35 31 30  35 31 30  36 32 31  34 30 29
32 28 27  32 28 27  29 25 24  23 21 20  22 19 18  22 17 18
26 21 22  42 39 40  102 101 102  176 176 176  179 179 179  179 179 179
179 179 179  179 179 179  179 179 179  179 179 179  179 179 179  179 179 179
179 179 179  179 179 179  177 177 177  68 67 67  22 19 18  22 19 18
34 30 29  35 31 30  36 32 31  35 31 30  35 31 30  35 31 30
35 31 30  35 31 30  35 31 30  35 31 30  35 31 30  35 31 30
35 32 31  32 29 28  22 20 19  24 21 22  92 90 91  175 175 175
179 179 179  165 165 164  56 55 55  21 17 16  27 23 22  35 31 30
35 31 30  35 31 30  35 31 30  34 30 29  36 32 31  31 27 26
21 18 17  31 26 27  114 114 114  175 175 175  179 179 179  179 179 179
179 179 179  179 179 179  179 179 179  179 179 179  179 179 179  179 179 179
179 179 179  179 179 179  154 154 154  39 34 34  22 18 17  32 28 27
34 29 29  33 28 27  25 21 20  32 28 27  83 82 83  168 168 168
175 175 175  179 179 179  179 179 179  179 179 179  150 149 149  60 59 59
19 18 18  22 19 18  34 30 29  35 31 30  24 22 20  18 17 16
63 60 61  179 179 179  179 179 179  179 179 179  179 179 179  179 179 179
179 179 179  179 179 179  179 179 179  179 179 179  179 179 179  179 179 179
179 179 179  179 179 179  179 179 179  179 179 179  179 179 179  179 179 179
0 0 0  0 0 0  0 0 0  0 0 0  0 0 0  0 0 0
0 0 0  0 0 0  0 0 0  0 0 0  0 0 0  0 0 0
0 0 0  179 179 179  179 179 179  179 179 179  179 179 179  179 179 179
179 179 179  179 179 179  179 179 179  179 179 179  179 179 179  179 179 179
179 179 179  179 179 179  179 179 179  179 179 179  179 179 179  179 179 179
138 138 138  24 19 20  26 22 21  35 31 30  32 28 27  21 18 17
27 24 24  112 111 111  176 176 176  179 179 179  179 179 179  179 179 179
179 179 179  179 179 179  179 179 179  179 179 179  81 80 80  22 19 18
25 23 21  33 29 28  35 31 30  22 19 18  28 25 26  65 64 64
63 60 61  63 60 61  60 59 59  60 59 59  60 59 59  63 60 61
60 59 59  63 60 61  60 59 59  63 60 61  50 48 47  22 19 18
23 21 20  35 31 30  35 32 31  36 32 31  34 30 29  35 31 30
36 32 31  32 28 27  22 20 19  26 23 22  92 90 91  175 175 175
179 179 179  179 179 179  179 179 179  179 179 179  179 179 179  88 87 87
23 21 22  21 19 20  32 29 28  35 31 30  35 31 30  34 30 29
34 30 29  35 32 31  34 30 29  35 31 30  37 33 32  34 30 29
35 31 30  34 30 29  36 32 31  32 28 27  26 23 22  25 23 21
74 72 73  175 175 175  179 179 179  179 179 179  179 179 179  179 179 179
179 179 179  179 179 179  179 179 179  179 179 179  179 179 179  179 179 179
179 179 179  178 178 178  106 104 105  55 52 53  32 29 29  24 20 19
22 18 17  21 18 17  24 22 20  24 22 20  24 20 19  26 22 21
26 22 21  27 23 22  27 23 22  25 21 20  23 21 20  25 23 21
22 19 18  20 17 16  20 17 16  21 19 20  32 29 29  56 55 55
102 101 102  165 165 164  179 179 179  179 179 179  179 179 179  179 179 179
179 179 179  179 179 179  179 179 179  179 179 179  179 179 179  179 179 179
179 179 179  179 179 179  84 83 83  22 19 18  22 19 18  32 28 27
36 32 31  33 29 28  36 32 31  34 31 30  35 31 30  35 31 30
35 31 30  35 31 30  35 31 30  35 31 30  34 30 29  36 32 31
34 31 30  22 20 19  23 21 22  83 82 83  173 173 173  179 179 179
179 179 179  179 179 179  167 167 167  60 59 59  20 17 16  25 23 21
34 30 29  35 31 30  36 32 31  36 32 31  34 30 29  34 30 29
30 28 26  19 18 18  31 26 27  65 64 64  63 60 61  63 60 61
65 64 64  63 60 61  63 60 61  63 60 61  63 60 61  63 60 61
63 60 61  63 60 61  56 55 55  24 21 19  27 23 22  35 31 30
33 29 28  24 19 18  31 27 26  106 104 105  177 177 177  179 179 179
179 179 179  179 179 179  179 179 179  179 179 179  179 179 179  179 179 179
71 69 70  20 18 17  27 24 22  35 31 30  36 32 31  18 16 15
28 26 26  154 154 154  179 179 179  179 179 179  179 179 179  179 179 179
179 179 179  179 179 179  179 179 179  179 179 179  179 179 179  179 179 179
179 179 179  179 179 179  179 179 179  179 179 179  179 179 179  179 179 179
179 179 179  0 0 0  0 0 0  0 0 0  0 0 0  0 0 0
0 0 0  0 0 0  0 0 0  0 0 0  0 0 0  0 0 0
0 0 0  179 179 179  179 179 179  179 179 179  179 179 179  179 179 179
179 179 179  179 179 179  179 179 179  179 179 179  179 179 179  179 179 179
179 179 179  179 179 179  179 179 179  179 179 179  179 179 179  167 167 167
60 59 59  19 16 17  29 25 24  36 32 31  29 25 24  20 18 16
114 114 114  179 179 179  178 178 178  179 179 179  179 179 179  179 179 179
179 179 179  179 179 179  179 179 179  179 179 179  179 179 179  55 52 53
21 18 17  30 26 25  35 31 30  32 28 27  26 23 22  23 19 18
23 21 20  25 21 20  26 23 22  25 21 20  25 21 20  25 21 20
25 21 20  24 20 19  23 19 18  22 19 18  22 18 17  26 22 21
32 28 27  35 31 30  34 30 29  34 30 29  36 32 31  35 32 31
32 28 27  24 20 19  24 22 20  99 97 97  174 174 174  179 179 179
179 179 179  179 179 179  179 179 179  179 179 179  179 179 179  179 179 179
88 87 87  23 21 22  23 21 19  33 29 28  34 30 29  34 30 29
36 32 31  35 31 30  35 31 30  34 30 29  33 29 28  37 33 32
35 31 30  35 31 30  34 30 29  35 31 30  35 31 30  25 23 21
24 22 20  88 87 87  179 179 179  179 179 179  179 179 179  179 179 179
179 179 179  179 179 179  179 179 179  179 179 179  179 179 179  179 179 179
179 179 179  179 179 179  179 179 179  172 172 172  138 138 138  99 97 97
68 67 67  42 39 40  30 28 26  23 22 20  20 16 15  17 14 13
17 14 13  16 13 13  17 14 13  17 14 13  18 16 15  23 21 19
28 27 26  42 39 40  71 69 70  102 101 102  142 141 141  179 179 179
179 179 179  179 179 179  179 179 179  179 179 179  179 179 179  179 179 179
179 179 179  179 179 179  179 179 179  179 179 179  179 179 179  179 179 179
179 179 179  88 87 87  19 18 18  21 19 17  35 31 30  34 30 29
36 32 31  35 31 30  35 31 30  36 32 31  35 31 30  35 31 30
35 31 30  35 31 30  35 31 30  35 31 30  35 31 30  34 30 29
22 19 18  23 21 22  92 90 91  173 173 173  179 179 179  179 179 179
179 179 179  179 179 179  179 179 179  170 169 169  76 75 75  19 16 16
25 21 20  33 29 28  36 32 31  35 31 30  36 32 31  34 30 29
33 29 28  32 29 28  25 21 20  24 20 19  26 22 21  26 23 22
27 25 23  27 23 22  27 23 22  27 25 23  27 23 22  27 23 22
27 23 22  26 22 21  24 20 19  30 26 25  33 29 28  34 30 29
26 22 21  22 18 17  99 97 97  178 178 178  178 178 178  179 179 179
179 179 179  179 179 179  179 179 179  179 179 179  179 179 179  179 179 179
165 165 164  43 42 42  21 18 17  31 27 26  37 33 32  23 19 18
21 18 20  92 90 91  179 179 179  179 179 179  179 179 179  179 179 179
179 179 179  179 179 179  179 179 179  179 179 179  179 179 179  179 179 179
179 179 179  179 179 179  179 179 179  179 179 179  179 179 179  179 179 179
179 179 179  0 0 0  0 0 0  0 0 0  0 0 0  0 0 0
0 0 0  0 0 0  0 0 0  0 0 0  0 0 0  0 0 0
0 0 0  179 179 179  179 179 179  179 179 179  179 179 179  179 179 179
179 179 179  179 179 179  179 179 179  179 179 179  179 179 179  179 179 179
179 179 179  179 179 179  179 179 179  179 179 179  179 179 179  179 179 179
33 33 33  19 18 18  34 30 29  33 29 28  23 19 18  35 31 31
179 179 179  179 179 179  179 179 179  179 179 179  179 179 179  179 179 179
179 179 179  179 179 179  179 179 179  179 179 179  179 179 179  114 114 114
25 21 20  28 24 23  35 31 30  35 31 30  33 29 28  32 28 27
31 27 26  31 27 26  31 27 26  31 27 26  31 27 26  31 27 26
31 27 26  29 25 24  31 27 26  31 27 26  33 29 28  35 31 30
36 32 31  34 30 29  37 33 32  33 29 28  36 32 31  33 29 28
23 19 18  25 21 20  145 145 145  179 179 179  179 179 179  179 179 179
179 179 179  179 179 179  179 179 179  179 179 179  179 179 179  179 179 179
179 179 179  92 90 91  23 21 20  22 19 18  34 31 30  36 32 31
34 30 29  35 31 30  34 30 29  35 31 30  35 31 30  35 31 30
34 30 29  36 32 31  35 31 30  36 32 31  36 32 31  33 29 28
23 21 20  23 21 22  123 123 123  179 179 179  179 179 179  179 179 179
179 179 179  179 179 179  179 179 179  179 179 179  179 179 179  179 179 179
179 179 179  179 179 179  179 179 179  179 179 179  179 179 179  179 179 179
179 179 179  179 179 179  179 179 179  179 179 179  170 169 169  126 125 126
106 104 105  106 104 105  109 108 108  129 128 129  172 172 172  179 179 179
179 179 179  179 179 179  179 179 179  179 179 179  179 179 179  179 179 179
179 179 179  179 179 179  179 179 179  179 179 179  179 179 179  179 179 179
179 179 179  179 179 179  179 179 179  179 179 179  179 179 179  177 177 177
81 80 80  19 16 17  19 18 18  35 31 30  34 30 29  36 32 31
34 29 29  34 30 29  36 32 32  34 30 29  35 31 30  35 31 30
35 31 30  35 31 30  35 31 30  35 31 30  33 29 28  21 17 16
23 19 21  129 128 129  179 179 179  179 179 179  179 179 179  179 179 179
179 179 179  179 179 179  179 179 179  179 179 179  179 179 179  83 82 83
20 17 16  25 21 20  35 31 30  34 30 29  34 30 29  36 32 31
35 32 31  37 33 32  33 29 28  30 26 25  31 27 26  32 28 27
30 26 25  31 27 26  31 27 26  31 27 26  31 27 26  31 27 26
31 27 26  31 27 26  31 27 26  34 30 29  36 32 31  34 30 29
21 19 17  36 33 33  179 179 179  179 179 179  179 179 179  179 179 179
179 179 179  179 179 179  179 179 179  179 179 179  179 179 179  179 179 179
179 179 179  92 90 91  22 17 18  28 24 23  35 31 30  34 31 30
20 18 19  56 55 55  179 179 179  179 179 179  179 179 179  179 179 179
179 179 179  179 179 179  179 179 179  179 179 179  179 179 179  179 179 179
179 179 179  179 179 179  179 179 179  179 179 179  179 179 179  179 179 179
179 179 179  0 0 0  0 0 0  0 0 0  0 0 0  0 0 0
0 0 0  0 0 0  0 0 0  0 0 0  0 0 0  0 0 0
0 0 0  179 179 179  179 179 179  179 179 179  179 179 179  179 179 179
179 179 179  179 179 179  179 179 179  179 179 179  179 179 179  179 179 179
179 179 179  179 179 179  179 179 179  179 179 179  179 179 179  179 179 179
27 25 24  22 19 18  35 31 30  32 28 27  19 16 16  60 56 57
179 179 179  179 179 179  179 179 179  179 179 179  179 179 179  179 179 179
179 179 179  179 179 179  179 179 179  179 179 179  179 179 179  142 141 141
31 27 26  25 21 20  33 30 29  36 32 31  35 31 31  35 31 31
37 31 31  35 31 31  37 31 31  36 31 30  35 31 31  36 32 31
36 32 31  36 32 31  36 32 31  36 32 31  36 32 31  35 31 30
35 31 30  35 31 30  35 31 30  35 31 30  32 28 27  25 21 20
25 23 21  145 145 145  179 179 179  179 179 179  179 179 179  179 179 179
179 179 179  179 179 179  179 179 179  179 179 179  179 179 179  179 179 179
179 179 179  179 179 179  79 76 76  21 18 19  20 18 19  35 31 30
36 32 31  35 31 30  35 31 30  35 31 30  35 31 30  35 31 30
35 31 30  35 31 30  35 31 30  34 30 29  35 31 30  36 32 31
32 28 27  23 21 19  25 23 21  95 95 95  177 177 177  179 179 179
179 179 179  179 179 179  179 179 179  179 179 179  179 179 179  179 179 179
179 179 179  179 179 179  179 179 179  179 179 179  179 179 179  179 179 179
179 179 179  179 179 179  179 179 179  179 179 179  179 179 179  179 179 179
179 179 179  179 179 179  179 179 179  179 179 179  179 179 179  179 179 179
179 179 179  179 179 179  179 179 179  179 179 179  179 179 179  179 179 179
179 179 179  179 179 179  179 179 179  179 179 179  179 179 179  179 179 179
179 179 179  179 179 179  179 179 179  179 179 179  165 165 164  68 67 67
22 19 18  21 18 17  36 32 31  35 31 30  35 31 30  35 31 30
35 31 30  35 31 30  35 31 30  35 31 30  35 31 30  35 31 30
35 31 30  35 31 30  34 30 29  32 29 28  20 18 19  23 19 21
133 133 133  179 179 179  179 179 179  179 179 179  179 179 179  179 179 179
179 179 179  179 179 179  179 179 179  179 179 179  179 179 179  173 173 173
63 60 61  17 15 16  23 21 20  34 30 29  36 32 31  35 31 29
33 31 28  35 31 30  36 32 31  36 32 31  36 32 31  36 32 31
36 32 31  36 32 31  36 32 31  36 32 31  36 32 31  36 32 31
36 32 31  36 32 31  37 31 31  36 31 30  35 31 30  29 26 25
21 20 19  63 60 61  179 179 179  179 179 179  179 179 179  179 179 179
179 179 179  179 179 179  179 179 179  179 179 179  179 179 179  179 179 179
179 179 179  129 128 129  26 23 23  22 17 18  35 31 30  34 31 30
19 18 18  43 42 42  178 178 178  179 179 179  179 179 179  179 179 179
179 179 179  179 179 179  179 179 179  179 179 179  179 179 179  179 179 179
179 179 179  179 179 179  179 179 179  179 179 179  179 179 179  179 179 179
179 179 179  0 0 0  0 0 0  0 0 0  0 0 0  0 0 0
0 0 0  0 0 0  0 0 0  0 0 0  0 0 0  0 0 0
0 0 0  179 179 179  179 179 179  179 179 179  179 179 179  179 179 179
179 179 179  179 179 179  179 179 179  179 179 179  179 179 179  179 179 179
179 179 179  179 179 179  179 179 179  179 179 179  179 179 179  179 179 179
26 21 22  23 19 20  36 32 31  29 25 24  20 16 15  74 72 73
179 179 179  179 179 179  179 179 179  179 179 179  179 179 179  179 179 179
179 179 179  179 179 179  179 179 179  179 179 179  179 179 179  154 154 154
35 31 31  23 19 18  33 29 28  35 31 30  34 31 30  34 31 30
34 31 30  34 31 30  33 30 29  35 32 31  35 32 31  35 31 30
35 31 30  35 31 30  35 31 30  35 31 30  35 31 30  35 31 30
35 31 30  36 32 31  35 31 30  32 28 27  25 21 20  26 23 22
109 108 108  179 179 179  179 179 179  179 179 179  179 179 179  179 179 179
179 179 179  179 179 179  179 179 179  179 179 179  179 179 179  179 179 179
179 179 179  179 179 179  179 179 179  79 76 76  21 18 17  21 17 16
34 30 29  35 31 30  35 31 30  35 31 30  35 31 30  35 31 30
35 31 30  35 31 30  35 31 30  36 32 31  34 30 29  36 32 31
35 31 30  32 29 28  23 22 20  24 22 20  76 75 75  175 175 175
179 179 179  179 179 179  179 179 179  179 179 179  179 179 179  179 179 179
179 179 179  179 179 179  179 179 179  179 179 179  179 179 179  179 179 179
179 179 179  179 179 179  179 179 179  179 179 179  179 179 179  179 179 179
179 179 179  179 179 179  179 179 179  179 179 179  179 179 179  179 179 179
179 179 179  179 179 179  179 179 179  179 179 179  179 179 179  179 179 179
179 179 179  179 179 179  179 179 179  179 179 179  179 179 179  179 179 179
179 179 179  179 179 179  179 179 179  169 169 169  68 67 67  22 19 18
24 20 19  33 29 28  36 32 31  35 31 30  35 31 30  35 31 30
35 31 30  35 31 30  35 31 30  35 31 30  34 30 29  34 30 29
36 32 31  35 31 30  32 29 28  23 21 20  24 21 22  95 95 95
179 179 179  179 179 179  179 179 179  179 179 179  179 179 179  179 179 179
179 179 179  179 179 179  179 179 179  179 179 179  179 179 179  179 179 179
165 165 164  56 55 55  19 15 14  25 21 20  34 30 29  35 31 30
35 31 29  35 31 30  35 31 30  35 31 30  35 31 30  35 31 30
35 31 30  35 31 30  35 31 30  35 31 30  35 31 30  35 31 30
35 31 30  35 31 30  34 29 29  37 31 31  35 31 30  28 25 23
22 20 19  79 76 76  179 179 179  179 179 179  179 179 179  179 179 179
179 179 179  179 179 179  179 179 179  179 179 179  179 179 179  179 179 179
179 179 179  148 148 148  30 28 26  21 16 16  34 30 29  34 30 29
19 16 17  42 39 40  176 176 176  179 179 179  179 179 179  179 179 179
179 179 179  179 179 179  179 179 179  179 179 179  179 179 179  179 179 179
179 179 179  179 179 179  179 179 179  179 179 179  179 179 179  179 179 179
179 179 179  0 0 0  0 0 0  0 0 0  0 0 0  0 0 0
0 0 0  0 0 0  0 0 0  0 0 0  0 0 0  0 0 0
0 0 0  179 179 179  179 179 179  179 179 179  179 179 179  179 179 179
179 179 179  179 179 179  179 179 179  179 179 179  179 179 179  179 179 179
179 179 179  179 179 179  179 179 179  179 179 179  179 179 179  179 179 179
25 22 23  21 18 17  36 32 31  30 26 25  20 17 16  65 64 64
179 179 179  179 179 179  179 179 179  179 179 179  179 179 179  179 179 179
179 179 179  179 179 179  179 179 179  179 179 179  179 179 179  148 148 148
33 29 28  24 20 19  34 30 29  35 31 30  36 32 31  33 30 29
35 32 31  34 31 30  35 32 31  33 30 29  35 32 31  35 31 30
35 31 30  35 31 30  35 31 30  35 31 30  35 31 30  35 31 30
36 32 31  36 32 31  32 28 27  23 20 19  25 22 23  92 90 91
176 176 176  179 179 179  179 179 179  179 179 179  179 179 179  179 179 179
179 179 179  179 179 179  179 179 179  179 179 179  179 179 179  179 179 179
179 179 179  179 179 179  179 179 179  179 179 179  83 82 83  25 20 19
26 22 21  34 30 29  36 32 31  35 31 30  35 31 30  35 31 30
35 31 30  35 31 30  35 31 30  35 31 30  35 31 30  35 31 30
35 31 30  35 31 30  34 31 30  23 21 19  23 21 22  74 72 73
176 176 176  178 178 178  179 179 179  179 179 179  179 179 179  179 179 179
179 179 179  179 179 179  179 179 179  179 179 179  179 179 179  179 179 179
179 179 179  179 179 179  179 179 179  179 179 179  179 179 179  179 179 179
179 179 179  179 179 179  179 179 179  179 179 179  179 179 179  179 179 179
179 179 179  179 179 179  179 179 179  179 179 179  179 179 179  179 179 179
179 179 179  179 179 179  179 179 179  179 179 179  179 179 179  179 179 179
179 179 179  179 179 179  179 179 179  76 75 75  21 19 17  21 19 17
32 29 28  34 30 29  36 32 31  35 31 30  35 31 30  35 31 30
35 31 30  35 31 30  35 31 30  35 31 29  35 31 29  35 31 29
35 31 30  33 29 28  26 21 22  26 22 23  84 83 83  173 173 173
179 179 179  179 179 179  179 179 179  179 179 179  179 179 179  179 179 179
179 179 179  179 179 179  179 179 179  179 179 179  179 179 179  179 179 179
179 179 179  165 165 164  56 55 55  20 16 14  26 22 21  34 30 29
35 31 30  35 31 30  35 31 30  35 31 30  35 31 30  35 31 30
35 31 30  35 31 30  35 31 30  35 31 30  35 31 30  35 31 30
35 31 30  35 31 30  36 31 30  36 31 30  36 31 30  28 24 23
21 19 20  71 69 70  179 179 179  179 179 179  179 179 179  179 179 179
179 179 179  179 179 179  179 179 179  179 179 179  179 179 179  179 179 179
179 179 179  138 138 138  28 25 24  21 17 16  35 30 29  33 29 29
20 16 17  42 39 40  178 178 178  179 179 179  179 179 179  179 179 179
179 179 179  179 179 179  179 179 179  179 179 179  179 179 179  179 179 179
179 179 179  179 179 179  179 179 179  179 179 179  179 179 179  179 179 179
179 179 179  0 0 0  0 0 0  0 0 0  0 0 0  0 0 0
0 0 0  0 0 0  0 0 0  0 0 0  0 0 0  0 0 0
0 0 0  179 179 179  179 179 179  179 179 179  179 179 179  179 179 179
179 179 179  179 179 179  179 179 179  179 179 179  179 179 179  179 179 179
179 179 179  179 179 179  179 179 179  179 179 179  179 179 179  171 171 171
32 29 28  20 17 16  32 28 27  34 30 29  22 20 19  42 39 40
179 179 179  179 179 179  179 179 179  179 179 179  179 179 179  179 179 179
179 179 179  179 179 179  179 179 179  179 179 179  179 179 179  123 123 123
25 23 21  27 23 22  34 30 29  35 31 30  33 29 28  33 29 28
34 30 29  33 29 28  34 30 29  33 29 28  34 29 29  34 29 29
34 29 29  34 29 29  34 29 29  34 29 29  34 29 29  33 29 28
33 29 28  32 28 27  21 19 17  24 22 20  99 97 97  173 173 173
179 179 179  179 179 179  179 179 179  179 179 179  179 179 179  179 179 179
179 179 179  179 179 179  179 179 179  179 179 179  179 179 179  179 179 179
179 179 179  179 179 179  179 179 179  179 179 179  174 174 174  27 23 22
23 19 18  34 30 29  35 31 30  35 31 30  35 31 30  35 31 30
35 31 30  35 31 30  35 31 30  35 31 30  35 31 30  35 31 30
34 30 29  34 30 29  37 33 32  33 29 28  22 21 19  23 22 20
83 82 83  177 177 177  179 179 179  179 179 179  179 179 179  179 179 179
179 179 179  179 179 179  179 179 179  179 179 179  179 179 179  179 179 179
179 179 179  179 179 179  179 179 179  179 179 179  179 179 179  179 179 179
179 179 179  179 179 179  179 179 179  179 179 179  179 179 179  179 179 179
179 179 179  179 179 179  179 179 179  179 179 179  179 179 179  179 179 179
179 179 179  179 179 179  179 179 179  179 179 179  179 179 179  179 179 179
179 179 179  179 179 179  84 83 83  20 17 16  20 18 17  34 30 29
35 31 30  37 33 32  34 30 29  35 31 30  35 31 30  35 31 30
35 31 30  35 31 30  35 31 30  35 31 30  35 31 29  35 31 30
33 29 28  27 23 22  24 19 20  81 80 80  170 169 169  178 178 178
179 179 179  179 179 179  179 179 179  179 179 179  179 179 179  179 179 179
179 179 179  179 179 179  179 179 179  179 179 179  179 179 179  179 179 179
179 179 179  179 179 179  167 167 167  71 69 70  19 15 14  23 20 19
33 29 28  34 29 29  34 29 29  34 29 29  34 29 29  33 29 28
33 29 28  34 29 29  34 29 29  34 29 29  34 29 29  34 29 29
34 29 29  34 29 29  32 28 27  35 31 30  35 31 30  33 29 28
22 20 19  42 39 40  179 179 179  179 179 179  179 179 179  179 179 179
179 179 179  179 179 179  179 179 179  179 179 179  179 179 179  179 179 179
179 179 179  102 101 102  22 19 18  25 21 20  36 31 30  33 29 28
22 17 18  52 50 50  179 179 179  179 179 179  179 179 179  179 179 179
179 179 179  179 179 179  179 179 179  179 179 179  179 179 179  179 179 179
179 179 179  179 179 179  179 179 179  179 179 179  179 179 179  179 179 179
179 179 179  0 0 0  0 0 0  0 0 0  0 0 0  0 0 0
0 0 0  0 0 0  0 0 0  0 0 0  0 0 0  0 0 0
0 0 0  179 179 179  179 179 179  179 179 179  179 179 179  179 179 179
179 179 179  179 179 179  179 179 179  179 179 179  179 179 179  179 179 179
179 179 179  179 179 179  179 179 179  179 179 179  179 179 179  179 179 179
50 48 47  19 16 17  30 26 25  35 31 30  27 25 23  23 19 21
179 179 179  179 179 179  179 179 179  179 179 179  179 179 179  179 179 179
179 179 179  179 179 179  179 179 179  179 179 179  179 179 179  83 82 83
22 17 18  29 25 24  34 30 29  34 30 29  31 27 26  17 14 13
22 18 17  21 17 16  23 19 18  24 19 18  25 21 20  24 19 18
24 19 18  24 19 18  23 19 18  23 19 18  22 18 17  21 17 16
21 17 16  16 13 13  24 19 20  126 125 126  178 178 178  179 179 179
179 179 179  179 179 179  179 179 179  179 179 179  179 179 179  179 179 179
179 179 179  179 179 179  179 179 179  179 179 179  179 179 179  179 179 179
179 179 179  179 179 179  179 179 179  154 154 154  28 23 24  17 14 13
31 27 26  35 31 30  35 31 30  35 31 30  35 31 30  35 31 30
35 31 30  35 31 30  35 31 30  33 29 28  36 32 31  36 32 31
36 32 31  36 32 31  32 28 27  37 33 32  30 28 26  22 21 19
23 22 20  114 114 114  173 173 173  179 179 179  179 179 179  179 179 179
179 179 179  179 179 179  179 179 179  179 179 179  179 179 179  179 179 179
179 179 179  179 179 179  179 179 179  179 179 179  179 179 179  179 179 179
179 179 179  179 179 179  179 179 179  179 179 179  179 179 179  179 179 179
179 179 179  179 179 179  179 179 179  179 179 179  179 179 179  179 179 179
179 179 179  179 179 179  179 179 179  179 179 179  179 179 179  179 179 179
179 179 179  86 84 84  20 17 16  23 20 18  33 30 29  34 30 29
33 29 28  33 29 28  36 32 31  35 31 30  35 31 30  35 31 30
35 31 30  35 31 30  35 31 30  35 31 30  36 32 31  35 31 30
36 32 31  31 27 26  22 18 17  43 42 42  160 160 160  179 179 179
179 179 179  179 179 179  179 179 179  179 179 179  179 179 179  179 179 179
179 179 179  179 179 179  179 179 179  179 179 179  179 179 179  179 179 179
179 179 179  179 179 179  179 179 179  177 177 177  81 80 80  16 13 13
16 13 13  20 16 15  21 17 16  23 18 17  23 19 18  23 19 18
23 19 18  24 19 18  24 19 18  24 20 19  24 20 19  24 20 19
24 20 19  24 20 19  23 19 18  30 26 25  35 31 30  33 29 28
22 18 17  23 21 20  150 149 149  179 179 179  179 179 179  179 179 179
179 179 179  179 179 179  179 179 179  179 179 179  179 179 179  179 179 179
179 179 179  60 59 59  20 17 16  31 27 26  37 31 31  27 23 22
20 16 17  81 80 80  179 179 179  179 179 179  179 179 179  179 179 179
179 179 179  179 179 179  179 179 179  179 179 179  179 179 179  179 179 179
179 179 179  179 179 179  179 179 179  179 179 179  179 179 179  179 179 179
179 179 179  0 0 0  0 0 0  0 0 0  0 0 0  0 0 0
0 0 0  0 0 0  0 0 0  0 0 0  0 0 0  0 0 0
0 0 0  179 179 179  179 179 179  179 179 179  179 179 179  179 179 179
179 179 179  179 179 179  179 179 179  179 179 179  179 179 179  179 179 179
179 179 179  179 179 179  179 179 179  179 179 179  179 179 179  179 179 179
102 101 102  21 18 19  27 23 22  35 31 30  31 27 26  19 16 17
42 39 40  156 155 155  179 179 179  179 179 179  179 179 179  179 179 179
179 179 179  179 179 179  179 179 179  179 179 179  133 133 133  27 24 24
24 21 22  33 29 28  36 32 31  27 23 22  22 20 19  37 34 33
36 33 33  37 34 33  37 34 33  36 33 33  36 33 33  36 33 33
36 33 33  37 34 33  37 34 33  37 34 33  37 34 33  37 34 33
34 31 30  38 37 36  133 133 133  179 179 179  179 179 179  179 179 179
179 179 179  179 179 179  179 179 179  179 179 179  179 179 179  179 179 179
179 179 179  179 179 179  179 179 179  179 179 179  179 179 179  179 179 179
179 179 179  176 176 176  114 114 114  28 23 24  22 17 18  32 28 27
37 31 31  36 31 30  35 30 29  35 31 30  35 31 30  35 31 30
35 31 30  35 31 30  35 31 30  37 33 32  35 31 30  33 29 28
36 32 31  35 31 30  35 31 30  34 30 29  36 32 31  33 29 28
24 20 19  25 23 21  109 108 108  177 177 177  179 179 179  179 179 179
179 179 179  179 179 179  179 179 179  179 179 179  179 179 179  179 179 179
179 179 179  179 179 179  179 179 179  179 179 179  179 179 179  179 179 179
179 179 179  179 179 179  179 179 179  179 179 179  179 179 179  179 179 179
179 179 179  179 179 179  179 179 179  179 179 179  179 179 179  179 179 179
179 179 179  179 179 179  179 179 179  179 179 179  179 179 179  165 165 164
74 72 73  22 17 18  22 18 17  36 32 31  36 32 31  35 31 30
37 33 32  35 31 30  36 32 32  35 31 30  35 31 30  35 31 30
35 31 30  35 31 30  35 31 30  35 31 31  35 31 31  35 31 31
36 32 31  34 30 29  29 26 25  22 19 18  43 42 42  148 148 148
179 179 179  179 179 179  179 179 179  179 179 179  179 179 179  179 179 179
179 179 179  179 179 179  179 179 179  179 179 179  179 179 179  179 179 179
179 179 179  179 179 179  179 179 179  179 179 179  172 172 172  79 76 76
36 33 33  34 31 30  35 32 31  36 32 31  36 33 33  36 33 33
36 33 33  36 33 33  35 32 31  36 33 33  36 33 33  36 33 33
36 33 33  36 33 33  34 31 30  23 21 20  30 26 25  35 31 31
33 29 28  22 18 17  38 37 36  152 151 151  179 179 179  179 179 179
179 179 179  179 179 179  179 179 179  179 179 179  179 179 179  179 179 179
109 108 108  25 21 20  24 20 19  34 30 29  36 32 31  19 15 16
25 22 23  133 133 133  179 179 179  179 179 179  179 179 179  179 179 179
179 179 179  179 179 179  179 179 179  179 179 179  179 179 179  179 179 179
179 179 179  179 179 179  179 179 179  179 179 179  179 179 179  179 179 179
179 179 179  0 0 0  0 0 0  0 0 0  0 0 0  0 0 0
0 0 0  0 0 0  0 0 0  0 0 0  0 0 0  0 0 0
0 0 0  179 179 179  179 179 179  179 179 179  179 179 179  179 179 179
179 179 179  179 179 179  179 179 179  179 179 179  179 179 179  179 179 179
179 179 179  179 179 179  179 179 179  179 179 179  179 179 179  179 179 179
179 179 179  30 28 26  21 18 17  33 30 29  35 31 30  28 26 26
19 16 16  42 39 40  123 123 123  178 178 178  179 179 179  179 179 179
179 179 179  179 179 179  170 169 169  95 95 95  33 29 29  22 19 19
31 27 26  36 32 31  30 26 25  17 14 13  56 55 55  179 179 179
179 179 179  179 179 179  179 179 179  179 179 179  179 179 179  179 179 179
179 179 179  179 179 179  179 179 179  179 179 179  179 179 179  179 179 179
179 179 179  179 179 179  179 179 179  179 179 179  179 179 179  179 179 179
179 179 179  179 179 179  179 179 179  179 179 179  179 179 179  179 179 179
179 179 179  179 179 179  179 179 179  179 179 179  179 179 179  179 179 179
177 177 177  106 104 105  30 26 25  22 17 18  32 29 28  35 31 31
34 29 29  35 31 30  35 31 30  36 32 31  34 30 29  33 29 28
35 31 30  35 31 30  35 31 30  36 32 31  33 29 28  35 31 30
35 31 30  36 32 31  36 32 31  35 31 29  33 31 28  35 31 30
33 29 28  23 19 18  22 20 19  81 80 80  178 178 178  179 179 179
179 179 179  179 179 179  179 179 179  179 179 179  179 179 179  179 179 179
179 179 179  179 179 179  179 179 179  179 179 179  179 179 179  179 179 179
179 179 179  179 179 179  179 179 179  179 179 179  179 179 179  179 179 179
179 179 179  179 179 179  179 179 179  179 179 179  179 179 179  179 179 179
179 179 179  179 179 179  179 179 179  179 179 179  167 167 167  65 64 64
23 19 18  22 19 18  34 30 29  34 30 29  36 32 31  35 31 30
34 30 29  35 31 30  34 30 29  35 31 30  35 31 30  35 31 30
35 31 30  36 32 31  35 31 30  35 31 31  36 32 32  35 31 31
35 31 30  37 33 32  33 30 29  27 25 23  21 18 19  47 43 44
168 168 168  179 179 179  179 179 179  179 179 179  179 179 179  179 179 179
179 179 179  179 179 179  179 179 179  179 179 179  179 179 179  179 179 179
179 179 179  179 179 179  179 179 179  179 179 179  179 179 179  179 179 179
179 179 179  179 179 179  179 179 179  179 179 179  179 179 179  179 179 179
179 179 179  179 179 179  179 179 179  179 179 179  179 179 179  179 179 179
179 179 179  179 179 179  142 141 141  28 26 26  22 19 18  33 29 28
35 31 30  28 24 23  22 18 17  42 38 37  123 123 123  177 177 177
179 179 179  179 179 179  179 179 179  179 179 179  179 179 179  99 97 97
29 26 28  23 19 20  32 28 27  35 31 30  28 26 26  16 13 13
48 46 45  179 179 179  179 179 179  179 179 179  179 179 179  179 179 179
179 179 179  179 179 179  179 179 179  179 179 179  179 179 179  179 179 179
179 179 179  179 179 179  179 179 179  179 179 179  179 179 179  179 179 179
0 0 0  0 0 0  0 0 0  0 0 0  0 0 0  0 0 0
0 0 0  0 0 0  0 0 0  0 0 0  0 0 0  0 0 0
0 0 0  179 179 179  179 179 179  179 179 179  179 179 179  179 179 179
179 179 179  179 179 179  179 179 179  179 179 179  179 179 179  179 179 179
179 179 179  179 179 179  179 179 179  179 179 179  179 179 179  179 179 179
179 179 179  81 80 80  19 16 17  25 22 23  34 31 30  35 31 30
29 25 24  22 18 17  28 26 26  60 56 57  102 101 102  138 138 138
129 128 129  88 87 87  47 43 44  26 22 23  24 19 18  33 28 27
35 30 29  34 29 29  21 18 17  24 20 21  152 151 151  179 179 179
179 179 179  179 179 179  179 179 179  179 179 179  179 179 179  179 179 179
179 179 179  179 179 179  179 179 179  179 179 179  179 179 179  179 179 179
179 179 179  179 179 179  179 179 179  179 179 179  179 179 179  179 179 179
179 179 179  179 179 179  179 179 179  179 179 179  179 179 179  179 179 179
179 179 179  179 179 179  179 179 179  179 179 179  179 179 179  179 179 179
114 114 114  30 26 25  24 19 20  30 28 26  35 31 30  36 32 31
35 31 30  35 31 30  35 31 30  35 31 30  27 23 22  25 23 21
33 30 29  35 31 30  35 31 30  35 32 31  34 31 30  36 32 31
34 30 29  35 31 30  36 32 31  34 30 29  35 31 30  35 31 30
36 32 32  32 28 27  21 20 21  21 20 21  74 72 73  176 176 176
179 179 179  179 179 179  179 179 179  179 179 179  179 179 179  179 179 179
179 179 179  179 179 179  179 179 179  179 179 179  179 179 179  179 179 179
179 179 179  179 179 179  179 179 179  179 179 179  179 179 179  179 179 179
179 179 179  179 179 179  179 179 179  179 179 179  179 179 179  179 179 179
179 179 179  179 179 179  179 179 179  179 179 179  74 72 73  23 19 18
23 20 18  32 29 28  35 31 30  35 31 30  35 31 30  35 31 30
35 31 30  35 31 30  35 31 30  35 31 30  35 31 30  35 31 30
35 31 30  36 32 31  32 28 27  32 28 27  32 29 29  34 31 30
35 31 30  36 32 31  35 31 30  34 30 29  28 24 23  22 19 18
43 42 42  160 160 160  179 179 179  179 179 179  179 179 179  179 179 179
179 179 179  179 179 179  179 179 179  179 179 179  179 179 179  179 179 179
179 179 179  179 179 179  179 179 179  179 179 179  179 179 179  179 179 179
179 179 179  179 179 179  179 179 179  179 179 179  179 179 179  179 179 179
179 179 179  179 179 179  179 179 179  179 179 179  179 179 179  179 179 179
179 179 179  179 179 179  174 174 174  65 64 64  19 15 14  27 23 22
34 30 29  35 32 31  28 24 23  21 18 17  28 26 26  60 59 59
109 108 108  133 133 133  126 125 126  88 87 87  47 43 44  24 21 22
24 22 20  31 27 26  35 31 30  34 30 29  18 15 16  21 19 20
126 125 126  179 179 179  179 179 179  179 179 179  179 179 179  179 179 179
179 179 179  179 179 179  179 179 179  179 179 179  179 179 179  179 179 179
179 179 179  179 179 179  179 179 179  179 179 179  179 179 179  179 179 179
0 0 0  0 0 0  0 0 0  0 0 0  0 0 0  0 0 0
0 0 0  0 0 0  0 0 0  0 0 0  0 0 0  0 0 0
0 0 0  0 0 0  179 179 179  179 179 179  179 179 179  179 179 179
179 179 179  179 179 179  179 179 179  179 179 179  179 179 179  179 179 179
179 179 179  179 179 179  179 179 179  179 179 179  179 179 179  179 179 179
179 179 179  157 157 157  38 37 36  16 15 15  29 26 25  34 30 29
36 32 31  32 28 27  23 21 20  20 19 18  23 21 20  26 23 22
26 23 22  22 19 19  20 18 19  27 23 22  33 29 28  35 31 30
35 30 29  25 23 21  18 15 16  74 72 73  179 179 179  179 179 179
179 179 179  179 179 179  179 179 179  179 179 179  179 179 179  179 179 179
179 179 179  179 179 179  179 179 179  179 179 179  179 179 179  179 179 179
179 179 179  179 179 179  179 179 179  179 179 179  179 179 179  179 179 179
179 179 179  179 179 179  179 179 179  179 179 179  179 179 179  179 179 179
179 179 179  179 179 179  179 179 179  179 179 179  179 179 179  138 138 138
28 25 24  22 19 18  32 28 27  34 30 29  36 32 31  35 31 30
34 30 29  36 32 31  32 29 28  25 23 21  24 21 19  25 23 21
23 21 20  32 28 27  34 30 29  35 31 30  35 31 30  35 31 30
35 31 30  34 30 29  36 32 31  34 31 30  35 31 30  36 32 31
34 30 29  35 31 30  33 30 29  23 21 22  22 20 19  79 76 76
178 178 178  179 179 179  179 179 179  179 179 179  179 179 179  179 179 179
179 179 179  179 179 179  179 179 179  179 179 179  179 179 179  179 179 179
179 179 179  179 179 179  179 179 179  179 179 179  179 179 179  179 179 179
179 179 179  179 179 179  179 179 179  179 179 179  179 179 179  179 179 179
179 179 179  179 179 179  179 179 179  88 87 87  23 18 17  23 19 18
33 29 28  35 31 30  35 31 30  35 31 30  35 31 30  35 31 30
35 31 30  35 31 30  35 31 30  35 31 30  36 32 31  35 31 30
36 32 31  32 28 27  23 20 19  23 19 18  29 25 24  35 31 30
36 32 31  33 29 28  35 31 30  35 31 30  34 30 29  30 26 25
20 18 17  38 37 36  157 157 157  179 179 179  179 179 179  179 179 179
179 179 179  179 179 179  179 179 179  179 179 179  179 179 179  179 179 179
179 179 179  179 179 179  179 179 179  179 179 179  179 179 179  179 179 179
179 179 179  179 179 179  179 179 179  179 179 179  179 179 179  179 179 179
179 179 179  179 179 179  179 179 179  179 179 179  179 179 179  179 179 179
179 179 179  179 179 179  179 179 179  145 145 145  35 32 31  20 16 15
31 27 26  37 33 32  34 30 29  31 27 26  25 21 20  22 18 17
20 19 18  23 23 21  24 21 22  23 19 20  20 17 16  26 23 23
34 31 30  34 30 29  37 33 32  25 21 20  16 14 14  79 76 76
179 179 179  179 179 179  179 179 179  179 179 179  179 179 179  179 179 179
179 179 179  179 179 179  179 179 179  179 179 179  179 179 179  179 179 179
179 179 179  179 179 179  179 179 179  179 179 179  179 179 179  179 179 179
0 0 0  0 0 0  0 0 0  0 0 0  0 0 0  0 0 0
0 0 0  0 0 0  0 0 0  0 0 0  0 0 0  0 0 0
0 0 0  0 0 0  179 179 179  179 179 179  179 179 179  179 179 179
179 179 179  179 179 179  179 179 179  179 179 179  179 179 179  179 179 179
179 179 179  179 179 179  179 179 179  179 179 179  179 179 179  179 179 179
179 179 179  179 179 179  129 128 129  30 28 30  16 13 13  30 26 25
33 29 28  36 31 30  34 29 29  32 28 27  25 21 20  23 19 18
22 18 17  26 23 22  34 30 29  35 31 30  36 32 31  33 29 28
25 21 20  17 14 13  50 48 47  166 166 166  179 179 179  179 179 179
179 179 179  179 179 179  179 179 179  179 179 179  179 179 179  179 179 179
179 179 179  179 179 179  179 179 179  179 179 179  179 179 179  179 179 179
179 179 179  179 179 179  179 179 179  179 179 179  179 179 179  179 179 179
179 179 179  179 179 179  179 179 179  179 179 179  179 179 179  179 179 179
179 179 179  179 179 179  179 179 179  179 179 179  152 151 151  29 25 24
23 19 18  32 28 27  35 31 30  36 32 31  36 31 30  35 31 30
36 32 31  33 29 28  25 22 23  23 19 20  95 95 95  88 87 87
25 23 21  22 19 18  35 31 30  36 32 31  37 33 32  35 31 30
34 30 29  35 31 30  34 30 29  36 32 31  35 31 30  35 31 30
35 31 30  36 32 31  33 30 29  35 31 30  22 19 19  22 19 19
102 101 102  179 179 179  179 179 179  179 179 179  179 179 179  179 179 179
179 179 179  179 179 179  179 179 179  179 179 179  179 179 179  179 179 179
179 179 179  179 179 179  179 179 179  179 179 179  179 179 179  179 179 179
179 179 179  179 179 179  179 179 179  179 179 179  179 179 179  179 179 179
179 179 179  179 179 179  83 82 83  21 16 16  20 16 15  34 30 29
34 30 29  35 31 30  35 31 30  35 31 30  35 31 30  35 31 30
35 31 30  35 31 30  35 31 30  35 32 31  34 30 29  34 30 29
32 29 29  20 18 16  26 23 22  42 38 37  21 16 16  30 26 25
37 33 32  34 30 29  36 32 31  35 31 30  36 31 30  35 31 30
27 23 22  19 17 16  42 39 40  162 161 161  179 179 179  179 179 179
179 179 179  179 179 179  179 179 179  179 179 179  179 179 179  179 179 179
179 179 179  179 179 179  179 179 179  179 179 179  179 179 179  179 179 179
179 179 179  179 179 179  179 179 179  179 179 179  179 179 179  179 179 179
179 179 179  179 179 179  179 179 179  179 179 179  179 179 179  179 179 179
179 179 179  179 179 179  179 179 179  178 178 178  133 133 133  25 25 24
21 17 16  30 26 25  35 31 30  36 31 30  34 30 29  31 27 26
24 20 19  20 16 15  22 18 17  26 21 19  33 29 28  36 32 31
35 31 30  34 30 29  25 21 20  17 14 13  60 59 59  174 174 174
179 179 179  179 179 179  179 179 179  179 179 179  179 179 179  179 179 179
179 179 179  179 179 179  179 179 179  179 179 179  179 179 179  179 179 179
179 179 179  179 179 179  179 179 179  179 179 179  179 179 179  179 179 179
0 0 0  0 0 0  0 0 0  0 0 0  0 0 0  0 0 0
0 0 0  0 0 0  0 0 0  0 0 0  0 0 0  0 0 0
0 0 0  0 0 0  179 179 179  179 179 179  179 179 179  179 179 179
179 179 179  179 179 179  179 179 179  179 179 179  179 179 179  179 179 179
179 179 179  179 179 179  179 179 179  179 179 179  179 179 179  179 179 179
179 179 179  179 179 179  179 179 179  133 133 133  32 29 29  16 14 14
24 20 21  33 29 29  35 31 31  37 33 32  35 31 30  35 31 30
36 32 31  36 32 31  34 30 29  34 30 29  31 27 26  20 16 15
16 13 13  50 48 47  166 166 166  179 179 179  179 179 179  179 179 179
179 179 179  179 179 179  179 179 179  179 179 179  179 179 179  179 179 179
179 179 179  179 179 179  179 179 179  179 179 179  179 179 179  179 179 179
179 179 179  179 179 179  179 179 179  179 179 179  179 179 179  179 179 179
179 179 179  179 179 179  179 179 179  179 179 179  179 179 179  179 179 179
179 179 179  179 179 179  177 177 177  126 125 126  29 26 25  19 15 14
33 29 28  36 32 31  35 31 30  35 31 30  34 29 29  35 31 30
36 32 31  26 23 22  21 18 17  86 84 84  173 173 173  179 179 179
84 83 83  23 20 19  20 16 15  34 30 29  34 30 29  34 30 29
36 32 31  36 32 31  34 30 29  33 29 28  35 31 30  35 31 30
35 31 30  34 30 29  35 31 30  36 32 31  33 29 28  22 19 18
23 21 19  119 118 118  178 178 178  179 179 179  179 179 179  179 179 179
179 179 179  179 179 179  179 179 179  179 179 179  179 179 179  179 179 179
179 179 179  179 179 179  179 179 179  179 179 179  179 179 179  179 179 179
179 179 179  179 179 179  179 179 179  179 179 179  179 179 179  179 179 179
169 169 169  76 75 75  21 18 17  19 15 14  37 33 32  36 32 31
36 32 31  35 31 30  35 31 30  35 31 30  35 31 30  35 31 30
35 31 30  35 31 30  35 31 30  34 30 29  37 33 32  33 30 29
19 17 16  23 21 20  133 133 133  156 155 155  42 38 37  21 17 16
29 25 24  36 32 31  35 31 30  34 30 29  36 32 31  35 31 30
36 32 32  26 23 22  20 18 17  43 42 42  156 155 155  179 179 179
179 179 179  179 179 179  179 179 179  179 179 179  179 179 179  179 179 179
179 179 179  179 179 179  179 179 179  179 179 179  179 179 179  179 179 179
179 179 179  179 179 179  179 179 179  179 179 179  179 179 179  179 179 179
179 179 179  179 179 179  179 179 179  179 179 179  179 179 179  179 179 179
179 179 179  179 179 179  179 179 179  179 179 179  179 179 179  152 151 151
28 27 26  14 12 12  23 19 18  31 27 26  34 30 29  35 32 31
37 34 33  36 32 31  37 33 32  36 32 31  35 30 28  37 33 32
30 26 25  20 16 15  16 14 14  56 55 55  168 168 168  179 179 179
179 179 179  179 179 179  179 179 179  179 179 179  179 179 179  179 179 179
179 179 179  179 179 179  179 179 179  179 179 179  179 179 179  179 179 179
179 179 179  179 179 179  179 179 179  179 179 179  179 179 179  179 179 179
0 0 0  0 0 0  0 0 0  0 0 0  0 0 0  0 0 0
0 0 0  0 0 0  0 0 0  0 0 0  0 0 0  0 0 0
0 0 0  0 0 0  179 179 179  179 179 179  179 179 179  179 179 179
179 179 179  179 179 179  179 179 179  179 179 179  179 179 179  179 179 179
179 179 179  179 179 179  179 179 179  179 179 179  179 179 179  179 179 179
179 179 179  179 179 179  179 179 179  179 179 179  162 161 161  50 48 47
20 17 16  16 14 14  23 19 20  26 23 23  30 28 26  29 26 25
30 28 26  32 28 27  26 23 22  20 17 16  18 16 15  23 21 22
68 67 67  176 176 176  179 179 179  179 179 179  179 179 179  179 179 179
179 179 179  179 179 179  179 179 179  179 179 179  179 179 179  179 179 179
179 179 179  179 179 179  179 179 179  179 179 179  179 179 179  179 179 179
179 179 179  179 179 179  179 179 179  179 179 179  179 179 179  179 179 179
179 179 179  179 179 179  179 179 179  179 179 179  179 179 179  179 179 179
179 179 179  176 176 176  102 101 102  29 26 25  22 18 17  32 28 27
37 33 32  33 30 29  34 31 30  34 30 29  38 32 32  35 31 30
25 23 21  21 19 17  65 64 64  170 169 169  179 179 179  179 179 179
179 179 179  76 75 75  22 19 19  24 20 19  33 29 28  36 32 31
35 31 30  35 31 30  36 32 31  35 31 30  35 31 30  36 32 31
34 30 29  37 33 32  35 31 30  34 30 29  35 31 30  32 28 27
24 20 19  22 19 18  83 82 83  179 179 179  179 179 179  179 179 179
179 179 179  179 179 179  179 179 179  179 179 179  179 179 179  179 179 179
179 179 179  179 179 179  179 179 179  179 179 179  179 179 179  179 179 179
179 179 179  179 179 179  179 179 179  179 179 179  179 179 179  167 167 167
68 67 67  22 19 18  25 21 20  34 30 29  35 31 30  35 31 30
34 30 29  35 31 30  35 31 30  35 31 30  35 31 30  35 31 30
35 31 30  35 31 30  35 31 30  36 32 31  32 28 27  20 17 16
23 21 20  114 114 114  179 179 179  179 179 179  145 145 145  39 34 34
20 17 16  30 26 25  35 32 31  35 31 30  35 31 30  34 30 29
36 32 31  36 32 31  27 24 22  20 18 17  43 42 42  167 167 167
179 179 179  179 179 179  179 179 179  179 179 179  179 179 179  179 179 179
179 179 179  179 179 179  179 179 179  179 179 179  179 179 179  179 179 179
179 179 179  179 179 179  179 179 179  179 179 179  179 179 179  179 179 179
179 179 179  179 179 179  179 179 179  179 179 179  179 179 179  179 179 179
179 179 179  179 179 179  179 179 179  179 179 179  179 179 179  179 179 179
179 179 179  43 42 42  19 16 17  19 15 14  22 19 18  28 25 24
29 26 25  32 28 27  31 27 26  31 27 26  26 22 21  17 14 13
20 16 15  23 21 20  71 69 70  169 169 169  179 179 179  179 179 179
179 179 179  179 179 179  179 179 179  179 179 179  179 179 179  179 179 179
179 179 179  179 179 179  179 179 179  179 179 179  179 179 179  179 179 179
179 179 179  179 179 179  179 179 179  179 179 179  179 179 179  0 0 0
0 0 0  0 0 0  0 0 0  0 0 0  0 0 0  0 0 0
0 0 0  0 0 0  0 0 0  0 0 0  0 0 0  0 0 0
0 0 0  0 0 0  0 0 0  179 179 179  179 179 179  179 179 179
179 179 179  179 179 179  179 179 179  179 179 179  179 179 179  179 179 179
179 179 179  179 179 179  179 179 179  179 179 179  179 179 179  179 179 179
179 179 179  179 179 179  179 179 179  179 179 179  179 179 179  179 179 179
99 97 97  42 39 40  26 23 23  20 18 19  18 16 17  19 17 16
19 17 16  19 18 15  22 19 18  28 26 26  52 50 50  133 133 133
179 179 179  179 179 179  179 179 179  179 179 179  179 179 179  179 179 179
179 179 179  179 179 179  179 179 179  179 179 179  179 179 179  179 179 179
179 179 179  179 179 179  179 179 179  179 179 179  179 179 179  179 179 179
179 179 179  179 179 179  179 179 179  179 179 179  179 179 179  179 179 179
179 179 179  179 179 179  179 179 179  179 179 179  179 179 179  179 179 179
179 179 179  109 108 108  29 26 25  22 19 18  32 28 27  35 31 30
35 31 30  35 32 31  34 31 30  36 32 31  34 30 29  25 21 20
22 18 17  60 56 57  165 165 164  179 179 179  179 179 179  179 179 179
179 179 179  179 179 179  76 75 75  24 19 20  23 19 18  32 28 27
35 31 30  35 31 30  35 31 30  35 31 30  36 32 31  34 30 29
35 31 30  35 31 30  35 32 31  36 32 31  35 31 30  36 32 31
33 29 28  23 20 19  21 19 20  74 72 73  178 178 178  179 179 179
179 179 179  179 179 179  179 179 179  179 179 179  179 179 179  179 179 179
179 179 179  179 179 179  179 179 179  179 179 179  179 179 179  179 179 179
179 179 179  179 179 179  179 179 179  179 179 179  179 179 179  68 67 67
21 19 20  22 19 18  32 29 28  35 31 30  35 31 30  35 31 30
35 31 30  35 32 31  35 31 30  35 31 30  35 31 30  35 31 30
35 31 30  35 31 30  35 31 30  33 29 28  21 18 17  23 21 22
84 83 83  176 176 176  179 179 179  179 179 179  179 179 179  145 145 145
38 37 36  20 17 16  29 25 24  34 30 29  35 32 31  36 32 31
34 30 29  36 32 31  34 30 29  28 25 23  20 18 16  43 42 42
160 160 160  179 179 179  179 179 179  179 179 179  179 179 179  179 179 179
179 179 179  179 179 179  179 179 179  179 179 179  179 179 179  179 179 179
179 179 179  179 179 179  179 179 179  179 179 179  179 179 179  179 179 179
179 179 179  179 179 179  179 179 179  179 179 179  179 179 179  179 179 179
179 179 179  179 179 179  179 179 179  179 179 179  179 179 179  179 179 179
179 179 179  174 174 174  92 90 91  38 37 36  24 21 22  19 15 16
18 15 16  19 16 16  19 15 16  19 16 16  19 17 16  28 26 26
52 50 50  123 123 123  179 179 179  179 179 179  179 179 179  179 179 179
179 179 179  179 179 179  179 179 179  179 179 179  179 179 179  179 179 179
179 179 179  179 179 179  179 179 179  179 179 179  179 179 179  179 179 179
179 179 179  179 179 179  179 179 179  179 179 179  179 179 179  0 0 0
0 0 0  0 0 0  0 0 0  0 0 0  0 0 0  0 0 0
0 0 0  0 0 0  0 0 0  0 0 0  0 0 0  0 0 0
0 0 0  0 0 0  0 0 0  179 179 179  179 179 179  179 179 179
179 179 179  179 179 179  179 179 179  179 179 179  179 179 179  179 179 179
179 179 179  179 179 179  179 179 179  179 179 179  179 179 179  179 179 179
179 179 179  179 179 179  179 179 179  179 179 179  179 179 179  179 179 179
179 179 179  169 169 169  119 118 118  86 84 84  65 64 64  60 59 59
60 59 59  71 69 70  95 95 95  138 138 138  177 177 177  179 179 179
179 179 179  179 179 179  179 179 179  179 179 179  179 179 179  179 179 179
179 179 179  179 179 179  179 179 179  179 179 179  179 179 179  179 179 179
179 179 179  179 179 179  179 179 179  179 179 179  179 179 179  179 179 179
179 179 179  179 179 179  179 179 179  179 179 179  179 179 179  179 179 179
179 179 179  179 179 179  179 179 179  179 179 179  179 179 179  175 175 175
156 155 155  30 26 25  22 19 18  32 28 27  35 31 30  35 31 30
34 30 29  35 31 30  35 31 30  33 29 28  24 22 20  21 16 16
65 64 64  168 168 168  179 179 179  179 179 179  179 179 179  179 179 179
179 179 179  179 179 179  179 179 179  92 90 91  24 19 20  21 18 19
32 28 27  35 32 31  36 32 31  36 32 31  35 31 30  34 30 29
35 31 30  34 30 29  36 32 32  35 31 30  35 31 30  36 32 31
35 32 31  33 29 28  23 21 20  22 21 19  76 75 75  179 179 179
179 179 179  179 179 179  179 179 179  179 179 179  179 179 179  179 179 179
179 179 179  179 179 179  179 179 179  179 179 179  179 179 179  179 179 179
179 179 179  179 179 179  179 179 179  179 179 179  83 82 83  22 18 17
22 19 18  32 29 28  34 31 30  35 31 30  35 32 31  34 30 29
35 31 30  34 31 30  35 32 31  34 30 29  35 31 30  35 31 30
36 32 31  35 31 30  33 29 28  21 19 20  23 21 22  84 83 83
171 171 171  179 179 179  179 179 179  179 179 179  179 179 179  179 179 179
157 157 157  42 39 40  21 17 16  28 24 23  34 31 30  34 30 29
36 32 31  36 32 31  34 30 29  34 30 29  28 25 24  20 17 16
42 38 37  168 168 168  179 179 179  179 179 179  179 179 179  179 179 179
179 179 179  179 179 179  179 179 179  179 179 179  179 179 179  179 179 179
179 179 179  179 179 179  179 179 179  179 179 179  179 179 179  179 179 179
179 179 179  179 179 179  179 179 179  179 179 179  179 179 179  179 179 179
179 179 179  179 179 179  179 179 179  179 179 179  179 179 179  179 179 179
179 179 179  179 179 179  179 179 179  163 162 163  119 118 118  83 82 83
65 64 64  60 56 57  60 59 59  71 69 70  95 95 95  138 138 138
179 179 179  179 179 179  179 179 179  179 179 179  179 179 179  179 179 179
179 179 179  179 179 179  179 179 179  179 179 179  179 179 179  179 179 179
179 179 179  179 179 179  179 179 179  179 179 179  179 179 179  179 179 179
179 179 179  179 179 179  179 179 179  179 179 179  179 179 179  0 0 0
0 0 0  0 0 0  0 0 0  0 0 0  0 0 0  0 0 0
0 0 0  0 0 0  0 0 0  0 0 0  0 0 0  0 0 0
0 0 0  0 0 0  0 0 0  0 0 0  179 179 179  179 179 179
179 179 179  179 179 179  179 179 179  179 179 179  179 179 179  179 179 179
179 179 179  179 179 179  179 179 179  179 179 179  179 179 179  179 179 179
179 179 179  179 179 179  179 179 179  179 179 179  179 179 179  179 179 179
179 179 179  179 179 179  179 179 179  179 179 179  179 179 179  179 179 179
179 179 179  179 179 179  179 179 179  179 179 179  179 179 179  179 179 179
179 179 179  179 179 179  179 179 179  179 179 179  179 179 179  179 179 179
179 179 179  179 179 179  179 179 179  179 179 179  179 179 179  179 179 179
179 179 179  179 179 179  179 179 179  179 179 179  179 179 179  179 179 179
179 179 179  179 179 179  179 179 179  179 179 179  179 179 179  179 179 179
179 179 179  179 179 179  179 179 179  179 179 179  179 179 179  150 149 149
28 25 24  22 19 18  33 29 28  34 30 29  35 31 30  36 32 32
35 31 30  35 31 30  33 29 28  23 21 19  21 18 17  81 80 80
174 174 174  179 179 179  179 179 179  179 179 179  179 179 179  179 179 179
179 179 179  179 179 179  179 179 179  179 179 179  88 87 87  21 19 20
20 19 18  32 28 27  36 32 31  34 30 29  35 31 30  36 32 31
36 32 31  34 30 29  35 31 30  35 31 30  34 30 29  33 29 28
36 32 31  37 33 32  30 28 26  23 22 20  21 20 19  88 87 87
178 178 178  179 179 179  179 179 179  179 179 179  179 179 179  179 179 179
179 179 179  179 179 179  179 179 179  179 179 179  179 179 179  179 179 179
179 179 179  179 179 179  179 179 179  86 84 84  20 17 16  23 18 17
33 29 28  35 31 30  35 31 30  35 31 30  35 31 30  35 31 30
35 31 30  35 31 30  34 30 29  37 33 32  35 31 30  34 31 30
35 31 30  35 31 30  22 18 17  24 21 22  95 95 95  174 174 174
179 179 179  179 179 179  179 179 179  179 179 179  179 179 179  179 179 179
179 179 179  148 148 148  38 37 36  20 17 16  30 26 25  36 32 31
34 30 29  35 31 30  33 30 29  36 32 31  33 29 28  29 25 24
18 16 15  42 38 37  157 157 157  179 179 179  179 179 179  179 179 179
179 179 179  179 179 179  179 179 179  179 179 179  179 179 179  179 179 179
179 179 179  179 179 179  179 179 179  179 179 179  179 179 179  179 179 179
179 179 179  179 179 179  179 179 179  179 179 179  179 179 179  179 179 179
179 179 179  179 179 179  179 179 179  179 179 179  179 179 179  179 179 179
179 179 179  179 179 179  179 179 179  179 179 179  179 179 179  179 179 179
179 179 179  179 179 179  179 179 179  179 179 179  179 179 179  179 179 179
179 179 179  179 179 179  179 179 179  179 179 179  179 179 179  179 179 179
179 179 179  179 179 179  179 179 179  179 179 179  179 179 179  179 179 179
179 179 179  179 179 179  179 179 179  179 179 179  179 179 179  179 179 179
179 179 179  179 179 179  179 179 179  179 179 179  0 0 0  0 0 0
0 0 0  0 0 0  0 0 0  0 0 0  0 0 0  0 0 0
0 0 0  0 0 0  0 0 0  0 0 0  0 0 0  0 0 0
0 0 0  0 0 0  0 0 0  0 0 0  179 179 179  179 179 179
179 179 179  179 179 179  179 179 179  179 179 179  179 179 179  179 179 179
179 179 179  179 179 179  179 179 179  179 179 179  179 179 179  179 179 179
179 179 179  179 179 179  179 179 179  179 179 179  179 179 179  179 179 179
179 179 179  179 179 179  179 179 179  179 179 179  179 179 179  179 179 179
179 179 179  179 179 179  179 179 179  179 179 179  179 179 179  179 179 179
179 179 179  179 179 179  179 179 179  179 179 179  179 179 179  179 179 179
179 179 179  179 179 179  179 179 179  179 179 179  179 179 179  179 179 179
179 179 179  179 179 179  179 179 179  179 179 179  179 179 179  179 179 179
179 179 179  179 179 179  179 179 179  179 179 179  179 179 179  179 179 179
179 179 179  179 179 179  179 179 179  178 178 178  126 125 126  29 25 24
18 16 17  31 27 26  34 30 29  36 32 31  35 31 30  32 28 27
36 32 31  36 32 31  25 23 21  21 18 17  88 87 87  179 179 179
179 179 179  179 179 179  179 179 179  179 179 179  179 179 179  179 179 179
179 179 179  179 179 179  179 179 179  179 179 179  179 179 179  88 87 87
22 19 18  24 20 19  34 30 29  35 31 30  35 31 30  34 30 29
33 29 28  36 32 31  32 28 27  36 32 31  36 32 31  35 31 30
34 30 29  32 28 27  35 31 30  33 30 29  23 22 20  23 21 20
119 118 118  179 179 179  179 179 179  179 179 179  179 179 179  179 179 179
179 179 179  179 179 179  179 179 179  179 179 179  179 179 179  179 179 179
179 179 179  173 173 173  81 80 80  20 17 16  21 17 16  34 30 29
36 31 30  35 31 30  35 31 30  35 31 30  35 31 30  35 31 30
35 31 30  35 31 30  36 32 31  33 29 28  36 32 31  37 33 32
34 30 29  21 20 19  22 19 19  123 123 123  179 179 179  179 179 179
179 179 179  179 179 179  179 179 179  179 179 179  179 179 179  179 179 179
179 179 179  179 179 179  150 149 149  38 37 36  19 15 14  31 27 26
36 32 31  35 31 30  36 32 31  35 31 30  37 34 33  35 31 30
28 24 23  18 16 15  43 42 42  157 157 157  179 179 179  179 179 179
179 179 179  179 179 179  179 179 179  179 179 179  179 179 179  179 179 179
179 179 179  179 179 179  179 179 179  179 179 179  179 179 179  179 179 179
179 179 179  179 179 179  179 179 179  179 179 179  179 179 179  179 179 179
179 179 179  179 179 179  179 179 179  179 179 179  179 179 179  179 179 179
179 179 179  179 179 179  179 179 179  179 179 179  179 179 179  179 179 179
179 179 179  179 179 179  179 179 179  179 179 179  179 179 179  179 179 179
179 179 179  179 179 179  179 179 179  179 179 179  179 179 179  179 179 179
179 179 179  179 179 179  179 179 179  179 179 179  179 179 179  179 179 179
179 179 179  179 179 179  179 179 179  179 179 179  179 179 179  179 179 179
179 179 179  179 179 179  179 179 179  179 179 179  0 0 0  0 0 0
0 0 0  0 0 0  0 0 0  0 0 0  0 0 0  0 0 0
0 0 0  0 0 0  0 0 0  0 0 0  0 0 0  0 0 0
0 0 0  0 0 0  0 0 0  0 0 0  179 179 179  179 179 179
179 179 179  179 179 179  179 179 179  179 179 179  179 179 179  179 179 179
179 179 179  179 179 179  179 179 179  179 179 179  179 179 179  179 179 179
179 179 179  179 179 179  179 179 179  179 179 179  179 179 179  179 179 179
179 179 179  179 179 179  179 179 179  179 179 179  179 179 179  179 179 179
179 179 179  179 179 179  179 179 179  179 179 179  179 179 179  179 179 179
179 179 179  179 179 179  179 179 179  179 179 179  179 179 179  179 179 179
179 179 179  179 179 179  179 179 179  179 179 179  179 179 179  179 179 179
179 179 179  179 179 179  179 179 179  179 179 179  179 179 179  179 179 179
179 179 179  179 179 179  179 179 179  179 179 179  179 179 179  179 179 179
179 179 179  179 179 179  176 176 176  109 108 108  30 26 25  22 17 18
31 26 27  35 31 30  36 32 31  35 31 30  34 30 29  37 34 33
33 29 28  26 22 21  22 19 18  65 64 64  172 172 172  179 179 179
179 179 179  179 179 179  179 179 179  179 179 179  179 179 179  179 179 179
179 179 179  179 179 179  179 179 179  179 179 179  179 179 179  179 179 179
76 75 75  20 17 18  20 19 18  32 29 28  34 30 29  36 32 31
36 32 31  36 32 31  35 31 30  34 30 29  34 30 29  35 31 30
35 31 30  35 31 30  36 32 31  35 31 30  33 29 28  21 19 20
22 20 19  92 90 91  178 178 178  179 179 179  179 179 179  179 179 179
179 179 179  179 179 179  179 179 179  179 179 179  179 179 179  179 179 179
165 165 164  68 67 67  21 18 17  21 17 16  35 31 30  35 31 30
36 31 30  36 31 30  35 31 30  35 31 30  35 31 30  35 31 30
35 31 30  35 31 30  35 31 30  34 30 29  36 32 31  32 28 27
21 19 17  23 20 19  126 125 126  179 179 179  179 179 179  179 179 179
179 179 179  179 179 179  179 179 179  179 179 179  179 179 179  179 179 179
179 179 179  179 179 179  179 179 179  145 145 145  36 35 34  16 14 14
28 27 26  35 32 31  35 31 30  34 30 29  34 30 29  35 31 30
34 30 29  27 23 22  20 17 16  43 42 42  157 157 157  179 179 179
179 179 179  179 179 179  179 179 179  179 179 179  179 179 179  179 179 179
179 179 179  179 179 179  179 179 179  179 179 179  179 179 179  179 179 179
179 179 179  179 179 179  179 179 179  179 179 179  179 179 179  179 179 179
179 179 179  179 179 179  179 179 179  179 179 179  179 179 179  179 179 179
179 179 179  179 179 179  179 179 179  179 179 179  179 179 179  179 179 179
179 179 179  179 179 179  179 179 179  179 179 179  179 179 179  179 179 179
179 179 179  179 179 179  179 179 179  179 179 179  179 179 179  179 179 179
179 179 179  179 179 179  179 179 179  179 179 179  179 179 179  179 179 179
179 179 179  179 179 179  179 179 179  179 179 179  179 179 179  179 179 179
179 179 179  179 179 179  179 179 179  0 0 0  0 0 0  0 0 0
0 0 0  0 0 0  0 0 0  0 0 0  0 0 0  0 0 0
0 0 0  0 0 0  0 0 0  0 0 0  0 0 0  0 0 0
0 0 0  0 0 0  0 0 0  0 0 0  179 179 179  179 179 179
179 179 179  179 179 179  179 179 179  179 179 179  179 179 179  179 179 179
179 179 179  179 179 179  179 179 179  179 179 179  179 179 179  179 179 179
179 179 179  179 179 179  179 179 179  179 179 179  179 179 179  179 179 179
179 179 179  179 179 179  179 179 179  179 179 179  179 179 179  179 179 179
179 179 179  179 179 179  179 179 179  179 179 179  179 179 179  179 179 179
179 179 179  179 179 179  179 179 179  179 179 179  179 179 179  179 179 179
179 179 179  179 179 179  179 179 179  179 179 179  179 179 179  179 179 179
179 179 179  179 179 179  179 179 179  179 179 179  179 179 179  179 179 179
179 179 179  179 179 179  179 179 179  179 179 179  179 179 179  179 179 179
179 179 179  175 175 175  102 101 102  30 26 25  23 18 17  33 29 28
35 31 30  35 31 30  35 31 30  35 31 30  35 31 30  35 31 30
26 23 22  22 18 17  60 59 59  170 169 169  179 179 179  179 179 179
179 179 179  179 179 179  179 179 179  179 179 179  179 179 179  179 179 179
179 179 179  179 179 179  179 179 179  179 179 179  179 179 179  179 179 179
177 177 177  76 75 75  20 17 18  20 17 18  33 29 28  35 31 30
35 31 30  34 30 29  34 30 29  35 31 30  34 30 29  35 31 30
36 32 31  34 30 29  35 31 30  34 30 29  35 31 30  31 26 27
24 21 22  23 21 22  74 72 73  175 175 175  179 179 179  179 179 179
179 179 179  179 179 179  179 179 179  179 179 179  179 179 179  174 174 174
68 67 67  22 20 19  21 19 17  33 30 29  36 32 31  34 30 29
35 31 31  35 30 29  35 31 30  35 31 30  35 31 30  35 31 30
35 31 30  35 31 30  35 32 31  35 32 31  32 29 28  22 19 18
23 21 22  99 97 97  179 179 179  179 179 179  179 179 179  179 179 179
179 179 179  179 179 179  179 179 179  179 179 179  179 179 179  179 179 179
179 179 179  179 179 179  179 179 179  179 179 179  152 151 151  38 37 36
16 14 14  27 25 23  35 31 30  35 31 30  35 31 30  36 32 31
34 30 29  36 31 30  27 23 22  20 16 15  43 42 42  163 162 163
179 179 179  179 179 179  179 179 179  179 179 179  179 179 179  179 179 179
179 179 179  179 179 179  179 179 179  179 179 179  179 179 179  179 179 179
179 179 179  179 179 179  179 179 179  179 179 179  179 179 179  179 179 179
179 179 179  179 179 179  179 179 179  179 179 179  179 179 179  179 179 179
179 179 179  178 178 178  178 178 178  178 178 178  178 178 178  178 178 178
178 178 178  178 178 178  178 178 178  178 178 178  178 178 178  178 178 178
178 178 178  178 178 178  179 179 179  179 179 179  179 179 179  179 179 179
179 179 179  179 179 179  179 179 179  179 179 179  179 179 179  179 179 179
179 179 179  179 179 179  179 179 179  179 179 179  179 179 179  179 179 179
179 179 179  179 179 179  0 0 0  0 0 0  0 0 0  0 0 0
0 0 0  0 0 0  0 0 0  0 0 0  0 0 0  0 0 0
0 0 0  0 0 0  0 0 0  0 0 0  0 0 0  0 0 0
0 0 0  0 0 0  0 0 0  0 0 0  179 179 179  179 179 179
179 179 179  179 179 179  179 179 179  179 179 179  179 179 179  179 179 179
179 179 179  179 179 179  179 179 179  179 179 179  179 179 179  179 179 179
179 179 179  179 179 179  179 179 179  179 179 179  179 179 179  179 179 179
179 179 179  179 179 179  179 179 179  179 179 179  179 179 179  179 179 179
179 179 179  179 179 179  179 179 179  179 179 179  179 179 179  179 179 179
179 179 179  179 179 179  179 179 179  179 179 179  179 179 179  179 179 179
179 179 179  179 179 179  179 179 179  179 179 179  179 179 179  179 179 179
179 179 179  179 179 179  179 179 179  179 179 179  179 179 179  179 179 179
179 179 179  179 179 179  179 179 179  179 179 179  179 179 179  179 179 179
179 179 179  129 128 129  29 25 24  23 19 18  32 28 27  36 32 31
33 29 28  35 31 30  36 32 31  35 31 30  34 30 29  26 23 22
22 18 17  60 59 59  165 165 164  179 179 179  179 179 179  179 179 179
179 179 179  179 179 179  179 179 179  179 179 179  179 179 179  179 179 179
179 179 179  179 179 179  179 179 179  179 179 179  179 179 179  179 179 179
177 177 177  178 178 178  84 83 83  22 17 18  23 18 19  33 29 28
35 31 30  34 30 29  35 31 30  36 32 31  34 31 30  34 31 30
34 31 30  36 32 31  35 31 30  35 31 30  35 31 30  35 31 30
35 31 30  25 21 20  21 20 21  74 72 73  179 179 179  179 179 179
179 179 179  179 179 179  179 179 179  179 179 179  179 179 179  86 84 84
20 18 19  22 21 19  33 30 29  33 29 28  37 33 32  34 30 29
35 31 30  36 32 31  35 31 30  35 31 30  35 31 30  35 31 30
35 31 30  35 31 30  36 32 31  35 31 30  26 22 21  23 21 20
81 80 80  171 171 171  179 179 179  179 179 179  179 179 179  179 179 179
179 179 179  179 179 179  179 179 179  179 179 179  179 179 179  179 179 179
179 179 179  179 179 179  179 179 179  179 179 179  179 179 179  156 155 155
38 37 36  18 16 15  27 25 23  36 32 31  35 31 30  35 31 30
35 31 31  35 31 30  34 30 29  27 24 22  17 15 16  38 37 36
163 162 163  179 179 179  179 179 179  179 179 179  179 179 179  179 179 179
179 179 179  179 179 179  179 179 179  179 179 179  179 179 179  179 179 179
179 179 179  179 179 179  179 179 179  179 179 179  179 179 179  179 179 179
179 179 179  179 179 179  179 179 179  179 179 179  179 179 179  179 179 179
179 179 179  178 178 178  178 178 178  178 178 178  178 178 178  178 178 178
178 178 178  178 178 178  178 178 178  178 178 178  178 178 178  178 178 178
178 178 178  178 178 178  178 178 178  178 178 178  179 179 179  179 179 179
179 179 179  179 179 179  179 179 179  179 179 179  179 179 179  179 179 179
179 179 179  179 179 179  179 179 179  179 179 179  179 179 179  179 179 179
179 179 179  179 179 179  0 0 0  0 0 0  0 0 0  0 0 0
0 0 0  0 0 0  0 0 0  0 0 0  0 0 0  0 0 0
0 0 0  0 0 0  0 0 0  0 0 0  0 0 0  0 0 0
0 0 0  0 0 0  0 0 0  179 179 179  179 179 179  179 179 179
179 179 179  179 179 179  179 179 179  179 179 179  179 179 179  179 179 179
179 179 179  179 179 179  179 179 179  179 179 179  179 179 179  179 179 179
179 179 179  179 179 179  179 179 179  179 179 179  179 179 179  179 179 179
179 179 179  179 179 179  179 179 179  179 179 179  179 179 179  179 179 179
179 179 179  179 179 179  179 179 179  179 179 179  179 179 179  179 179 179
179 179 179  179 179 179  179 179 179  179 179 179  179 179 179  179 179 179
179 179 179  179 179 179  179 179 179  179 179 179  179 179 179  179 179 179
179 179 179  179 179 179  179 179 179  179 179 179  179 179 179  179 179 179
179 179 179  179 179 179  179 179 179  179 179 179  179 179 179  179 179 179
145 145 145  29 25 24  20 17 16  32 28 27  36 32 31  35 31 30
35 31 29  35 31 30  35 31 30  34 31 30  25 21 20  21 18 17
79 76 76  168 168 168  179 179 179  179 179 179  179 179 179  179 179 179
179 179 179  179 179 179  179 179 179  179 179 179  179 179 179  179 179 179
179 179 179  179 179 179  179 179 179  179 179 179  179 179 179  179 179 179
179 179 179  179 179 179  179 179 179  88 87 87  24 19 20  22 18 17
33 29 28  36 32 31  34 30 29  35 31 30  35 31 30  35 31 30
34 30 29  36 32 31  34 30 29  35 31 30  35 31 30  35 32 31
36 32 31  33 29 28  23 21 22  21 19 20  86 84 84  178 178 178
179 179 179  179 179 179  179 179 179  179 179 179  84 83 83  18 16 17
20 18 19  32 29 28  34 31 30  35 32 31  34 30 29  35 31 30
36 32 31  35 31 30  35 31 30  35 31 30  35 31 30  35 31 30
35 31 30  35 31 30  34 30 29  36 32 31  28 25 24  20 18 17
65 64 64  165 165 164  179 179 179  179 179 179  179 179 179  179 179 179
179 179 179  179 179 179  179 179 179  179 179 179  179 179 179  179 179 179
179 179 179  179 179 179  179 179 179  179 179 179  179 179 179  179 179 179
148 148 148  42 39 40  19 15 14  28 24 23  35 31 30  37 31 31
34 29 29  34 30 29  35 31 30  35 31 30  28 25 26  18 15 16
38 37 36  160 160 160  179 179 179  179 179 179  179 179 179  179 179 179
179 179 179  179 179 179  179 179 179  179 179 179  179 179 179  179 179 179
179 179 179  179 179 179  179 179 179  179 179 179  179 179 179  179 179 179
179 179 179  179 179 179  179 179 179  179 179 179  179 179 179  179 179 179
179 179 179  178 178 178  178 178 178  178 178 178  178 178 178  178 178 178
178 178 178  177 177 177  177 177 177  178 178 178  178 178 178  178 178 178
178 178 178  178 178 178  178 178 178  178 178 178  178 178 178  179 179 179
179 179 179  179 179 179  179 179 179  179 179 179  179 179 179  179 179 179
179 179 179  179 179 179  179 179 179  179 179 179  179 179 179  179 179 179
179 179 179  0 0 0  0 0 0  0 0 0  0 0 0  0 0 0
0 0 0  0 0 0  0 0 0  0 0 0  0 0 0  0 0 0
0 0 0  0 0 0  0 0 0  0 0 0  0 0 0  0 0 0
0 0 0  0 0 0  0 0 0  179 179 179  179 179 179  179 179 179
179 179 179  179 179 179  179 179 179  179 179 179  179 179 179  179 179 179
179 179 179  179 179 179  179 179 179  179 179 179  179 179 179  179 179 179
179 179 179  179 179 179  179 179 179  179 179 179  179 179 179  179 179 179
179 179 179  173 172 172  114 114 114  63 60 61  38 37 36  33 31 31
33 33 33  42 39 40  71 69 70  150 149 149  179 179 179  179 179 179
179 179 179  179 179 179  179 179 179  179 179 179  179 179 179  179 179 179
179 179 179  179 179 179  179 179 179  179 179 179  179 179 179  179 179 179
179 179 179  179 179 179  179 179 179  179 179 179  179 179 179  179 179 179
179 179 179  179 179 179  179 179 179  179 179 179  179 179 179  157 157 157
29 25 24  21 17 16  34 30 29  35 31 31  36 31 30  34 30 29
37 33 32  35 31 30  33 30 29  25 23 21  20 17 16  102 101 102
179 179 179  179 179 179  179 179 179  179 179 179  179 179 179  179 179 179
179 179 179  179 179 179  179 179 179  179 179 179  179 179 179  179 179 179
179 179 179  179 179 179  179 179 179  179 179 179  179 179 179  179 179 179
179 179 179  179 179 179  179 179 179  179 179 179  92 90 91  20 16 18
19 18 18  34 31 30  35 31 30  36 32 31  35 31 30  33 29 28
36 32 31  35 31 30  35 31 30  36 32 31  35 31 30  34 30 29
37 33 32  35 31 30  33 29 28  23 20 19  22 19 18  126 125 126
179 179 179  179 179 179  179 179 179  86 84 84  19 17 16  19 17 16
34 31 30  35 31 30  35 31 30  35 31 30  35 31 30  35 31 30
35 31 30  34 30 29  35 31 29  37 33 32  35 31 30  34 30 29
35 31 30  35 31 30  35 32 31  33 29 28  35 31 30  24 20 19
19 17 16  88 87 87  179 179 179  179 179 179  179 179 179  179 179 179
179 179 179  179 179 179  179 179 179  179 179 179  179 179 179  179 179 179
179 179 179  179 179 179  179 179 179  179 179 179  179 179 179  179 179 179
179 179 179  163 162 163  42 39 40  17 15 16  31 26 27  37 33 32
33 29 28  35 31 30  35 31 30  34 30 29  36 32 31  29 25 24
20 16 15  43 42 42  171 171 171  179 179 179  179 179 179  179 179 179
179 179 179  179 179 179  179 179 179  179 179 179  179 179 179  179 179 179
179 179 179  179 179 179  179 179 179  179 179 179  179 179 179  179 179 179
179 179 179  179 179 179  179 179 179  179 179 179  179 179 179  179 179 179
179 179 179  178 178 178  178 178 178  178 178 178  178 178 178  178 178 178
178 178 178  178 178 178  178 178 178  178 178 178  178 178 178  178 178 178
178 178 178  178 178 178  178 178 178  178 178 178  179 179 179  179 179 179
179 179 179  179 179 179  179 179 179  179 179 179  179 179 179  179 179 179
179 179 179  179 179 179  179 179 179  179 179 179  179 179 179  179 179 179
0 0 0  0 0 0  0 0 0  0 0 0  0 0 0  0 0 0
0 0 0  0 0 0  0 0 0  0 0 0  0 0 0  0 0 0
0 0 0  0 0 0  0 0 0  0 0 0  0 0 0  0 0 0
0 0 0  0 0 0  0 0 0  179 179 179  179 179 179  179 179 179
179 179 179  179 179 179  179 179 179  179 179 179  179 179 179  179 179 179
179 179 179  179 179 179  179 179 179  179 179 179  179 179 179  179 179 179
179 179 179  179 179 179  179 179 179  179 179 179  178 178 178  129 128 129
60 59 59  26 23 23  21 18 19  21 19 20  22 20 19  23 21 22
22 20 19  21 19 20  19 18 18  19 18 18  28 27 26  81 80 80
145 145 145  179 179 179  179 179 179  179 179 179  179 179 179  179 179 179
179 179 179  179 179 179  179 179 179  179 179 179  179 179 179  179 179 179
179 179 179  179 179 179  179 179 179  179 179 179  179 179 179  179 179 179
179 179 179  179 179 179  179 179 179  172 172 172  109 108 108  29 25 24
23 19 18  32 28 27  34 30 29  36 31 30  36 32 31  35 31 30
34 30 29  34 30 29  25 22 20  21 18 17  71 69 70  176 176 176
179 179 179  179 179 179  179 179 179  179 179 179  179 179 179  179 179 179
179 179 179  179 179 179  179 179 179  179 179 179  179 179 179  179 179 179
179 179 179  179 179 179  179 179 179  179 179 179  179 179 179  179 179 179
179 179 179  179 179 179  179 179 179  179 179 179  179 179 179  79 76 76
19 16 17  21 19 17  33 29 28  36 32 31  35 31 30  35 31 30
35 31 30  36 32 31  34 31 30  34 30 29  35 31 30  35 31 30
32 28 27  37 33 32  36 32 31  31 29 26  23 22 20  23 20 19
99 97 97  167 167 167  74 72 73  21 18 17  22 19 18  35 32 31
35 31 30  35 31 30  35 31 30  35 31 30  35 31 30  35 31 30
35 31 30  36 32 31  34 30 29  33 29 28  36 32 32  36 32 31
36 32 31  35 31 30  35 31 30  35 31 30  35 31 31  34 29 29
23 21 20  18 17 15  81 80 80  175 175 175  179 179 179  179 179 179
179 179 179  179 179 179  179 179 179  179 179 179  179 179 179  179 179 179
179 179 179  179 179 179  179 179 179  179 179 179  179 179 179  179 179 179
179 179 179  179 179 179  145 145 145  36 35 34  18 15 16  28 27 26
35 31 30  35 31 30  34 30 29  34 30 29  37 33 32  35 31 30
28 24 23  20 16 15  42 39 40  152 151 151  179 179 179  179 179 179
179 179 179  179 179 179  179 179 179  179 179 179  179 179 179  179 179 179
179 179 179  179 179 179  179 179 179  179 179 179  179 179 179  179 179 179
179 179 179  179 179 179  179 179 179  179 179 179  179 179 179  179 179 179
179 179 179  178 178 178  178 178 178  178 178 178  178 178 178  177 177 177
177 177 177  177 177 177  177 177 177  177 177 177  178 178 178  178 178 178
178 178 178  178 178 178  178 178 178  178 178 178  178 178 178  178 178 178
179 179 179  179 179 179  179 179 179  179 179 179  179 179 179  179 179 179
179 179 179  179 179 179  179 179 179  179 179 179  179 179 179  0 0 0
0 0 0  0 0 0  0 0 0  0 0 0  0 0 0  0 0 0
0 0 0  0 0 0  0 0 0  0 0 0  0 0 0  0 0 0
0 0 0  0 0 0  0 0 0  0 0 0  0 0 0  0 0 0
0 0 0  0 0 0  179 179 179  179 179 179  179 179 179  179 179 179
179 179 179  179 179 179  179 179 179  179 179 179  179 179 179  179 179 179
179 179 179  179 179 179  179 179 179  179 179 179  179 179 179  179 179 179
179 179 179  179 179 179  179 179 179  173 173 173  81 80 80  29 25 24
19 15 16  24 20 19  28 24 23  31 27 26  34 30 29  35 31 30
35 31 30  34 30 29  31 27 26  25 23 21  20 18 17  16 15 15
33 33 33  109 108 108  179 179 179  179 179 179  179 179 179  179 179 179
179 179 179  179 179 179  179 179 179  179 179 179  179 179 179  179 179 179
179 179 179  179 179 179  179 179 179  179 179 179  179 179 179  179 179 179
179 179 179  179 179 179  176 176 176  99 97 97  28 25 24  22 19 18
32 28 27  35 31 30  35 31 30  35 31 30  35 31 30  35 31 30
34 30 29  26 22 21  23 18 17  60 56 57  167 167 167  179 179 179
179 179 179  179 179 179  179 179 179  179 179 179  179 179 179  179 179 179
179 179 179  179 179 179  179 179 179  179 179 179  179 179 179  179 179 179
179 179 179  179 179 179  179 179 179  179 179 179  179 179 179  179 179 179
179 179 179  179 179 179  179 179 179  179 179 179  179 179 179  179 179 179
76 75 75  20 18 19  25 21 20  32 28 27  34 30 29  35 31 30
34 30 29  33 30 29  36 32 31  34 30 29  35 31 30  35 31 30
35 31 30  34 30 29  34 31 30  36 32 31  33 30 29  23 21 19
23 19 21  48 46 45  22 19 18  22 19 18  34 30 29  35 31 30
35 31 30  35 31 30  35 31 30  35 31 30  35 31 30  35 31 30
35 31 30  35 31 30  35 31 30  36 32 31  35 31 30  33 29 28
34 30 29  35 31 30  35 31 30  34 30 29  36 31 30  35 31 31
34 30 29  23 21 19  18 17 16  65 64 64  176 176 176  179 179 179
179 179 179  179 179 179  179 179 179  179 179 179  179 179 179  179 179 179
179 179 179  179 179 179  179 179 179  179 179 179  179 179 179  179 179 179
179 179 179  179 179 179  179 179 179  142 141 141  36 33 33  17 15 13
27 25 24  35 31 30  35 31 30  37 33 32  33 29 28  36 32 31
34 30 29  27 25 23  19 17 16  42 39 40  163 162 163  179 179 179
179 179 179  179 179 179  179 179 179  179 179 179  179 179 179  179 179 179
179 179 179  179 179 179  179 179 179  179 179 179  179 179 179  179 179 179
179 179 179  179 179 179  179 179 179  179 179 179  179 179 179  179 179 179
179 179 179  177 177 177  177 177 177  176 176 176  176 176 176  176 176 176
176 176 176  176 176 176  176 176 176  176 176 176  176 176 176  176 176 176
176 176 176  177 177 177  177 177 177  177 177 177  178 178 178  178 178 178
178 178 178  178 178 178  179 179 179  179 179 179  179 179 179  179 179 179
179 179 179  179 179 179  179 179 179  179 179 179  179 179 179  0 0 0
0 0 0  0 0 0  0 0 0  0 0 0  0 0 0  0 0 0
0 0 0  0 0 0  0 0 0  0 0 0  0 0 0  0 0 0
0 0 0  0 0 0  0 0 0  0 0 0  0 0 0  0 0 0
0 0 0  0 0 0  179 179 179  179 179 179  179 179 179  179 179 179
179 179 179  179 179 179  179 179 179  179 179 179  179 179 179  179 179 179
179 179 179  179 179 179  179 179 179  179 179 179  179 179 179  179 179 179
179 179 179  179 179 179  170 169 169  65 64 64  22 19 18  22 18 17
30 26 25  33 29 28  37 33 32  35 31 30  32 28 27  29 25 24
30 26 25  33 29 28  35 31 30  35 31 30  33 29 28  26 23 22
16 15 15  25 25 24  106 104 105  179 179 179  179 179 179  179 179 179
179 179 179  179 179 179  179 179 179  179 179 179  179 179 179  179 179 179
179 179 179  179 179 179  179 179 179  179 179 179  179 179 179  179 179 179
179 179 179  179 179 179  123 123 123  29 25 24  22 18 17  32 28 27
35 31 30  36 32 31  35 31 30  33 30 29  36 32 31  33 30 29
24 22 20  22 17 18  60 59 59  163 162 163  179 179 179  179 179 179
179 179 179  179 179 179  179 179 179  179 179 179  179 179 179  179 179 179
179 179 179  179 179 179  179 179 179  179 179 179  179 179 179  179 179 179
179 179 179  179 179 179  179 179 179  179 179 179  179 179 179  179 179 179
179 179 179  179 179 179  179 179 179  179 179 179  179 179 179  179 179 179
179 179 179  81 80 80  21 18 19  20 18 19  31 26 27  36 32 31
35 32 31  34 30 29  35 31 30  35 31 30  34 30 29  34 30 29
36 32 31  33 29 28  35 31 30  36 32 31  35 31 30  32 28 27
26 23 22  19 15 16  24 20 19  33 29 28  35 31 30  34 30 29
35 31 30  35 31 30  35 31 30  35 31 30  35 31 30  35 31 30
35 31 30  35 31 30  35 31 30  36 32 31  32 29 28  26 22 21
23 20 18  30 28 26  34 31 30  36 32 31  35 30 29  35 31 31
35 31 30  33 29 28  24 22 20  19 17 16  60 59 59  176 176 176
179 179 179  179 179 179  179 179 179  179 179 179  179 179 179  179 179 179
179 179 179  179 179 179  179 179 179  179 179 179  179 179 179  179 179 179
179 179 179  179 179 179  179 179 179  179 179 179  152 151 151  42 39 40
17 15 13  28 25 24  34 30 29  35 31 30  33 29 28  35 31 31
35 31 31  33 30 29  27 24 22  18 16 15  42 38 37  160 160 160
179 179 179  179 179 179  179 179 179  179 179 179  179 179 179  179 179 179
179 179 179  179 179 179  179 179 179  179 179 179  179 179 179  179 179 179
179 179 179  179 179 179  179 179 179  179 179 179  179 179 179  179 179 179
179 179 179  176 176 176  176 176 176  175 175 175  175 175 175  175 175 175
175 175 175  174 174 174  175 175 175  175 175 175  175 175 175  175 175 175
175 175 175  176 176 176  176 176 176  177 177 177  177 177 177  177 177 177
178 178 178  178 178 178  178 178 178  179 179 179  178 178 178  179 179 179
179 179 179  179 179 179  179 179 179  0 0 0  0 0 0  0 0 0
0 0 0  0 0 0  0 0 0  0 0 0  0 0 0  0 0 0
0 0 0  0 0 0  0 0 0  0 0 0  0 0 0  0 0 0
0 0 0  0 0 0  0 0 0  0 0 0  0 0 0  0 0 0
0 0 0  0 0 0  179 179 179  179 179 179  179 179 179  179 179 179
179 179 179  179 179 179  179 179 179  179 179 179  179 179 179  179 179 179
179 179 179  179 179 179  179 179 179  179 179 179  179 179 179  179 179 179
179 179 179  177 177 177  81 80 80  23 19 20  25 21 20  31 27 26
36 32 31  35 32 31  28 25 24  25 21 20  24 20 19  21 17 16
22 18 17  22 19 18  24 22 20  32 28 27  36 32 31  34 30 29
30 28 26  20 16 15  27 25 24  138 138 138  179 179 179  179 179 179
179 179 179  179 179 179  179 179 179  179 179 179  179 179 179  179 179 179
179 179 179  179 179 179  179 179 179  179 179 179  179 179 179  179 179 179
179 179 179  138 138 138  28 25 24  22 18 17  33 29 28  36 32 31
34 30 29  36 32 31  33 29 28  37 33 32  33 29 28  23 22 20
21 17 16  71 69 70  168 168 168  179 179 179  179 179 179  179 179 179
179 179 179  179 179 179  179 179 179  179 179 179  179 179 179  179 179 179
179 179 179  179 179 179  179 179 179  179 179 179  179 179 179  179 179 179
179 179 179  179 179 179  179 179 179  179 179 179  179 179 179  179 179 179
179 179 179  179 179 179  179 179 179  179 179 179  179 179 179  179 179 179
179 179 179  179 179 179  88 87 87  21 18 20  21 18 19  32 28 27
35 31 30  35 31 30  34 30 29  34 30 29  35 31 30  35 31 30
35 31 30  36 32 31  34 30 29  36 32 31  34 31 30  36 32 31
34 30 29  29 25 24  33 29 28  35 31 30  35 31 30  33 29 28
37 33 32  35 31 30  35 31 30  35 31 30  35 31 30  35 31 30
35 31 30  34 30 29  35 31 30  34 30 29  21 18 19  25 21 20
26 22 21  20 18 16  33 29 28  37 33 32  35 31 30  34 30 29
35 31 30  36 32 31  34 30 29  25 22 20  18 17 16  63 60 61
172 172 172  179 179 179  179 179 179  179 179 179  179 179 179  179 179 179
179 179 179  179 179 179  179 179 179  179 179 179  179 179 179  179 179 179
179 179 179  179 179 179  179 179 179  179 179 179  179 179 179  163 162 163
38 37 36  19 15 16  30 26 25  36 32 32  34 30 29  35 31 30
34 30 29  35 31 30  36 32 31  26 22 21  17 17 15  38 37 36
163 162 163  179 179 179  179 179 179  179 179 179  179 179 179  179 179 179
179 179 179  179 179 179  179 179 179  179 179 179  179 179 179  179 179 179
179 179 179  179 179 179  179 179 179  179 179 179  179 179 179  179 179 179
179 179 179  176 176 176  175 175 175  175 175 175  174 174 174  174 174 174
174 174 174  174 174 174  174 174 174  174 174 174  174 174 174  174 174 174
175 175 175  175 175 175  176 176 176  176 176 176  177 177 177  177 177 177
177 177 177  178 178 178  178 178 178  178 178 178  178 178 178  179 179 179
179 179 179  179 179 179  0 0 0  0 0 0  0 0 0  0 0 0
0 0 0  0 0 0  0 0 0  0 0 0  0 0 0  0 0 0
0 0 0  0 0 0  0 0 0  0 0 0  0 0 0  0 0 0
0 0 0  0 0 0  0 0 0  0 0 0  0 0 0  0 0 0
0 0 0  179 179 179  179 179 179  179 179 179  179 179 179  179 179 179
179 179 179  179 179 179  179 179 179  179 179 179  179 179 179  179 179 179
179 179 179  179 179 179  179 179 179  179 179 179  179 179 179  179 179 179
179 179 179  129 128 129  28 25 24  22 19 18  33 29 28  34 30 29
36 32 31  23 22 20  19 17 16  25 23 21  42 38 37  60 56 57
52 50 50  36 33 33  23 19 20  21 18 17  26 22 21  37 33 32
35 31 30  30 26 25  19 15 14  50 48 47  179 179 179  179 179 179
179 179 179  179 179 179  179 179 179  179 179 179  179 179 179  179 179 179
179 179 179  179 179 179  179 179 179  179 179 179  179 179 179  179 179 179
150 149 149  26 23 23  21 19 17  33 29 28  34 31 30  34 30 29
34 30 29  39 34 34  36 32 31  34 30 29  24 22 20  20 17 16
99 97 97  176 176 176  179 179 179  179 179 179  179 179 179  179 179 179
179 179 179  179 179 179  179 179 179  179 179 179  179 179 179  179 179 179
179 179 179  179 179 179  179 179 179  179 179 179  179 179 179  179 179 179
179 179 179  179 179 179  179 179 179  179 179 179  179 179 179  179 179 179
179 179 179  179 179 179  179 179 179  179 179 179  179 179 179  179 179 179
179 179 179  179 179 179  177 177 177  92 90 91  23 18 19  23 19 18
33 29 28  37 33 32  36 32 31  36 32 31  34 30 29  37 33 32
34 30 29  33 29 28  36 32 32  35 31 30  36 32 31  33 29 28
36 32 31  36 32 31  35 31 30  35 31 30  33 29 28  39 34 34
32 28 27  35 31 30  35 31 30  35 31 30  35 31 30  35 31 30
35 31 30  35 31 30  36 32 31  19 17 16  23 18 19  102 101 102
112 111 111  26 23 22  23 19 16  32 28 27  35 31 30  36 32 31
34 30 29  36 32 31  34 30 29  34 31 30  25 23 21  19 17 16
79 76 76  178 178 178  179 179 179  179 179 179  179 179 179  179 179 179
179 179 179  179 179 179  179 179 179  179 179 179  179 179 179  179 179 179
179 179 179  179 179 179  179 179 179  179 179 179  179 179 179  179 179 179
148 148 148  38 37 36  17 14 13  29 25 24  37 33 32  35 31 30
35 32 31  34 30 29  35 31 30  36 32 32  29 26 25  18 16 15
42 38 37  166 166 166  179 179 179  179 179 179  179 179 179  179 179 179
179 179 179  179 179 179  179 179 179  179 179 179  179 179 179  179 179 179
179 179 179  179 179 179  179 179 179  179 179 179  179 179 179  179 179 179
179 179 179  176 176 176  176 176 176  175 175 175  175 175 175  175 175 175
174 174 174  174 174 174  174 174 174  174 174 174  175 175 175  175 175 175
175 175 175  175 175 175  176 176 176  176 176 176  177 177 177  177 177 177
177 177 177  178 178 178  178 178 178  178 178 178  178 178 178  179 179 179
179 179 179  0 0 0  0 0 0  0 0 0  0 0 0  0 0 0
0 0 0  0 0 0  0 0 0  0 0 0  0 0 0  0 0 0
0 0 0  0 0 0  0 0 0  0 0 0  0 0 0  0 0 0
0 0 0  0 0 0  0 0 0  0 0 0  0 0 0  0 0 0
0 0 0  179 179 179  179 179 179  179 179 179  179 179 179  179 179 179
179 179 179  179 179 179  179 179 179  179 179 179  179 179 179  179 179 179
179 179 179  179 179 179  179 179 179  179 179 179  179 179 179  179 179 179
179 179 179  56 55 55  20 18 16  30 28 26  36 32 31  34 30 29
21 20 19  18 17 15  55 52 53  150 149 149  179 179 179  173 173 173
179 179 179  179 179 179  123 123 123  38 37 36  20 16 15  27 25 23
35 31 30  36 32 31  27 23 22  20 17 16  123 123 123  175 175 175
179 179 179  179 179 179  179 179 179  179 179 179  179 179 179  179 179 179
179 179 179  179 179 179  179 179 179  179 179 179  177 177 177  114 114 114
27 25 24  18 17 15  32 28 27  36 32 31  35 31 30  35 32 31
36 32 31  33 29 28  34 30 29  27 23 22  21 17 16  79 76 76
179 179 179  179 179 179  179 179 179  179 179 179  179 179 179  179 179 179
179 179 179  179 179 179  179 179 179  179 179 179  179 179 179  179 179 179
179 179 179  179 179 179  179 179 179  179 179 179  179 179 179  179 179 179
179 179 179  179 179 179  179 179 179  179 179 179  179 179 179  179 179 179
179 179 179  179 179 179  179 179 179  179 179 179  179 179 179  179 179 179
179 179 179  179 179 179  179 179 179  179 179 179  81 80 80  23 18 19
23 19 18  33 29 29  35 31 30  35 31 30  35 31 30  35 31 30
35 31 30  36 32 31  36 32 31  35 31 30  35 32 31  34 30 29
34 30 29  34 31 30  34 30 29  35 31 30  36 32 31  32 28 27
36 32 31  35 31 30  35 31 30  35 31 30  35 31 30  35 31 30
35 31 30  32 29 28  19 18 18  22 19 19  129 128 129  179 179 179
178 178 178  126 125 126  27 22 21  21 18 17  34 30 29  36 32 31
36 32 31  34 30 29  36 32 31  36 31 30  33 29 28  23 20 19
20 17 16  88 87 87  176 176 176  179 179 179  179 179 179  179 179 179
179 179 179  179 179 179  179 179 179  179 179 179  179 179 179  179 179 179
179 179 179  179 179 179  179 179 179  179 179 179  179 179 179  179 179 179
179 179 179  150 149 149  36 35 34  19 15 14  29 25 24  36 32 31
34 31 30  34 31 30  35 31 30  34 30 29  35 32 31  28 25 24
18 16 15  42 39 40  154 154 154  179 179 179  179 179 179  179 179 179
179 179 179  179 179 179  179 179 179  179 179 179  179 179 179  179 179 179
179 179 179  179 179 179  179 179 179  179 179 179  179 179 179  179 179 179
179 179 179  177 177 177  176 176 176  176 176 176  175 175 175  175 175 175
175 175 175  175 175 175  175 175 175  175 175 175  175 175 175  175 175 175
175 175 175  176 176 176  176 176 176  176 176 176  177 177 177  177 177 177
177 177 177  178 178 178  178 178 178  178 178 178  178 178 178  0 0 0
0 0 0  0 0 0  0 0 0  0 0 0  0 0 0  0 0 0
0 0 0  0 0 0  0 0 0  0 0 0  0 0 0  0 0 0
0 0 0  0 0 0  0 0 0  0 0 0  0 0 0  0 0 0
0 0 0  0 0 0  0 0 0  0 0 0  0 0 0  0 0 0
0 0 0  179 179 179  179 179 179  179 179 179  179 179 179  179 179 179
179 179 179  179 179 179  179 179 179  179 179 179  179 179 179  179 179 179
179 179 179  179 179 179  179 179 179  179 179 179  179 179 179  179 179 179
154 154 154  23 21 20  24 20 19  35 31 30  34 30 29  22 21 19
19 17 16  79 76 76  179 179 179  179 179 179  179 179 179  179 179 179
179 179 179  179 179 179  179 179 179  179 179 179  52 50 50  19 17 16
27 25 24  35 31 30  33 29 28  22 18 17  36 35 34  102 101 102
95 95 95  95 95 95  95 95 95  95 95 95  95 95 95  95 95 95
95 95 95  95 95 95  99 97 97  95 95 95  81 80 80  29 26 25
22 19 18  30 28 26  35 32 31  34 31 30  35 32 31  34 31 30
36 31 30  34 30 29  25 22 20  20 18 16  63 60 61  171 171 171
179 179 179  179 179 179  179 179 179  179 179 179  179 179 179  179 179 179
179 179 179  179 179 179  179 179 179  179 179 179  179 179 179  179 179 179
179 179 179  179 179 179  179 179 179  179 179 179  179 179 179  179 179 179
179 179 179  179 179 179  179 179 179  179 179 179  179 179 179  179 179 179
179 179 179  179 179 179  179 179 179  179 179 179  179 179 179  179 179 179
179 179 179  179 179 179  179 179 179  179 179 179  179 179 179  76 75 75
20 17 18  18 16 17  32 29 28  36 32 31  35 31 30  35 31 30
33 29 28  36 32 31  35 31 30  35 31 30  35 31 30  35 31 30
35 31 30  35 31 30  35 31 30  35 31 30  35 31 30  35 31 30
35 31 30  35 31 30  34 31 30  36 32 31  35 31 30  36 32 31
32 28 27  22 19 19  21 20 21  114 114 114  179 179 179  179 179 179
177 177 177  178 178 178  129 128 129  26 22 23  21 18 17  32 28 27
36 32 31  33 30 29  36 32 31  35 31 30  36 32 31  33 29 28
24 19 20  20 17 18  68 67 67  169 169 169  179 179 179  179 179 179
179 179 179  179 179 179  179 179 179  179 179 179  179 179 179  179 179 179
179 179 179  179 179 179  179 179 179  179 179 179  179 179 179  179 179 179
179 179 179  179 179 179  150 149 149  36 33 33  21 16 16  30 26 25
35 31 30  35 31 30  35 31 30  35 31 30  35 31 30  34 30 29
26 23 22  19 17 16  43 42 42  160 160 160  179 179 179  179 179 179
179 179 179  179 179 179  179 179 179  179 179 179  179 179 179  179 179 179
179 179 179  179 179 179  179 179 179  179 179 179  179 179 179  179 179 179
179 179 179  177 177 177  176 176 176  174 174 174  173 173 173  173 173 173
172 172 172  172 172 172  172 172 172  172 172 172  173 173 173  173 173 173
173 173 173  174 174 174  174 174 174  175 175 175  175 175 175  176 176 176
176 176 176  177 177 177  178 178 178  178 178 178  0 0 0  0 0 0
0 0 0  0 0 0  0 0 0  0 0 0  0 0 0  0 0 0
0 0 0  0 0 0  0 0 0  0 0 0  0 0 0  0 0 0
0 0 0  0 0 0  0 0 0  0 0 0  0 0 0  0 0 0
0 0 0  0 0 0  0 0 0  0 0 0  0 0 0  0 0 0
0 0 0  179 179 179  179 179 179  179 179 179  179 179 179  179 179 179
179 179 179  179 179 179  179 179 179  179 179 179  179 179 179  179 179 179
179 179 179  179 179 179  179 179 179  179 179 179  179 179 179  179 179 179
76 75 75  18 16 17  27 23 22  35 31 30  28 25 24  18 16 15
65 64 64  179 179 179  179 179 179  179 179 179  179 179 179  179 179 179
179 179 179  179 179 179  179 179 179  179 179 179  179 179 179  36 33 33
21 19 17  32 28 27  36 32 31  31 27 26  24 22 20  25 25 24
27 25 24  28 26 26  28 26 26  25 25 24  27 25 23  28 25 24
28 25 24  27 25 23  26 23 23  26 23 22  25 21 20  25 21 20
32 28 27  34 31 30  33 30 29  35 32 31  34 30 29  36 32 31
33 29 28  23 21 20  20 17 16  56 55 55  165 165 164  179 179 179
179 179 179  179 179 179  179 179 179  179 179 179  179 179 179  179 179 179
179 179 179  179 179 179  179 179 179  179 179 179  179 179 179  179 179 179
179 179 179  179 179 179  179 179 179  179 179 179  179 179 179  179 179 179
179 179 179  179 179 179  179 179 179  179 179 179  179 179 179  179 179 179
179 179 179  179 179 179  179 179 179  179 179 179  179 179 179  179 179 179
179 179 179  179 179 179  179 179 179  179 179 179  179 179 179  179 179 179
79 76 76  20 17 18  22 19 18  33 29 28  35 32 31  35 31 30
35 31 30  35 31 30  35 31 30  34 30 29  36 32 31  34 30 29
35 31 30  35 31 30  35 31 30  35 31 30  35 31 30  35 31 30
35 31 30  35 31 30  35 31 30  34 30 29  36 32 31  33 29 28
22 19 18  23 19 21  86 84 84  176 176 176  179 179 179  179 179 179
179 179 179  179 179 179  179 179 179  112 111 111  26 23 23  22 18 17
32 28 27  35 31 30  35 31 30  36 32 31  34 30 29  36 32 31
32 29 28  24 21 22  20 17 18  60 59 59  169 169 169  179 179 179
179 179 179  179 179 179  179 179 179  179 179 179  179 179 179  179 179 179
179 179 179  179 179 179  179 179 179  179 179 179  179 179 179  179 179 179
179 179 179  179 179 179  179 179 179  145 145 145  39 34 34  21 16 16
28 25 23  35 31 30  35 31 30  35 31 30  34 30 29  34 31 30
34 31 30  27 25 23  19 17 16  42 39 40  160 160 160  179 179 179
179 179 179  179 179 179  179 179 179  179 179 179  179 179 179  179 179 179
179 179 179  179 179 179  179 179 179  179 179 179  179 179 179  179 179 179
179 179 179  177 177 177  175 175 175  173 173 173  171 171 171  169 169 169
169 169 169  169 169 169  169 169 169  169 169 169  169 169 169  170 169 169
170 169 169  171 171 171  172 172 172  172 172 172  173 173 173  174 174 174
175 175 175  175 175 175  0 0 0  0 0 0  0 0 0  0 0 0
0 0 0  0 0 0  0 0 0  0 0 0  0 0 0  0 0 0
0 0 0  0 0 0  0 0 0  0 0 0  0 0 0  0 0 0
0 0 0  0 0 0  0 0 0  0 0 0  0 0 0  0 0 0
0 0 0  0 0 0  0 0 0  0 0 0  0 0 0  0 0 0
0 0 0  179 179 179  179 179 179  179 179 179  179 179 179  179 179 179
179 179 179  179 179 179  179 179 179  179 179 179  179 179 179  179 179 179
179 179 179  179 179 179  179 179 179  179 179 179  179 179 179  179 179 179
38 37 36  18 16 17  31 27 26  34 30 29  22 20 19  27 24 24
173 173 173  179 179 179  179 179 179  179 179 179  179 179 179  179 179 179
179 179 179  179 179 179  179 179 179  179 179 179  179 179 179  95 95 95
23 20 18  28 24 23  35 31 30  34 30 29  30 28 26  28 25 23
28 25 24  28 25 23  27 24 22  29 26 25  27 24 22  28 24 23
26 23 23  28 24 23  25 21 20  30 26 25  28 24 23  32 28 27
36 32 31  36 32 31  34 30 29  35 31 30  35 32 31  33 29 28
24 21 19  20 17 16  65 64 64  165 165 164  179 179 179  179 179 179
179 179 179  179 179 179  179 179 179  179 179 179  179 179 179  179 179 179
179 179 179  179 179 179  179 179 179  179 179 179  179 179 179  179 179 179
179 179 179  179 179 179  179 179 179  179 179 179  179 179 179  179 179 179
179 179 179  179 179 179  179 179 179  179 179 179  179 179 179  179 179 179
179 179 179  179 179 179  179 179 179  179 179 179  179 179 179  179 179 179
179 179 179  179 179 179  179 179 179  179 179 179  179 179 179  179 179 179
179 179 179  92 90 91  23 21 20  22 20 19  32 28 27  35 31 30
36 32 31  36 32 31  34 30 29  35 31 30  34 31 30  36 32 31
35 31 30  35 31 30  35 31 30  35 31 30  35 31 30  35 31 30
35 31 30  35 31 30  36 32 32  36 32 31  32 29 28  21 19 20
23 21 22  83 82 83  171 171 171  179 179 179  179 179 179  179 179 179
179 179 179  179 179 179  179 179 179  176 176 176  99 97 97  25 22 23
22 18 17  32 28 27  35 31 30  35 31 30  35 31 30  35 31 30
35 31 30  33 29 28  26 22 23  22 17 18  60 59 59  171 171 171
179 179 179  179 179 179  179 179 179  179 179 179  179 179 179  179 179 179
179 179 179  179 179 179  179 179 179  179 179 179  179 179 179  179 179 179
179 179 179  179 179 179  179 179 179  179 179 179  154 154 154  42 38 37
19 15 14  28 25 24  34 30 29  35 31 30  37 34 33  34 31 30
35 31 30  35 31 31  28 25 23  18 16 15  38 37 36  148 148 148
179 179 179  179 179 179  179 179 179  179 179 179  179 179 179  179 179 179
179 179 179  179 179 179  179 179 179  179 179 179  179 179 179  179 179 179
179 179 179  178 178 178  176 176 176  173 173 173  170 169 169  166 166 166
165 165 164  165 165 164  165 165 164  165 165 164  166 166 166  166 166 166
167 167 167  168 168 168  169 169 169  169 169 169  0 0 0  0 0 0
0 0 0  0 0 0  0 0 0  0 0 0  0 0 0  0 0 0
0 0 0  0 0 0  0 0 0  0 0 0  0 0 0  0 0 0
0 0 0  0 0 0  0 0 0  0 0 0  0 0 0  0 0 0
0 0 0  0 0 0  0 0 0  0 0 0  0 0 0  0 0 0
0 0 0  0 0 0  0 0 0  0 0 0  0 0 0  0 0 0
0 0 0  179 179 179  179 179 179  179 179 179  179 179 179  179 179 179
179 179 179  179 179 179  179 179 179  179 179 179  179 179 179  179 179 179
179 179 179  179 179 179  179 179 179  179 179 179  179 179 179  179 179 179
28 25 26  18 16 17  34 30 29  33 29 28  20 17 16  52 50 50
179 179 179  179 179 179  179 179 179  179 179 179  179 179 179  179 179 179
179 179 179  179 179 179  179 179 179  179 179 179  179 179 179  133 133 133
29 25 24  26 22 21  35 31 30  35 31 30  36 32 31  35 31 30
35 31 30  36 32 31  33 30 29  37 34 33  34 30 29  35 31 30
34 30 29  35 31 30  37 34 33  33 29 28  36 32 31  37 33 32
35 31 30  33 30 29  36 32 31  35 31 30  35 31 30  26 22 21
20 16 14  88 87 87  172 172 172  179 179 179  179 179 179  179 179 179
179 179 179  179 179 179  179 179 179  179 179 179  179 179 179  179 179 179
179 179 179  179 179 179  179 179 179  179 179 179  179 179 179  179 179 179
179 179 179  179 179 179  179 179 179  179 179 179  179 179 179  179 179 179
179 179 179  179 179 179  179 179 179  179 179 179  179 179 179  179 179 179
179 179 179  179 179 179  179 179 179  179 179 179  179 179 179  179 179 179
179 179 179  179 179 179  179 179 179  179 179 179  179 179 179  179 179 179
179 179 179  179 179 179  88 87 87  21 18 19  19 18 18  32 29 28
34 30 29  33 29 28  36 32 31  36 32 31  34 31 30  33 29 28
35 31 30  35 31 30  35 31 30  35 31 30  35 31 30  35 31 30
35 31 30  36 32 31  34 30 29  30 28 26  18 16 17  21 20 21
102 101 102  175 175 175  179 179 179  179 179 179  179 179 179  179 179 179
179 179 179  179 179 179  179 179 179  179 179 179  176 176 176  112 111 111
26 23 22  21 17 16  34 30 29  35 32 31  34 30 29  35 31 30
36 32 31  35 31 30  35 31 30  22 19 19  22 19 19  99 97 97
179 179 179  179 179 179  179 179 179  179 179 179  179 179 179  179 179 179
179 179 179  179 179 179  179 179 179  179 179 179  179 179 179  179 179 179
179 179 179  179 179 179  179 179 179  179 179 179  179 179 179  150 149 149
43 42 42  17 15 13  28 25 24  32 28 27  37 34 33  34 30 29
35 31 30  36 31 30  34 30 29  28 25 24  17 15 16  60 56 57
179 179 179  179 179 179  179 179 179  179 179 179  179 179 179  179 179 179
179 179 179  179 179 179  179 179 179  179 179 179  179 179 179  179 179 179
179 179 179  178 178 178  178 178 178  176 176 176  173 173 173  0 0 0
0 0 0  0 0 0  0 0 0  0 0 0  0 0 0  0 0 0
0 0 0  0 0 0  0 0 0  0 0 0  0 0 0  0 0 0
0 0 0  0 0 0  0 0 0  0 0 0  0 0 0  0 0 0
0 0 0  0 0 0  0 0 0  0 0 0  0 0 0  0 0 0
0 0 0  0 0 0  0 0 0  0 0 0  0 0 0  0 0 0
0 0 0  0 0 0  0 0 0  0 0 0  0 0 0  0 0 0
0 0 0  0 0 0  0 0 0  0 0 0  0 0 0  0 0 0
0 0 0  179 179 179  179 179 179  179 179 179  179 179 179  179 179 179
179 179 179  179 179 179  179 179 179  179 179 179  179 179 179  179 179 179
179 179 179  179 179 179  179 179 179  179 179 179  179 179 179  179 179 179
24 21 22  22 17 18  37 33 32  29 25 24  19 15 14  76 75 75
179 179 179  179 179 179  179 179 179  179 179 179  179 179 179  179 179 179
179 179 179  179 179 179  179 179 179  179 179 179  179 179 179  156 155 155
36 32 32  24 19 18  33 29 28  35 31 30  33 29 28  35 31 30
35 31 30  34 30 29  37 33 32  32 28 27  36 32 31  35 31 30
35 32 31  36 32 31  32 28 27  35 31 30  34 30 29  33 29 28
35 31 30  34 30 29  37 33 32  34 30 29  25 23 21  20 16 15
88 87 87  179 179 179  179 179 179  179 179 179  179 179 179  179 179 179
179 179 179  179 179 179  179 179 179  179 179 179  179 179 179  179 179 179
179 179 179  179 179 179  179 179 179  179 179 179  179 179 179  179 179 179
179 179 179  179 179 179  179 179 179  179 179 179  179 179 179  179 179 179
179 179 179  179 179 179  179 179 179  179 179 179  179 179 179  179 179 179
179 179 179  179 179 179  179 179 179  179 179 179  179 179 179  179 179 179
179 179 179  179 179 179  179 179 179  179 179 179  179 179 179  179 179 179
179 179 179  179 179 179  179 179 179  84 83 83  20 16 18  23 19 20
35 31 30  36 32 31  35 31 30  34 30 29  35 32 31  36 32 31
35 31 30  35 31 30  35 31 30  35 31 30  35 31 30  35 31 30
35 31 30  34 30 29  35 31 30  21 19 17  21 19 20  126 125 126
179 179 179  179 179 179  179 179 179  179 179 179  179 179 179  179 179 179
179 179 179  179 179 179  179 179 179  179 179 179  179 179 179  179 179 179
123 123 123  25 21 20  18 17 15  34 30 29  36 32 31  34 30 29
35 31 30  32 28 27  37 33 32  28 25 24  21 19 20  84 83 83
179 179 179  179 179 179  179 179 179  179 179 179  179 179 179  179 179 179
179 179 179  179 179 179  179 179 179  179 179 179  179 179 179  179 179 179
179 179 179  179 179 179  179 179 179  179 179 179  179 179 179  179 179 179
145 145 145  36 35 34  20 16 15  30 26 25  33 29 28  36 32 31
35 30 29  36 31 30  36 32 31  32 28 27  20 18 19  48 46 45
179 179 179  179 179 179  179 179 179  179 179 179  179 179 179  179 179 179
179 179 179  179 179 179  179 179 179  179 179 179  179 179 179  179 179 179
179 179 179  179 179 179  179 179 179  178 178 178  176 176 176  0 0 0
0 0 0  0 0 0  0 0 0  0 0 0  0 0 0  0 0 0
0 0 0  0 0 0  0 0 0  0 0 0  0 0 0  0 0 0
0 0 0  0 0 0  0 0 0  0 0 0  0 0 0  0 0 0
0 0 0  0 0 0  0 0 0  0 0 0  0 0 0  0 0 0
0 0 0  0 0 0  0 0 0  0 0 0  0 0 0  0 0 0
0 0 0  0 0 0  0 0 0  0 0 0  0 0 0  0 0 0
0 0 0  0 0 0  0 0 0  0 0 0  0 0 0  0 0 0
0 0 0  179 179 179  179 179 179  179 179 179  179 179 179  179 179 179
179 179 179  179 179 179  179 179 179  179 179 179  179 179 179  179 179 179
179 179 179  179 179 179  179 179 179  179 179 179  179 179 179  179 179 179
25 22 23  23 19 20  36 32 31  30 26 25  21 18 17  68 67 67
179 179 179  179 179 179  179 179 179  179 179 179  179 179 179  179 179 179
179 179 179  179 179 179  179 179 179  179 179 179  179 179 179  152 151 151
35 31 30  24 20 19  33 29 28  36 32 31  36 32 31  35 32 31
36 32 31  36 32 31  34 30 29  35 31 30  36 32 31  35 31 30
35 31 30  35 31 30  36 32 31  33 29 28  37 33 32  36 32 31
34 30 29  36 32 31  34 30 29  23 21 20  19 17 16  60 59 59
171 171 171  179 179 179  179 179 179  179 179 179  179 179 179  179 179 179
179 179 179  179 179 179  179 179 179  179 179 179  179 179 179  179 179 179
179 179 179  179 179 179  179 179 179  179 179 179  179 179 179  179 179 179
179 179 179  179 179 179  179 179 179  179 179 179  179 179 179  179 179 179
179 179 179  179 179 179  179 179 179  179 179 179  179 179 179  179 179 179
179 179 179  179 179 179  179 179 179  179 179 179  179 179 179  179 179 179
179 179 179  179 179 179  179 179 179  179 179 179  179 179 179  179 179 179
179 179 179  179 179 179  179 179 179  179 179 179  79 76 76  21 18 19
23 19 20  33 29 28  36 32 31  35 31 30  36 31 30  35 30 28
35 31 30  35 31 30  35 31 30  35 31 30  35 31 30  35 31 30
35 31 30  32 28 27  22 19 18  21 20 21  119 118 118  179 179 179
179 179 179  179 179 179  179 179 179  179 179 179  179 179 179  179 179 179
179 179 179  179 179 179  179 179 179  179 179 179  179 179 179  179 179 179
179 179 179  123 123 123  26 23 22  22 17 16  33 29 28  36 32 31
34 31 30  36 32 31  34 30 29  29 26 25  24 20 21  86 84 84
179 179 179  179 179 179  179 179 179  179 179 179  179 179 179  179 179 179
179 179 179  179 179 179  179 179 179  179 179 179  179 179 179  179 179 179
179 179 179  179 179 179  179 179 179  179 179 179  179 179 179  179 179 179
179 179 179  145 145 145  36 33 33  20 16 15  31 27 26  37 33 32
34 30 29  36 32 31  34 30 29  33 29 28  23 21 20  50 48 47
179 179 179  179 179 179  179 179 179  179 179 179  179 179 179  179 179 179
179 179 179  179 179 179  179 179 179  179 179 179  179 179 179  179 179 179
179 179 179  179 179 179  179 179 179  179 179 179  179 179 179  0 0 0
0 0 0  0 0 0  0 0 0  0 0 0  0 0 0  0 0 0
0 0 0  0 0 0  0 0 0  0 0 0  0 0 0  0 0 0
0 0 0  0 0 0  0 0 0  0 0 0  0 0 0  0 0 0
0 0 0  0 0 0  0 0 0  0 0 0  0 0 0  0 0 0
0 0 0  0 0 0  0 0 0  0 0 0  0 0 0  0 0 0
0 0 0  0 0 0  0 0 0  0 0 0  0 0 0  0 0 0
0 0 0  0 0 0  0 0 0  0 0 0  0 0 0  0 0 0
0 0 0  179 179 179  179 179 179  179 179 179  179 179 179  179 179 179
179 179 179  179 179 179  179 179 179  179 179 179  179 179 179  179 179 179
179 179 179  179 179 179  179 179 179  179 179 179  179 179 179  179 179 179
28 26 26  19 16 17  34 30 29  32 28 27  22 19 18  50 48 47
179 179 179  179 179 179  179 179 179  179 179 179  179 179 179  179 179 179
179 179 179  179 179 179  179 179 179  179 179 179  179 179 179  133 133 133
27 24 24  25 23 21  34 30 29  35 31 30  35 31 30  34 30 29
34 30 29  33 29 28  35 31 30  35 31 30  33 29 28  34 30 29
34 30 29  34 30 29  34 30 29  34 30 29  34 30 29  34 30 29
35 31 31  33 29 29  24 21 22  19 16 16  60 56 57  167 167 167
179 179 179  179 179 179  179 179 179  179 179 179  179 179 179  179 179 179
179 179 179  179 179 179  179 179 179  179 179 179  179 179 179  179 179 179
179 179 179  179 179 179  179 179 179  179 179 179  179 179 179  179 179 179
179 179 179  179 179 179  179 179 179  179 179 179  179 179 179  179 179 179
179 179 179  179 179 179  179 179 179  179 179 179  179 179 179  179 179 179
179 179 179  179 179 179  179 179 179  179 179 179  179 179 179  179 179 179
179 179 179  179 179 179  179 179 179  179 179 179  179 179 179  179 179 179
179 179 179  179 179 179  179 179 179  179 179 179  179 179 179  79 76 76
21 18 19  21 18 19  32 28 27  35 31 29  35 31 29  36 32 31
35 31 30  35 31 30  36 32 31  35 31 30  35 31 30  34 31 30
32 29 28  22 19 18  23 21 20  92 90 91  178 178 178  179 179 179
179 179 179  179 179 179  179 179 179  179 179 179  179 179 179  179 179 179
179 179 179  179 179 179  179 179 179  179 179 179  179 179 179  179 179 179
179 179 179  179 179 179  133 133 133  25 21 20  27 25 23  35 31 30
34 30 29  35 31 30  35 31 30  30 26 25  23 21 20  84 83 83
179 179 179  179 179 179  179 179 179  179 179 179  179 179 179  179 179 179
179 179 179  179 179 179  179 179 179  179 179 179  179 179 179  179 179 179
179 179 179  179 179 179  179 179 179  179 179 179  179 179 179  179 179 179
179 179 179  179 179 179  154 154 154  33 29 28  22 19 18  34 30 29
35 31 30  35 31 30  35 31 30  33 29 28  23 21 20  50 48 47
179 179 179  179 179 179  179 179 179  179 179 179  179 179 179  179 179 179
179 179 179  179 179 179  179 179 179  179 179 179  179 179 179  179 179 179
179 179 179  179 179 179  179 179 179  179 179 179  179 179 179  0 0 0
0 0 0  0 0 0  0 0 0  0 0 0  0 0 0  0 0 0
0 0 0  0 0 0  0 0 0  0 0 0  0 0 0  0 0 0
0 0 0  0 0 0  0 0 0  0 0 0  0 0 0  0 0 0
0 0 0  0 0 0  0 0 0  0 0 0  0 0 0  0 0 0
0 0 0  0 0 0  0 0 0  0 0 0  0 0 0  0 0 0
0 0 0  0 0 0  0 0 0  0 0 0  0 0 0  0 0 0
0 0 0  0 0 0  0 0 0  0 0 0  0 0 0  0 0 0
0 0 0  179 179 179  179 179 179  179 179 179  179 179 179  179 179 179
179 179 179  179 179 179  179 179 179  179 179 179  179 179 179  179 179 179
179 179 179  179 179 179  179 179 179  179 179 179  179 179 179  176 176 176
42 39 40  19 16 17  32 28 27  35 31 30  27 23 22  27 24 24
179 179 179  179 179 179  179 179 179  179 179 179  179 179 179  179 179 179
179 179 179  179 179 179  179 179 179  179 179 179  179 179 179  95 95 95
22 19 19  29 25 24  33 29 28  36 32 31  30 26 25  23 19 18
25 21 20  26 22 21  26 22 21  27 22 21  26 22 21  27 23 22
27 23 22  27 23 22  27 23 22  27 23 22  26 22 21  25 21 20
26 21 22  20 17 16  17 15 16  60 59 59  167 167 167  179 179 179
179 179 179  179 179 179  179 179 179  179 179 179  179 179 179  179 179 179
179 179 179  179 179 179  179 179 179  179 179 179  179 179 179  179 179 179
179 179 179  179 179 179  179 179 179  179 179 179  179 179 179  179 179 179
179 179 179  179 179 179  179 179 179  179 179 179  179 179 179  179 179 179
179 179 179  179 179 179  179 179 179  179 179 179  179 179 179  179 179 179
179 179 179  179 179 179  179 179 179  179 179 179  179 179 179  179 179 179
179 179 179  179 179 179  179 179 179  179 179 179  179 179 179  179 179 179
179 179 179  179 179 179  179 179 179  179 179 179  179 179 179  179 179 179
86 84 84  21 18 19  22 17 18  31 27 26  35 31 30  34 30 29
35 31 30  35 31 30  34 30 29  36 32 31  34 31 30  34 31 30
22 19 18  23 21 22  81 80 80  173 173 173  179 179 179  179 179 179
179 179 179  179 179 179  179 179 179  179 179 179  179 179 179  179 179 179
179 179 179  179 179 179  179 179 179  179 179 179  179 179 179  179 179 179
179 179 179  179 179 179  169 169 169  31 27 26  24 22 20  34 30 29
35 31 30  35 31 30  35 31 30  29 26 25  23 21 20  84 83 83
179 179 179  179 179 179  179 179 179  179 179 179  179 179 179  179 179 179
179 179 179  179 179 179  179 179 179  179 179 179  179 179 179  179 179 179
179 179 179  179 179 179  179 179 179  179 179 179  179 179 179  179 179 179
179 179 179  179 179 179  179 179 179  48 46 45  18 16 15  33 29 28
35 31 30  35 31 30  34 30 29  34 30 29  24 22 20  50 48 47
179 179 179  179 179 179  179 179 179  179 179 179  179 179 179  179 179 179
179 179 179  179 179 179  179 179 179  179 179 179  179 179 179  179 179 179
179 179 179  179 179 179  179 179 179  179 179 179  179 179 179  0 0 0
0 0 0  0 0 0  0 0 0  0 0 0  0 0 0  0 0 0
0 0 0  0 0 0  0 0 0  0 0 0  0 0 0  0 0 0
0 0 0  0 0 0  0 0 0  0 0 0  0 0 0  0 0 0
0 0 0  0 0 0  0 0 0  0 0 0  0 0 0  0 0 0
0 0 0  0 0 0  0 0 0  0 0 0  0 0 0  0 0 0
0 0 0  0 0 0  0 0 0  0 0 0  0 0 0  0 0 0
0 0 0  0 0 0  0 0 0  0 0 0  0 0 0  0 0 0
0 0 0  179 179 179  179 179 179  179 179 179  179 179 179  179 179 179
179 179 179  179 179 179  179 179 179  179 179 179  179 179 179  179 179 179
179 179 179  179 179 179  179 179 179  179 179 179  179 179 179  178 178 178
92 90 91  19 16 17  27 23 22  36 32 31  29 25 24  21 16 16
60 59 59  179 179 179  179 179 179  179 179 179  179 179 179  179 179 179
179 179 179  179 179 179  179 179 179  179 179 179  174 174 174  35 32 31
21 18 19  32 28 27  35 31 30  30 26 25  21 18 19  26 23 22
27 24 22  27 25 23  26 23 22  26 23 22  25 22 23  26 23 22
25 23 21  25 23 21  25 21 20  25 21 20  25 21 20  23 21 20
22 20 19  21 19 20  76 75 75  168 168 168  179 179 179  179 179 179
179 179 179  179 179 179  179 179 179  179 179 179  179 179 179  179 179 179
179 179 179  179 179 179  179 179 179  179 179 179  179 179 179  179 179 179
179 179 179  179 179 179  179 179 179  179 179 179  179 179 179  179 179 179
179 179 179  179 179 179  179 179 179  179 179 179  0 0 0  0 0 0
179 179 179  179 179 179  179 179 179  179 179 179  179 179 179  179 179 179
179 179 179  179 179 179  179 179 179  179 179 179  179 179 179  179 179 179
179 179 179  179 179 179  179 179 179  179 179 179  179 179 179  179 179 179
179 179 179  179 179 179  179 179 179  179 179 179  179 179 179  179 179 179
179 179 179  88 87 87  21 18 19  23 20 18  33 29 28  35 31 30
34 30 29  35 31 30  35 31 30  35 32 31  33 30 29  20 18 19
21 19 20  88 87 87  172 172 172  179 179 179  179 179 179  179 179 179
179 179 179  179 179 179  179 179 179  179 179 179  179 179 179  179 179 179
179 179 179  179 179 179  179 179 179  179 179 179  179 179 179  179 179 179
179 179 179  179 179 179  169 169 169  30 28 26  24 22 20  34 30 29
35 31 30  35 31 30  35 31 30  29 26 25  23 21 19  84 83 83
179 179 179  179 179 179  179 179 179  179 179 179  179 179 179  179 179 179
179 179 179  179 179 179  179 179 179  179 179 179  179 179 179  179 179 179
179 179 179  179 179 179  179 179 179  179 179 179  179 179 179  179 179 179
179 179 179  179 179 179  179 179 179  48 46 45  18 17 15  33 29 28
35 31 30  35 31 30  34 30 29  34 30 29  24 22 20  50 48 47
179 179 179  179 179 179  179 179 179  179 179 179  179 179 179  179 179 179
179 179 179  179 179 179  179 179 179  179 179 179  179 179 179  179 179 179
179 179 179  179 179 179  179 179 179  179 179 179  179 179 179  0 0 0
0 0 0  0 0 0  0 0 0  0 0 0  0 0 0  0 0 0
0 0 0  0 0 0  0 0 0  0 0 0  0 0 0  0 0 0
0 0 0  0 0 0  0 0 0  0 0 0  0 0 0  0 0 0
0 0 0  0 0 0  0 0 0  0 0 0  0 0 0  0 0 0
0 0 0  0 0 0  0 0 0  0 0 0  0 0 0  0 0 0
0 0 0  0 0 0  0 0 0  0 0 0  0 0 0  0 0 0
0 0 0  0 0 0  0 0 0  0 0 0  0 0 0  0 0 0
0 0 0  179 179 179  179 179 179  179 179 179  179 179 179  179 179 179
179 179 179  179 179 179  179 179 179  179 179 179  179 179 179  179 179 179
179 179 179  179 179 179  179 179 179  179 179 179  179 179 179  179 179 179
179 179 179  25 21 20  22 18 17  35 31 30  37 33 32  24 19 20
20 16 15  92 90 91  174 174 174  179 179 179  179 179 179  179 179 179
179 179 179  179 179 179  178 178 178  169 169 169  55 52 53  20 18 19
30 26 25  35 31 30  33 29 28  18 17 15  42 39 40  179 179 179
179 179 179  179 179 179  179 179 179  179 179 179  179 179 179  179 179 179
179 179 179  179 179 179  179 179 179  179 179 179  179 179 179  179 179 179
179 179 179  179 179 179  179 179 179  179 179 179  179 179 179  179 179 179
179 179 179  179 179 179  179 179 179  179 179 179  179 179 179  179 179 179
179 179 179  179 179 179  179 179 179  179 179 179  179 179 179  179 179 179
179 179 179  179 179 179  179 179 179  179 179 179  179 179 179  179 179 179
179 179 179  179 179 179  179 179 179  0 0 0  0 0 0  0 0 0
0 0 0  0 0 0  179 179 179  179 179 179  179 179 179  179 179 179
179 179 179  179 179 179  179 179 179  179 179 179  179 179 179  179 179 179
179 179 179  179 179 179  179 179 179  179 179 179  179 179 179  179 179 179
179 179 179  179 179 179  179 179 179  179 179 179  179 179 179  179 179 179
179 179 179  179 179 179  88 87 87  20 17 16  22 19 18  33 30 29
33 29 28  37 33 32  36 32 31  30 28 26  16 15 15  20 18 19
123 123 123  179 179 179  179 179 179  179 179 179  179 179 179  179 179 179
179 179 179  179 179 179  179 179 179  179 179 179  179 179 179  179 179 179
179 179 179  179 179 179  179 179 179  179 179 179  179 179 179  179 179 179
179 179 179  179 179 179  169 169 169  30 28 26  25 23 21  34 30 29
35 31 30  35 31 30  35 31 30  29 26 25  23 21 19  84 83 83
179 179 179  179 179 179  179 179 179  179 179 179  179 179 179  179 179 179
179 179 179  179 179 179  179 179 179  179 179 179  179 179 179  179 179 179
179 179 179  179 179 179  179 179 179  179 179 179  179 179 179  179 179 179
179 179 179  179 179 179  179 179 179  48 46 45  19 17 16  33 30 29
35 31 30  35 31 30  34 30 29  34 30 29  23 22 20  50 48 47
179 179 179  179 179 179  179 179 179  179 179 179  179 179 179  179 179 179
179 179 179  179 179 179  179 179 179  179 179 179  179 179 179  179 179 179
179 179 179  179 179 179  179 179 179  179 179 179  179 179 179  179 179 179
0 0 0  0 0 0  0 0 0  0 0 0  0 0 0  0 0 0
0 0 0  0 0 0  0 0 0  0 0 0  0 0 0  0 0 0
0 0 0  0 0 0  0 0 0  0 0 0  0 0 0  0 0 0
0 0 0  0 0 0  0 0 0  0 0 0  0 0 0  0 0 0
0 0 0  0 0 0  0 0 0  0 0 0  0 0 0  0 0 0
0 0 0  0 0 0  0 0 0  0 0 0  0 0 0  0 0 0
0 0 0  0 0 0  0 0 0  0 0 0  0 0 0  0 0 0
0 0 0  179 179 179  179 179 179  179 179 179  179 179 179  179 179 179
179 179 179  179 179 179  179 179 179  179 179 179  179 179 179  179 179 179
179 179 179  179 179 179  179 179 179  179 179 179  179 179 179  179 179 179
179 179 179  60 59 59  19 15 14  28 24 23  35 31 30  36 31 30
25 21 20  20 17 18  48 46 45  106 104 105  145 145 145  165 165 164
160 160 160  133 133 133  86 84 84  36 33 33  21 19 17  28 24 23
34 31 30  35 31 30  24 22 20  20 18 17  129 128 129  179 179 179
179 179 179  179 179 179  179 179 179  179 179 179  179 179 179  179 179 179
179 179 179  179 179 179  179 179 179  179 179 179  179 179 179  179 179 179
179 179 179  179 179 179  179 179 179  179 179 179  179 179 179  179 179 179
179 179 179  179 179 179  179 179 179  179 179 179  179 179 179  179 179 179
179 179 179  179 179 179  179 179 179  179 179 179  179 179 179  179 179 179
179 179 179  179 179 179  179 179 179  179 179 179  179 179 179  179 179 179
179 179 179  179 179 179  0 0 0  0 0 0  0 0 0  0 0 0
0 0 0  0 0 0  0 0 0  179 179 179  179 179 179  179 179 179
179 179 179  179 179 179  179 179 179  179 179 179  179 179 179  179 179 179
179 179 179  179 179 179  179 179 179  179 179 179  179 179 179  179 179 179
179 179 179  179 179 179  179 179 179  179 179 179  179 179 179  179 179 179
179 179 179  179 179 179  179 179 179  76 75 75  19 18 18  20 18 19
35 31 30  34 30 29  32 28 27  20 18 19  21 19 20  133 133 133
179 179 179  179 179 179  179 179 179  179 179 179  179 179 179  179 179 179
179 179 179  179 179 179  179 179 179  179 179 179  179 179 179  179 179 179
179 179 179  179 179 179  179 179 179  179 179 179  179 179 179  179 179 179
179 179 179  179 179 179  169 169 169  31 29 26  26 23 22  34 30 29
35 31 30  35 31 30  35 31 30  29 26 25  23 21 20  84 83 83
179 179 179  179 179 179  179 179 179  179 179 179  179 179 179  179 179 179
179 179 179  179 179 179  179 179 179  179 179 179  179 179 179  179 179 179
179 179 179  179 179 179  179 179 179  179 179 179  179 179 179  179 179 179
179 179 179  179 179 179  179 179 179  47 43 44  20 18 16  33 30 29
35 31 30  35 31 30  34 30 29  34 30 29  24 22 20  50 48 47
179 179 179  179 179 179  179 179 179  179 179 179  179 179 179  179 179 179
179 179 179  179 179 179  179 179 179  179 179 179  179 179 179  179 179 179
179 179 179  179 179 179  179 179 179  179 179 179  179 179 179  179 179 179
179 179 179  0 0 0  0 0 0  0 0 0  0 0 0  0 0 0
0 0 0  0 0 0  0 0 0  0 0 0  0 0 0  0 0 0
0 0 0  0 0 0  0 0 0  0 0 0  0 0 0  0 0 0
0 0 0  0 0 0  0 0 0  0 0 0  0 0 0  0 0 0
0 0 0  0 0 0  0 0 0  0 0 0  0 0 0  0 0 0
0 0 0  0 0 0  0 0 0  0 0 0  0 0 0  0 0 0
0 0 0  0 0 0  0 0 0  0 0 0  0 0 0  0 0 0
0 0 0  0 0 0  179 179 179  179 179 179  179 179 179  179 179 179
179 179 179  179 179 179  179 179 179  179 179 179  179 179 179  179 179 179
179 179 179  179 179 179  179 179 179  179 179 179  179 179 179  179 179 179
179 179 179  138 138 138  28 26 26  21 18 17  33 29 28  35 31 31
34 30 29  26 23 22  21 19 20  24 21 22  33 29 29  38 37 36
39 34 34  30 28 26  22 19 18  23 21 20  29 25 24  36 32 31
35 31 30  30 26 25  20 16 15  50 48 47  179 179 179  179 179 179
179 179 179  179 179 179  179 179 179  179 179 179  179 179 179  179 179 179
179 179 179  179 179 179  179 179 179  179 179 179  179 179 179  179 179 179
179 179 179  179 179 179  179 179 179  179 179 179  179 179 179  179 179 179
179 179 179  179 179 179  179 179 179  179 179 179  179 179 179  179 179 179
179 179 179  179 179 179  179 179 179  179 179 179  179 179 179  179 179 179
179 179 179  179 179 179  179 179 179  179 179 179  179 179 179  179 179 179
179 179 179  0 0 0  0 0 0  0 0 0  0 0 0  0 0 0
0 0 0  0 0 0  0 0 0  0 0 0  179 179 179  179 179 179
179 179 179  179 179 179  179 179 179  179 179 179  179 179 179  179 179 179
179 179 179  179 179 179  179 179 179  179 179 179  179 179 179  179 179 179
179 179 179  179 179 179  179 179 179  179 179 179  179 179 179  179 179 179
179 179 179  179 179 179  179 179 179  179 179 179  76 75 75  18 16 17
20 17 16  28 27 26  21 19 20  21 20 21  92 90 91  179 179 179
179 179 179  179 179 179  179 179 179  179 179 179  179 179 179  179 179 179
179 179 179  179 179 179  179 179 179  179 179 179  179 179 179  179 179 179
179 179 179  179 179 179  179 179 179  179 179 179  179 179 179  179 179 179
179 179 179  179 179 179  168 168 168  30 28 26  26 23 22  34 30 29
35 31 30  35 31 30  35 31 30  29 26 25  23 21 20  84 83 83
179 179 179  179 179 179  179 179 179  179 179 179  179 179 179  179 179 179
179 179 179  179 179 179  179 179 179  179 179 179  179 179 179  179 179 179
179 179 179  179 179 179  179 179 179  179 179 179  179 179 179  179 179 179
179 179 179  179 179 179  179 179 179  47 43 44  20 18 16  33 30 29
35 31 30  35 31 30  34 30 29  34 30 29  24 22 20  50 48 47
179 179 179  179 179 179  179 179 179  179 179 179  179 179 179  179 179 179
179 179 179  179 179 179  179 179 179  179 179 179  179 179 179  179 179 179
179 179 179  179 179 179  179 179 179  179 179 179  179 179 179  179 179 179
179 179 179  179 179 179  0 0 0  0 0 0  0 0 0  0 0 0
0 0 0  0 0 0  0 0 0  0 0 0  0 0 0  0 0 0
0 0 0  0 0 0  0 0 0  0 0 0  0 0 0  0 0 0
0 0 0  0 0 0  0 0 0  0 0 0  0 0 0  0 0 0
0 0 0  0 0 0  0 0 0  0 0 0  0 0 0  0 0 0
0 0 0  0 0 0  0 0 0  0 0 0  0 0 0  0 0 0
0 0 0  0 0 0  0 0 0  0 0 0  0 0 0  0 0 0
0 0 0  0 0 0  179 179 179  179 179 179  179 179 179  179 179 179
179 179 179  179 179 179  179 179 179  179 179 179  179 179 179  179 179 179
179 179 179  179 179 179  179 179 179  179 179 179  179 179 179  179 179 179
179 179 179  176 176 176  88 87 87  22 19 18  20 16 15  31 26 27
36 32 31  33 30 29  32 28 27  27 23 22  22 18 17  20 16 15
20 17 16  23 19 18  28 24 23  33 29 28  36 32 31  35 31 30
29 25 24  21 17 16  33 30 30  142 141 141  179 179 179  179 179 179
179 179 179  179 179 179  179 179 179  179 179 179  179 179 179  179 179 179
179 179 179  179 179 179  179 179 179  179 179 179  179 179 179  179 179 179
179 179 179  179 179 179  179 179 179  179 179 179  179 179 179  179 179 179
179 179 179  179 179 179  179 179 179  179 179 179  179 179 179  179 179 179
179 179 179  179 179 179  179 179 179  179 179 179  179 179 179  179 179 179
179 179 179  179 179 179  179 179 179  179 179 179  179 179 179  179 179 179
0 0 0  0 0 0  0 0 0  0 0 0  0 0 0  0 0 0
0 0 0  0 0 0  0 0 0  0 0 0  0 0 0  179 179 179
179 179 179  179 179 179  179 179 179  179 179 179  179 179 179  179 179 179
179 179 179  179 179 179  179 179 179  179 179 179  179 179 179  179 179 179
179 179 179  179 179 179  179 179 179  179 179 179  179 179 179  179 179 179
179 179 179  179 179 179  179 179 179  179 179 179  179 179 179  83 82 83
19 18 18  16 14 14  21 19 20  83 82 83  174 174 174  179 179 179
179 179 179  179 179 179  179 179 179  179 179 179  179 179 179  179 179 179
179 179 179  179 179 179  179 179 179  179 179 179  179 179 179  179 179 179
179 179 179  179 179 179  179 179 179  179 179 179  179 179 179  179 179 179
179 179 179  179 179 179  168 168 168  30 28 26  25 23 21  34 30 29
35 31 30  35 31 30  35 31 30  30 26 25  24 22 20  84 83 83
179 179 179  179 179 179  179 179 179  179 179 179  179 179 179  179 179 179
179 179 179  179 179 179  179 179 179  179 179 179  179 179 179  179 179 179
179 179 179  179 179 179  179 179 179  179 179 179  179 179 179  179 179 179
179 179 179  179 179 179  179 179 179  47 43 44  20 18 16  33 30 29
35 31 30  35 31 30  34 30 29  34 30 29  24 22 20  50 48 47
179 179 179  179 179 179  179 179 179  179 179 179  179 179 179  179 179 179
179 179 179  179 179 179  179 179 179  179 179 179  179 179 179  179 179 179
179 179 179  179 179 179  179 179 179  179 179 179  179 179 179  179 179 179
179 179 179  179 179 179  0 0 0  0 0 0  0 0 0  0 0 0
0 0 0  0 0 0  0 0 0  0 0 0  0 0 0  0 0 0
0 0 0  0 0 0  0 0 0  0 0 0  0 0 0  0 0 0
0 0 0  0 0 0  0 0 0  0 0 0  0 0 0  0 0 0
0 0 0  0 0 0  0 0 0  0 0 0  0 0 0  0 0 0
0 0 0  0 0 0  0 0 0  0 0 0  0 0 0  0 0 0
0 0 0  0 0 0  0 0 0  0 0 0  0 0 0  0 0 0
0 0 0  0 0 0  179 179 179  179 179 179  179 179 179  179 179 179
179 179 179  179 179 179  179 179 179  179 179 179  179 179 179  179 179 179
179 179 179  179 179 179  179 179 179  179 179 179  179 179 179  179 179 179
179 179 179  179 179 179  169 169 169  81 80 80  23 19 20  20 16 15
27 23 22  33 29 28  36 32 31  35 31 30  34 30 29  33 29 28
34 30 29  35 31 30  36 32 31  35 31 30  33 29 28  24 19 20
16 14 14  32 29 29  119 118 118  178 178 178  179 179 179  179 179 179
179 179 179  179 179 179  179 179 179  179 179 179  179 179 179  179 179 179
179 179 179  179 179 179  179 179 179  179 179 179  179 179 179  179 179 179
179 179 179  179 179 179  178 178 178  178 178 178  178 178 178  178 178 178
179 179 179  179 179 179  179 179 179  179 179 179  179 179 179  179 179 179
179 179 179  179 179 179  179 179 179  179 179 179  179 179 179  179 179 179
179 179 179  179 179 179  179 179 179  179 179 179  179 179 179  0 0 0
0 0 0  0 0 0  0 0 0  0 0 0  0 0 0  0 0 0
0 0 0  0 0 0  0 0 0  0 0 0  0 0 0  0 0 0
179 179 179  179 179 179  179 179 179  179 179 179  179 179 179  179 179 179
179 179 179  179 179 179  179 179 179  179 179 179  179 179 179  179 179 179
179 179 179  179 179 179  179 179 179  179 179 179  179 179 179  179 179 179
179 179 179  179 179 179  179 179 179  179 179 179  179 179 179  179 179 179
92 90 91  36 35 34  81 80 80  173 173 173  179 179 179  179 179 179
179 179 179  179 179 179  179 179 179  179 179 179  179 179 179  179 179 179
179 179 179  179 179 179  179 179 179  179 179 179  179 179 179  179 179 179
179 179 179  179 179 179  179 179 179  179 179 179  179 179 179  179 179 179
179 179 179  179 179 179  168 168 168  31 29 26  25 23 21  33 30 29
35 31 30  36 32 31  33 29 28  30 28 26  25 23 21  84 83 83
179 179 179  179 179 179  179 179 179  179 179 179  179 179 179  179 179 179
179 179 179  179 179 179  179 179 179  179 179 179  179 179 179  179 179 179
179 179 179  179 179 179  179 179 179  179 179 179  179 179 179  179 179 179
179 179 179  179 179 179  179 179 179  47 43 44  19 17 16  33 29 28
36 32 31  35 31 30  35 31 30  33 29 28  24 22 20  50 48 47
179 179 179  179 179 179  179 179 179  179 179 179  179 179 179  179 179 179
179 179 179  179 179 179  179 179 179  179 179 179  179 179 179  179 179 179
179 179 179  179 179 179  179 179 179  179 179 179  179 179 179  179 179 179
179 179 179  179 179 179  179 179 179  0 0 0  0 0 0  0 0 0
0 0 0  0 0 0  0 0 0  0 0 0  0 0 0  0 0 0
0 0 0  0 0 0  0 0 0  0 0 0  0 0 0  0 0 0
0 0 0  0 0 0  0 0 0  0 0 0  0 0 0  0 0 0
0 0 0  0 0 0  0 0 0  0 0 0  0 0 0  0 0 0
0 0 0  0 0 0  0 0 0  0 0 0  0 0 0  0 0 0
0 0 0  0 0 0  0 0 0  0 0 0  0 0 0  0 0 0
0 0 0  0 0 0  179 179 179  179 179 179  179 179 179  179 179 179
179 179 179  179 179 179  179 179 179  179 179 179  179 179 179  179 179 179
179 179 179  179 179 179  179 179 179  179 179 179  179 179 179  179 179 179
179 179 179  179 179 179  179 179 179  170 169 169  133 133 133  32 29 28
17 15 13  16 13 13  24 20 19  32 28 27  35 31 30  35 31 30
35 31 30  34 30 29  31 27 26  23 19 18  18 17 15  14 12 12
48 46 45  166 166 166  179 179 179  179 179 179  179 179 179  179 179 179
179 179 179  179 179 179  179 179 179  179 179 179  179 179 179  179 179 179
179 179 179  179 179 179  179 179 179  179 179 179  179 179 179  179 179 179
179 179 179  179 179 179  178 178 178  178 178 178  178 178 178  178 178 178
178 178 178  178 178 178  179 179 179  179 179 179  179 179 179  179 179 179
179 179 179  179 179 179  179 179 179  179 179 179  179 179 179  179 179 179
179 179 179  179 179 179  179 179 179  179 179 179  0 0 0  0 0 0
0 0 0  0 0 0  0 0 0  0 0 0  0 0 0  0 0 0
0 0 0  0 0 0  0 0 0  0 0 0  0 0 0  0 0 0
0 0 0  179 179 179  179 179 179  179 179 179  179 179 179  179 179 179
179 179 179  179 179 179  179 179 179  179 179 179  179 179 179  179 179 179
179 179 179  179 179 179  179 179 179  179 179 179  179 179 179  179 179 179
179 179 179  179 179 179  179 179 179  179 179 179  179 179 179  179 179 179
178 178 178  173 173 173  177 177 177  179 179 179  179 179 179  179 179 179
179 179 179  179 179 179  179 179 179  179 179 179  179 179 179  179 179 179
179 179 179  179 179 179  179 179 179  179 179 179  179 179 179  179 179 179
179 179 179  179 179 179  179 179 179  179 179 179  179 179 179  179 179 179
179 179 179  179 179 179  168 168 168  32 28 26  25 23 21  35 32 31
33 30 29  34 30 29  36 32 31  29 26 25  24 22 20  88 87 87
179 179 179  179 179 179  179 179 179  179 179 179  179 179 179  179 179 179
179 179 179  179 179 179  179 179 179  179 179 179  179 179 179  179 179 179
179 179 179  179 179 179  179 179 179  179 179 179  179 179 179  179 179 179
179 179 179  179 179 179  179 179 179  47 43 44  21 19 17  34 30 29
35 31 30  34 30 29  36 32 31  32 28 27  25 23 21  50 48 47
179 179 179  179 179 179  179 179 179  179 179 179  179 179 179  179 179 179
179 179 179  179 179 179  179 179 179  179 179 179  179 179 179  179 179 179
179 179 179  179 179 179  179 179 179  179 179 179  179 179 179  179 179 179
179 179 179  179 179 179  179 179 179  0 0 0  0 0 0  0 0 0
0 0 0  0 0 0  0 0 0  0 0 0  0 0 0  0 0 0
0 0 0  0 0 0  0 0 0  0 0 0  0 0 0  0 0 0
0 0 0  0 0 0  0 0 0  0 0 0  0 0 0  0 0 0
0 0 0  0 0 0  0 0 0  0 0 0  0 0 0  0 0 0
0 0 0  0 0 0  0 0 0  0 0 0  0 0 0  0 0 0
0 0 0  0 0 0  0 0 0  0 0 0  0 0 0  0 0 0
0 0 0  0 0 0  0 0 0  179 179 179  179 179 179  179 179 179
179 179 179  179 179 179  179 179 179  179 179 179  179 179 179  179 179 179
179 179 179  179 179 179  179 179 179  179 179 179  179 179 179  179 179 179
179 179 179  179 179 179  179 179 179  179 179 179  179 179 179  179 179 179
68 67 67  26 23 22  20 18 16  19 17 16  19 17 16  18 17 15
18 17 15  18 17 15  17 15 13  18 17 15  29 26 28  112 111 111
179 179 179  179 179 179  179 179 179  179 179 179  179 179 179  179 179 179
179 179 179  179 179 179  179 179 179  179 179 179  179 179 179  179 179 179
179 179 179  179 179 179  179 179 179  179 179 179  179 179 179  179 179 179
179 179 179  179 179 179  178 178 178  178 178 178  178 178 178  178 178 178
178 178 178  178 178 178  179 179 179  179 179 179  179 179 179  179 179 179
179 179 179  179 179 179  179 179 179  179 179 179  179 179 179  179 179 179
179 179 179  179 179 179  179 179 179  0 0 0  0 0 0  0 0 0
0 0 0  0 0 0  0 0 0  0 0 0  0 0 0  0 0 0
0 0 0  0 0 0  0 0 0  0 0 0  0 0 0  0 0 0
0 0 0  0 0 0  179 179 179  179 179 179  179 179 179  179 179 179
179 179 179  179 179 179  179 179 179  179 179 179  179 179 179  179 179 179
179 179 179  179 179 179  179 179 179  179 179 179  179 179 179  179 179 179
179 179 179  179 179 179  179 179 179  179 179 179  179 179 179  179 179 179
179 179 179  179 179 179  179 179 179  179 179 179  179 179 179  179 179 179
179 179 179  179 179 179  179 179 179  179 179 179  179 179 179  179 179 179
179 179 179  179 179 179  179 179 179  179 179 179  179 179 179  179 179 179
179 179 179  179 179 179  179 179 179  179 179 179  179 179 179  179 179 179
179 179 179  179 179 179  169 169 169  33 28 27  25 23 21  32 29 28
36 32 31  36 32 31  32 29 28  29 26 25  26 23 22  88 87 87
179 179 179  179 179 179  179 179 179  179 179 179  179 179 179  179 179 179
179 179 179  179 179 179  179 179 179  179 179 179  179 179 179  179 179 179
179 179 179  179 179 179  179 179 179  179 179 179  179 179 179  179 179 179
179 179 179  179 179 179  179 179 179  48 46 45  19 17 16  33 29 28
35 31 30  35 31 30  36 32 31  33 29 28  22 20 19  52 50 50
177 177 177  179 179 179  179 179 179  179 179 179  179 179 179  179 179 179
179 179 179  179 179 179  179 179 179  179 179 179  179 179 179  179 179 179
179 179 179  179 179 179  179 179 179  179 179 179  179 179 179  179 179 179
179 179 179  179 179 179  179 179 179  179 179 179  0 0 0  0 0 0
0 0 0  0 0 0  0 0 0  0 0 0  0 0 0  0 0 0
0 0 0  0 0 0  0 0 0  0 0 0  0 0 0  0 0 0
0 0 0  0 0 0  0 0 0  0 0 0  0 0 0  0 0 0
0 0 0  0 0 0  0 0 0  0 0 0  0 0 0  0 0 0
0 0 0  0 0 0  0 0 0  0 0 0  0 0 0  0 0 0
0 0 0  0 0 0  0 0 0  0 0 0  0 0 0  0 0 0
0 0 0  0 0 0  0 0 0  179 179 179  179 179 179  179 179 179
179 179 179  179 179 179  179 179 179  179 179 179  179 179 179  179 179 179
179 179 179  179 179 179  179 179 179  179 179 179  179 179 179  179 179 179
179 179 179  179 179 179  179 179 179  179 179 179  179 179 179  179 179 179
179 179 179  156 155 155  86 84 84  50 48 47  36 33 33  32 29 29
33 31 31  38 37 36  56 55 55  106 104 105  174 174 174  179 179 179
179 179 179  179 179 179  179 179 179  179 179 179  179 179 179  179 179 179
179 179 179  179 179 179  179 179 179  179 179 179  179 179 179  179 179 179
179 179 179  179 179 179  179 179 179  179 179 179  179 179 179  179 179 179
179 179 179  179 179 179  178 178 178  178 178 178  178 178 178  178 178 178
178 178 178  178 178 178  179 179 179  179 179 179  179 179 179  179 179 179
179 179 179  179 179 179  179 179 179  179 179 179  179 179 179  179 179 179
179 179 179  179 179 179  0 0 0  0 0 0  0 0 0  0 0 0
0 0 0  0 0 0  0 0 0  0 0 0  0 0 0  0 0 0
0 0 0  0 0 0  0 0 0  0 0 0  0 0 0  0 0 0
0 0 0  0 0 0  0 0 0  179 179 179  179 179 179  179 179 179
179 179 179  179 179 179  179 179 179  179 179 179  179 179 179  179 179 179
179 179 179  179 179 179  179 179 179  179 179 179  179 179 179  179 179 179
179 179 179  179 179 179  179 179 179  179 179 179  179 179 179  179 179 179
179 179 179  179 179 179  179 179 179  179 179 179  179 179 179  179 179 179
179 179 179  179 179 179  179 179 179  179 179 179  179 179 179  179 179 179
179 179 179  179 179 179  179 179 179  179 179 179  179 179 179  179 179 179
179 179 179  179 179 179  179 179 179  179 179 179  179 179 179  179 179 179
179 179 179  179 179 179  145 145 145  30 26 24  27 23 22  33 29 28
35 31 30  34 30 29  34 30 29  29 25 24  23 21 20  76 75 75
176 176 176  179 179 179  179 179 179  179 179 179  179 179 179  179 179 179
179 179 179  179 179 179  179 179 179  179 179 179  179 179 179  179 179 179
179 179 179  179 179 179  179 179 179  179 179 179  179 179 179  179 179 179
179 179 179  179 179 179  163 162 163  42 39 40  21 19 17  33 29 28
36 32 31  35 31 30  36 32 31  32 28 27  25 21 20  47 43 44
163 162 163  179 179 179  179 179 179  179 179 179  179 179 179  179 179 179
179 179 179  179 179 179  179 179 179  179 179 179  179 179 179  179 179 179
179 179 179  179 179 179  179 179 179  179 179 179  179 179 179  179 179 179
179 179 179  179 179 179  179 179 179  179 179 179  0 0 0  0 0 0
0 0 0  0 0 0  0 0 0  0 0 0  0 0 0  0 0 0
0 0 0  0 0 0  0 0 0  0 0 0  0 0 0  0 0 0
0 0 0  0 0 0  0 0 0  0 0 0  0 0 0  0 0 0
0 0 0  0 0 0  0 0 0  0 0 0  0 0 0  0 0 0
0 0 0  0 0 0  0 0 0  0 0 0  0 0 0  0 0 0
0 0 0  0 0 0  0 0 0  0 0 0  0 0 0  0 0 0
0 0 0  0 0 0  0 0 0  0 0 0  179 179 179  179 179 179
179 179 179  179 179 179  179 179 179  179 179 179  179 179 179  179 179 179
179 179 179  179 179 179  179 179 179  179 179 179  179 179 179  179 179 179
179 179 179  179 179 179  179 179 179  179 179 179  179 179 179  179 179 179
179 179 179  179 179 179  179 179 179  179 179 179  179 179 179  176 176 176
176 176 176  179 179 179  179 179 179  179 179 179  179 179 179  179 179 179
179 179 179  179 179 179  179 179 179  179 179 179  179 179 179  179 179 179
179 179 179  179 179 179  179 179 179  179 179 179  179 179 179  179 179 179
179 179 179  179 179 179  179 179 179  179 179 179  179 179 179  179 179 179
179 179 179  179 179 179  177 177 177  178 178 178  178 178 178  178 178 178
178 178 178  178 178 178  178 178 178  179 179 179  179 179 179  179 179 179
179 179 179  179 179 179  179 179 179  179 179 179  179 179 179  179 179 179
179 179 179  0 0 0  0 0 0  0 0 0  0 0 0  0 0 0
0 0 0  0 0 0  0 0 0  0 0 0  0 0 0  0 0 0
0 0 0  0 0 0  0 0 0  0 0 0  0 0 0  0 0 0
0 0 0  0 0 0  0 0 0  0 0 0  179 179 179  179 179 179
179 179 179  179 179 179  179 179 179  179 179 179  179 179 179  179 179 179
179 179 179  179 179 179  179 179 179  179 179 179  179 179 179  179 179 179
179 179 179  179 179 179  179 179 179  179 179 179  179 179 179  179 179 179
179 179 179  179 179 179  179 179 179  179 179 179  179 179 179  179 179 179
179 179 179  179 179 179  179 179 179  179 179 179  179 179 179  179 179 179
179 179 179  179 179 179  179 179 179  179 179 179  179 179 179  179 179 179
179 179 179  179 179 179  179 179 179  179 179 179  179 179 179  179 179 179
157 157 157  65 64 64  31 26 27  25 20 19  30 26 25  35 31 30
35 31 30  35 31 30  34 30 29  32 28 27  26 22 21  26 23 23
52 50 50  145 145 145  179 179 179  179 179 179  179 179 179  179 179 179
179 179 179  179 179 179  179 179 179  179 179 179  179 179 179  179 179 179
179 179 179  179 179 179  179 179 179  179 179 179  179 179 179  179 179 179
173 173 173  88 87 87  36 33 33  24 20 19  28 24 23  36 32 31
35 31 30  35 31 30  35 31 30  33 29 28  28 24 23  25 22 23
38 37 36  106 104 105  178 178 178  179 179 179  179 179 179  179 179 179
179 179 179  179 179 179  179 179 179  179 179 179  179 179 179  179 179 179
179 179 179  179 179 179  179 179 179  179 179 179  179 179 179  179 179 179
179 179 179  179 179 179  179 179 179  179 179 179  179 179 179  0 0 0
0 0 0  0 0 0  0 0 0  0 0 0  0 0 0  0 0 0
0 0 0  0 0 0  0 0 0  0 0 0  0 0 0  0 0 0
0 0 0  0 0 0  0 0 0  0 0 0  0 0 0  0 0 0
0 0 0  0 0 0  0 0 0  0 0 0  0 0 0  0 0 0
0 0 0  0 0 0  0 0 0  0 0 0  0 0 0  0 0 0
0 0 0  0 0 0  0 0 0  0 0 0  0 0 0  0 0 0
0 0 0  0 0 0  0 0 0  0 0 0  179 179 179  179 179 179
179 179 179  179 179 179  179 179 179  179 179 179  179 179 179  179 179 179
179 179 179  179 179 179  179 179 179  179 179 179  179 179 179  179 179 179
179 179 179  179 179 179  179 179 179  179 179 179  179 179 179  179 179 179
179 179 179  179 179 179  179 179 179  179 179 179  179 179 179  179 179 179
179 179 179  179 179 179  179 179 179  179 179 179  179 179 179  179 179 179
179 179 179  179 179 179  179 179 179  179 179 179  179 179 179  179 179 179
179 179 179  179 179 179  179 179 179  179 179 179  179 179 179  179 179 179
179 179 179  179 179 179  179 179 179  179 179 179  179 179 179  179 179 179
179 179 179  179 179 179  176 176 176  176 176 176  176 176 176  177 177 177
177 177 177  177 177 177  178 178 178  178 178 178  178 178 178  178 178 178
179 179 179  179 179 179  179 179 179  179 179 179  179 179 179  179 179 179
0 0 0  0 0 0  0 0 0  0 0 0  0 0 0  0 0 0
0 0 0  0 0 0  0 0 0  0 0 0  0 0 0  0 0 0
0 0 0  0 0 0  0 0 0  0 0 0  0 0 0  0 0 0
0 0 0  0 0 0  0 0 0  0 0 0  0 0 0  179 179 179
179 179 179  179 179 179  179 179 179  179 179 179  179 179 179  179 179 179
179 179 179  179 179 179  179 179 179  179 179 179  179 179 179  179 179 179
179 179 179  179 179 179  179 179 179  179 179 179  179 179 179  179 179 179
179 179 179  179 179 179  179 179 179  179 179 179  179 179 179  179 179 179
179 179 179  179 179 179  179 179 179  179 179 179  179 179 179  179 179 179
179 179 179  179 179 179  179 179 179  179 179 179  179 179 179  179 179 179
179 179 179  179 179 179  179 179 179  179 179 179  179 179 179  123 123 123
36 33 33  18 16 17  21 18 19  32 28 27  34 30 29  36 32 31
34 30 29  34 30 29  36 32 31  35 31 30  33 28 27  24 20 21
16 15 15  25 22 23  102 101 102  179 179 179  179 179 179  179 179 179
179 179 179  179 179 179  179 179 179  179 179 179  179 179 179  179 179 179
179 179 179  179 179 179  179 179 179  179 179 179  179 179 179  160 160 160
55 52 53  20 18 19  21 18 19  29 25 24  35 31 30  34 30 29
35 31 30  34 30 29  33 29 28  34 30 29  35 31 30  27 24 24
17 15 16  21 19 20  71 69 70  179 179 179  179 179 179  179 179 179
179 179 179  179 179 179  179 179 179  179 179 179  179 179 179  179 179 179
179 179 179  179 179 179  179 179 179  179 179 179  179 179 179  179 179 179
179 179 179  179 179 179  179 179 179  179 179 179  179 179 179  0 0 0
0 0 0  0 0 0  0 0 0  0 0 0  0 0 0  0 0 0
0 0 0  0 0 0  0 0 0  0 0 0  0 0 0  0 0 0
0 0 0  0 0 0  0 0 0  0 0 0  0 0 0  0 0 0
0 0 0  0 0 0  0 0 0  0 0 0  0 0 0  0 0 0
0 0 0  0 0 0  0 0 0  0 0 0  0 0 0  0 0 0
0 0 0  0 0 0  0 0 0  0 0 0  0 0 0  0 0 0
0 0 0  0 0 0  0 0 0  0 0 0  179 179 179  179 179 179
179 179 179  179 179 179  179 179 179  179 179 179  179 179 179  179 179 179
179 179 179  179 179 179  179 179 179  179 179 179  179 179 179  179 179 179
179 179 179  179 179 179  179 179 179  179 179 179  179 179 179  179 179 179
179 179 179  179 179 179  179 179 179  179 179 179  179 179 179  179 179 179
179 179 179  179 179 179  179 179 179  179 179 179  179 179 179  179 179 179
179 179 179  179 179 179  179 179 179  179 179 179  179 179 179  179 179 179
179 179 179  179 179 179  179 179 179  179 179 179  179 179 179  179 179 179
179 179 179  179 179 179  179 179 179  179 179 179  179 179 179  179 179 179
179 179 179  179 179 179  174 174 174  175 175 175  175 175 175  176 176 176
176 176 176  177 177 177  177 177 177  177 177 177  178 178 178  178 178 178
178 178 178  179 179 179  179 179 179  179 179 179  179 179 179  0 0 0
0 0 0  0 0 0  0 0 0  0 0 0  0 0 0  0 0 0
0 0 0  0 0 0  0 0 0  0 0 0  0 0 0  0 0 0
0 0 0  0 0 0  0 0 0  0 0 0  0 0 0  0 0 0
0 0 0  0 0 0  0 0 0  0 0 0  0 0 0  0 0 0
179 179 179  179 179 179  179 179 179  179 179 179  179 179 179  179 179 179
179 179 179  179 179 179  179 179 179  179 179 179  179 179 179  179 179 179
179 179 179  179 179 179  179 179 179  179 179 179  179 179 179  179 179 179
179 179 179  179 179 179  179 179 179  179 179 179  179 179 179  179 179 179
179 179 179  179 179 179  179 179 179  179 179 179  179 179 179  179 179 179
179 179 179  179 179 179  179 179 179  179 179 179  179 179 179  179 179 179
179 179 179  179 179 179  179 179 179  179 179 179  114 114 114  29 25 24
19 15 16  28 23 24  36 33 33  36 31 30  36 32 31  33 29 28
34 30 29  34 30 29  35 31 30  35 31 31  37 31 31  35 31 31
32 29 29  17 15 16  20 16 18  83 82 83  179 179 179  179 179 179
179 179 179  179 179 179  179 179 179  179 179 179  179 179 179  179 179 179
179 179 179  179 179 179  179 179 179  179 179 179  179 179 179  50 48 47
17 15 16  23 19 21  35 31 31  34 29 29  36 31 30  36 31 30
35 30 29  34 30 29  34 30 29  35 31 30  35 31 30  36 32 32
32 29 29  18 16 17  16 15 15  56 55 55  179 179 179  179 179 179
179 179 179  179 179 179  179 179 179  179 179 179  179 179 179  179 179 179
179 179 179  179 179 179  179 179 179  179 179 179  179 179 179  179 179 179
179 179 179  179 179 179  179 179 179  179 179 179  179 179 179  0 0 0
0 0 0  0 0 0  0 0 0  0 0 0  0 0 0  0 0 0
0 0 0  0 0 0  0 0 0  0 0 0  0 0 0  0 0 0
0 0 0  0 0 0  0 0 0  0 0 0  0 0 0  0 0 0
0 0 0  0 0 0  0 0 0  0 0 0  0 0 0  0 0 0
0 0 0  0 0 0  0 0 0  0 0 0  0 0 0  0 0 0
0 0 0  0 0 0  0 0 0  0 0 0  0 0 0  0 0 0
0 0 0  0 0 0  0 0 0  0 0 0  0 0 0  179 179 179
179 179 179  179 179 179  179 179 179  179 179 179  179 179 179  179 179 179
179 179 179  179 179 179  179 179 179  179 179 179  179 179 179  179 179 179
179 179 179  179 179 179  179 179 179  179 179 179  179 179 179  179 179 179
179 179 179  179 179 179  179 179 179  179 179 179  179 179 179  179 179 179
179 179 179  179 179 179  179 179 179  179 179 179  179 179 179  179 179 179
179 179 179  179 179 179  179 179 179  179 179 179  179 179 179  179 179 179
179 179 179  179 179 179  179 179 179  179 179 179  179 179 179  179 179 179
179 179 179  179 179 179  179 179 179  179 179 179  179 179 179  179 179 179
179 179 179  179 179 179  174 174 174  174 174 174  175 175 175  175 175 175
176 176 176  176 176 176  177 177 177  177 177 177  178 178 178  178 178 178
178 178 178  179 179 179  179 179 179  0 0 0  0 0 0  0 0 0
0 0 0  0 0 0  0 0 0  0 0 0  0 0 0  0 0 0
0 0 0  0 0 0  0 0 0  0 0 0  0 0 0  0 0 0
0 0 0  0 0 0  0 0 0  0 0 0  0 0 0  0 0 0
0 0 0  0 0 0  0 0 0  0 0 0  0 0 0  0 0 0
0 0 0  179 179 179  179 179 179  179 179 179  179 179 179  179 179 179
179 179 179  179 179 179  179 179 179  179 179 179  179 179 179  179 179 179
179 179 179  179 179 179  179 179 179  179 179 179  179 179 179  179 179 179
179 179 179  179 179 179  179 179 179  179 179 179  179 179 179  179 179 179
179 179 179  179 179 179  179 179 179  179 179 179  179 179 179  179 179 179
179 179 179  179 179 179  179 179 179  179 179 179  179 179 179  179 179 179
179 179 179  179 179 179  179 179 179  138 138 138  32 28 27  20 16 15
29 25 24  37 33 32  34 30 29  33 29 28  25 21 20  22 18 17
22 18 17  23 19 18  22 18 17  25 21 20  31 26 27  36 32 31
35 31 29  34 30 29  18 16 15  21 19 20  88 87 87  176 176 176
179 179 179  179 179 179  179 179 179  179 179 179  179 179 179  179 179 179
179 179 179  179 179 179  179 179 179  169 169 169  52 50 50  20 16 15
25 21 20  35 31 30  36 32 31  32 28 27  29 26 25  21 18 19
18 16 17  18 16 17  18 16 17  26 21 22  28 24 23  35 31 30
36 31 30  37 33 32  22 18 17  19 15 16  56 55 55  169 169 169
179 179 179  179 179 179  179 179 179  179 179 179  179 179 179  179 179 179
179 179 179  179 179 179  179 179 179  179 179 179  179 179 179  179 179 179
179 179 179  179 179 179  179 179 179  179 179 179  179 179 179  179 179 179
0 0 0  0 0 0  0 0 0  0 0 0  0 0 0  0 0 0
0 0 0  0 0 0  0 0 0  0 0 0  0 0 0  0 0 0
0 0 0  0 0 0  0 0 0  0 0 0  0 0 0  0 0 0
0 0 0  0 0 0  0 0 0  0 0 0  0 0 0  0 0 0
0 0 0  0 0 0  0 0 0  0 0 0  0 0 0  0 0 0
0 0 0  0 0 0  0 0 0  0 0 0  0 0 0  0 0 0
0 0 0  0 0 0  0 0 0  0 0 0  0 0 0  0 0 0
179 179 179  179 179 179  179 179 179  179 179 179  179 179 179  179 179 179
179 179 179  179 179 179  179 179 179  179 179 179  179 179 179  179 179 179
179 179 179  179 179 179  179 179 179  179 179 179  179 179 179  179 179 179
179 179 179  179 179 179  179 179 179  179 179 179  179 179 179  179 179 179
179 179 179  179 179 179  179 179 179  179 179 179  179 179 179  179 179 179
179 179 179  179 179 179  179 179 179  179 179 179  179 179 179  179 179 179
179 179 179  179 179 179  179 179 179  179 179 179  179 179 179  179 179 179
179 179 179  179 179 179  179 179 179  179 179 179  179 179 179  179 179 179
179 179 179  179 179 179  174 174 174  175 175 175  175 175 175  175 175 175
176 176 176  176 176 176  177 177 177  177 177 177  178 178 178  178 178 178
178 178 178  179 179 179  0 0 0  0 0 0  0 0 0  0 0 0
0 0 0  0 0 0  0 0 0  0 0 0  0 0 0  0 0 0
0 0 0  0 0 0  0 0 0  0 0 0  0 0 0  0 0 0
0 0 0  0 0 0  0 0 0  0 0 0  0 0 0  0 0 0
0 0 0  0 0 0  0 0 0  0 0 0  0 0 0  0 0 0
0 0 0  0 0 0  179 179 179  179 179 179  179 179 179  179 179 179
179 179 179  179 179 179  179 179 179  179 179 179  179 179 179  179 179 179
179 179 179  179 179 179  179 179 179  179 179 179  179 179 179  179 179 179
179 179 179  179 179 179  179 179 179  179 179 179  179 179 179  179 179 179
179 179 179  179 179 179  179 179 179  179 179 179  179 179 179  179 179 179
179 179 179  179 179 179  179 179 179  179 179 179  179 179 179  179 179 179
179 179 179  179 179 179  175 175 175  47 43 44  21 17 16  29 25 24
34 31 30  34 30 29  29 25 24  20 16 15  25 21 20  33 30 29
42 38 37  43 42 42  35 32 31  26 22 21  21 18 17  27 23 22
35 30 28  35 31 30  33 29 29  21 18 19  28 25 26  133 133 133
179 179 179  179 179 179  179 179 179  179 179 179  179 179 179  179 179 179
179 179 179  179 179 179  179 179 179  71 69 70  20 17 16  23 21 19
35 31 30  35 32 31  31 27 26  23 18 17  24 20 19  30 28 26
38 37 36  43 42 42  36 35 34  29 26 28  22 18 17  24 21 19
32 29 28  35 31 30  36 32 31  24 20 21  20 18 19  79 76 76
177 177 177  179 179 179  179 179 179  179 179 179  179 179 179  179 179 179
179 179 179  179 179 179  179 179 179  179 179 179  179 179 179  179 179 179
179 179 179  179 179 179  179 179 179  179 179 179  179 179 179  179 179 179
0 0 0  0 0 0  0 0 0  0 0 0  0 0 0  0 0 0
0 0 0  0 0 0  0 0 0  0 0 0  0 0 0  0 0 0
0 0 0  0 0 0  0 0 0  0 0 0  0 0 0  0 0 0
0 0 0  0 0 0  0 0 0  0 0 0  0 0 0  0 0 0
0 0 0  0 0 0  0 0 0  0 0 0  0 0 0  0 0 0
0 0 0  0 0 0  0 0 0  0 0 0  0 0 0  0 0 0
0 0 0  0 0 0  0 0 0  0 0 0  0 0 0  0 0 0
179 179 179  179 179 179  179 179 179  179 179 179  179 179 179  179 179 179
179 179 179  179 179 179  179 179 179  179 179 179  179 179 179  179 179 179
179 179 179  179 179 179  179 179 179  179 179 179  179 179 179  179 179 179
179 179 179  179 179 179  179 179 179  179 179 179  179 179 179  179 179 179
179 179 179  179 179 179  179 179 179  179 179 179  179 179 179  179 179 179
179 179 179  179 179 179  179 179 179  179 179 179  179 179 179  179 179 179
179 179 179  179 179 179  179 179 179  179 179 179  179 179 179  179 179 179
179 179 179  179 179 179  179 179 179  179 179 179  179 179 179  179 179 179
179 179 179  179 179 179  175 175 175  175 175 175  175 175 175  176 176 176
176 176 176  176 176 176  177 177 177  177 177 177  178 178 178  178 178 178
178 178 178  0 0 0  0 0 0  0 0 0  0 0 0  0 0 0
0 0 0  0 0 0  0 0 0  0 0 0  0 0 0  0 0 0
0 0 0  0 0 0  0 0 0  0 0 0  0 0 0  0 0 0
0 0 0  0 0 0  0 0 0  0 0 0  0 0 0  0 0 0
0 0 0  0 0 0  0 0 0  0 0 0  0 0 0  0 0 0
0 0 0  0 0 0  0 0 0  179 179 179  179 179 179  179 179 179
179 179 179  179 179 179  179 179 179  179 179 179  179 179 179  179 179 179
179 179 179  179 179 179  179 179 179  179 179 179  179 179 179  179 179 179
179 179 179  179 179 179  179 179 179  179 179 179  179 179 179  179 179 179
179 179 179  179 179 179  179 179 179  179 179 179  179 179 179  179 179 179
179 179 179  179 179 179  179 179 179  179 179 179  179 179 179  179 179 179
179 179 179  179 179 179  95 95 95  21 16 16  26 22 21  35 31 30
35 31 30  28 24 23  22 17 16  39 34 34  92 90 91  164 163 163
178 178 178  179 179 179  174 174 174  112 111 111  47 43 44  23 19 18
27 23 22  33 30 29  34 31 30  31 26 27  19 16 17  60 56 57
179 179 179  179 179 179  179 179 179  179 179 179  179 179 179  179 179 179
179 179 179  179 179 179  126 125 126  25 23 21  22 19 18  35 31 30
35 31 30  31 27 26  21 18 17  30 26 25  71 69 70  156 155 155
179 179 179  177 177 177  173 173 173  150 149 149  60 59 59  27 25 23
21 20 19  32 28 27  34 30 29  34 30 29  20 17 18  29 26 28
133 133 133  179 179 179  179 179 179  179 179 179  179 179 179  179 179 179
179 179 179  179 179 179  179 179 179  179 179 179  179 179 179  179 179 179
179 179 179  179 179 179  179 179 179  179 179 179  179 179 179  179 179 179
0 0 0  0 0 0  0 0 0  0 0 0  0 0 0  0 0 0
0 0 0  0 0 0  0 0 0  0 0 0  0 0 0  0 0 0
0 0 0  0 0 0  0 0 0  0 0 0  0 0 0  0 0 0
0 0 0  0 0 0  0 0 0  0 0 0  0 0 0  0 0 0
0 0 0  0 0 0  0 0 0  0 0 0  0 0 0  0 0 0
0 0 0  0 0 0  0 0 0  0 0 0  0 0 0  0 0 0
0 0 0  0 0 0  0 0 0  0 0 0  0 0 0  0 0 0
0 0 0  179 179 179  179 179 179  179 179 179  179 179 179  179 179 179
179 179 179  179 179 179  179 179 179  179 179 179  179 179 179  179 179 179
179 179 179  179 179 179  179 179 179  179 179 179  179 179 179  179 179 179
179 179 179  179 179 179  179 179 179  179 179 179  179 179 179  179 179 179
179 179 179  179 179 179  179 179 179  179 179 179  179 179 179  179 179 179
179 179 179  179 179 179  179 179 179  179 179 179  179 179 179  179 179 179
179 179 179  179 179 179  179 179 179  179 179 179  179 179 179  179 179 179
179 179 179  179 179 179  179 179 179  179 179 179  179 179 179  179 179 179
179 179 179  179 179 179  172 172 172  173 173 173  173 173 173  174 174 174
174 174 174  175 175 175  176 176 176  176 176 176  177 177 177  0 0 0
0 0 0  0 0 0  0 0 0  0 0 0  0 0 0  0 0 0
0 0 0  0 0 0  0 0 0  0 0 0  0 0 0  0 0 0
0 0 0  0 0 0  0 0 0  0 0 0  0 0 0  0 0 0
0 0 0  0 0 0  0 0 0  0 0 0  0 0 0  0 0 0
0 0 0  0 0 0  0 0 0  0 0 0  0 0 0  0 0 0
0 0 0  0 0 0  0 0 0  0 0 0  179 179 179  179 179 179
179 179 179  179 179 179  179 179 179  179 179 179  179 179 179  179 179 179
179 179 179  179 179 179  178 178 178  178 178 178  178 178 178  178 178 178
178 178 178  179 179 179  179 179 179  179 179 179  179 179 179  179 179 179
179 179 179  179 179 179  179 179 179  179 179 179  179 179 179  179 179 179
179 179 179  179 179 179  179 179 179  179 179 179  179 179 179  179 179 179
179 179 179  179 179 179  34 31 30  22 18 17  34 30 29  35 31 30
28 24 23  20 16 14  56 55 55  156 155 155  178 178 178  178 178 178
179 179 179  179 179 179  179 179 179  179 179 179  163 162 163  74 72 73
22 19 18  26 22 21  34 30 29  33 29 28  21 18 19  25 21 20
175 175 175  179 179 179  179 179 179  179 179 179  179 179 179  179 179 179
179 179 179  179 179 179  52 50 50  19 17 16  35 31 30  34 30 29
31 27 26  21 17 16  34 31 30  123 123 123  179 179 179  179 179 179
179 179 179  179 179 179  175 175 175  179 179 179  172 172 172  102 101 102
25 25 24  23 20 19  35 31 30  33 29 28  28 24 23  19 17 16
76 75 75  179 179 179  179 179 179  179 179 179  179 179 179  179 179 179
179 179 179  179 179 179  179 179 179  179 179 179  179 179 179  179 179 179
179 179 179  179 179 179  179 179 179  179 179 179  179 179 179  179 179 179
0 0 0  0 0 0  0 0 0  0 0 0  0 0 0  0 0 0
0 0 0  0 0 0  0 0 0  0 0 0  0 0 0  0 0 0
0 0 0  0 0 0  0 0 0  0 0 0  0 0 0  0 0 0
0 0 0  0 0 0  0 0 0  0 0 0  0 0 0  0 0 0
0 0 0  0 0 0  0 0 0  0 0 0  0 0 0  0 0 0
0 0 0  0 0 0  0 0 0  0 0 0  0 0 0  0 0 0
0 0 0  0 0 0  0 0 0  0 0 0  0 0 0  0 0 0
0 0 0  0 0 0  179 179 179  179 179 179  179 179 179  179 179 179
179 179 179  179 179 179  179 179 179  179 179 179  179 179 179  179 179 179
179 179 179  179 179 179  179 179 179  179 179 179  179 179 179  179 179 179
179 179 179  179 179 179  179 179 179  179 179 179  179 179 179  179 179 179
179 179 179  179 179 179  179 179 179  179 179 179  179 179 179  179 179 179
179 179 179  179 179 179  179 179 179  179 179 179  179 179 179  179 179 179
179 179 179  179 179 179  179 179 179  179 179 179  179 179 179  179 179 179
179 179 179  179 179 179  179 179 179  179 179 179  179 179 179  179 179 179
179 179 179  179 179 179  168 168 168  169 169 169  170 169 169  170 169 169
171 171 171  172 172 172  173 173 173  0 0 0  0 0 0  0 0 0
0 0 0  0 0 0  0 0 0  0 0 0  0 0 0  0 0 0
0 0 0  0 0 0  0 0 0  0 0 0  0 0 0  0 0 0
0 0 0  0 0 0  0 0 0  0 0 0  0 0 0  0 0 0
0 0 0  0 0 0  0 0 0  0 0 0  0 0 0  0 0 0
0 0 0  0 0 0  0 0 0  0 0 0  0 0 0  0 0 0
0 0 0  0 0 0  0 0 0  0 0 0  0 0 0  179 179 179
179 179 179  179 179 179  179 179 179  179 179 179  179 179 179  179 179 179
179 179 179  178 178 178  178 178 178  178 178 178  178 178 178  178 178 178
178 178 178  179 179 179  179 179 179  179 179 179  179 179 179  179 179 179
179 179 179  179 179 179  179 179 179  179 179 179  179 179 179  179 179 179
179 179 179  179 179 179  179 179 179  179 179 179  179 179 179  179 179 179
179 179 179  126 125 126  21 16 16  25 21 20  35 31 30  31 27 26
20 17 16  42 38 37  171 171 171  179 179 179  179 179 179  179 179 179
179 179 179  179 179 179  179 179 179  179 179 179  179 179 179  177 177 177
65 64 64  17 14 13  30 26 25  37 34 33  27 23 22  17 14 13
99 97 97  179 179 179  179 179 179  179 179 179  179 179 179  179 179 179
179 179 179  154 154 154  30 28 26  21 19 17  36 32 31  35 31 30
23 21 20  23 21 20  106 104 105  173 173 173  179 179 179  179 179 179
179 179 179  179 179 179  179 179 179  179 179 179  179 179 179  174 174 174
92 90 91  20 18 16  23 22 20  37 34 33  32 28 27  19 17 16
38 37 36  165 165 164  179 179 179  179 179 179  179 179 179  179 179 179
179 179 179  179 179 179  179 179 179  179 179 179  179 179 179  179 179 179
179 179 179  179 179 179  179 179 179  179 179 179  179 179 179  179 179 179
0 0 0  0 0 0  0 0 0  0 0 0  0 0 0  0 0 0
0 0 0  0 0 0  0 0 0  0 0 0  0 0 0  0 0 0
0 0 0  0 0 0  0 0 0  0 0 0  0 0 0  0 0 0
0 0 0  0 0 0  0 0 0  0 0 0  0 0 0  0 0 0
0 0 0  0 0 0  0 0 0  0 0 0  0 0 0  0 0 0
0 0 0  0 0 0  0 0 0  0 0 0  0 0 0  0 0 0
0 0 0  0 0 0  0 0 0  0 0 0  0 0 0  0 0 0
0 0 0  0 0 0  0 0 0  179 179 179  179 179 179  179 179 179
179 179 179  179 179 179  179 179 179  179 179 179  179 179 179  179 179 179
179 179 179  179 179 179  179 179 179  179 179 179  179 179 179  179 179 179
179 179 179  179 179 179  179 179 179  179 179 179  179 179 179  179 179 179
179 179 179  179 179 179  179 179 179  179 179 179  179 179 179  179 179 179
179 179 179  179 179 179  179 179 179  179 179 179  179 179 179  179 179 179
179 179 179  179 179 179  179 179 179  179 179 179  179 179 179  179 179 179
179 179 179  179 179 179  179 179 179  179 179 179  179 179 179  179 179 179
179 179 179  179 179 179  165 165 164  165 165 164  166 166 166  167 167 167
168 168 168  0 0 0  0 0 0  0 0 0  0 0 0  0 0 0
0 0 0  0 0 0  0 0 0  0 0 0  0 0 0  0 0 0
0 0 0  0 0 0  0 0 0  0 0 0  0 0 0  0 0 0
0 0 0  0 0 0  0 0 0  0 0 0  0 0 0  0 0 0
0 0 0  0 0 0  0 0 0  0 0 0  0 0 0  0 0 0
0 0 0  0 0 0  0 0 0  0 0 0  0 0 0  0 0 0
0 0 0  0 0 0  0 0 0  0 0 0  0 0 0  0 0 0
179 179 179  179 179 179  179 179 179  179 179 179  178 178 178  179 179 179
178 178 178  178 178 178  178 178 178  178 178 178  178 178 178  178 178 178
178 178 178  179 179 179  179 179 179  179 179 179  179 179 179  179 179 179
179 179 179  179 179 179  179 179 179  179 179 179  179 179 179  179 179 179
179 179 179  179 179 179  179 179 179  179 179 179  179 179 179  179 179 179
179 179 179  63 60 61  19 15 14  32 28 27  37 33 32  27 25 23
21 18 17  99 97 97  179 179 179  179 179 179  179 179 179  179 179 179
179 179 179  179 179 179  179 179 179  179 179 179  179 179 179  179 179 179
179 179 179  27 23 22  24 20 19  32 28 27  32 28 27  19 15 14
42 39 40  179 179 179  179 179 179  179 179 179  179 179 179  179 179 179
179 179 179  95 95 95  23 21 20  28 24 23  35 31 30  31 27 26
21 19 17  48 46 45  179 179 179  179 179 179  179 179 179  179 179 179
179 179 179  179 179 179  179 179 179  179 179 179  179 179 179  179 179 179
179 179 179  38 37 36  22 21 19  34 31 30  32 28 27  23 20 19
25 23 21  145 145 145  179 179 179  179 179 179  179 179 179  179 179 179
179 179 179  179 179 179  179 179 179  179 179 179  179 179 179  179 179 179
179 179 179  179 179 179  179 179 179  179 179 179  179 179 179  179 179 179
179 179 179  0 0 0  0 0 0  0 0 0  0 0 0  0 0 0
0 0 0  0 0 0  0 0 0  0 0 0  0 0 0  0 0 0
0 0 0  0 0 0  0 0 0  0 0 0  0 0 0  0 0 0
0 0 0  0 0 0  0 0 0  0 0 0  0 0 0  0 0 0
0 0 0  0 0 0  0 0 0  0 0 0  0 0 0  0 0 0
0 0 0  0 0 0  0 0 0  0 0 0  0 0 0  0 0 0
0 0 0  0 0 0  0 0 0  0 0 0  0 0 0  0 0 0
0 0 0  0 0 0  0 0 0  0 0 0  179 179 179  179 179 179
179 179 179  179 179 179  178 178 178  179 179 179  179 179 179  179 179 179
179 179 179  179 179 179  179 179 179  179 179 179  179 179 179  179 179 179
179 179 179  179 179 179  179 179 179  179 179 179  179 179 179  179 179 179
179 179 179  179 179 179  179 179 179  179 179 179  179 179 179  179 179 179
179 179 179  179 179 179  179 179 179  179 179 179  179 179 179  179 179 179
179 179 179  179 179 179  179 179 179  178 178 178  179 179 179  179 179 179
179 179 179  179 179 179  179 179 179  179 179 179  179 179 179  179 179 179
0 0 0  0 0 0  0 0 0  0 0 0  0 0 0  0 0 0
0 0 0  0 0 0  0 0 0  0 0 0  0 0 0  0 0 0
0 0 0  0 0 0  0 0 0  0 0 0  0 0 0  0 0 0
0 0 0  0 0 0  0 0 0  0 0 0  0 0 0  0 0 0
0 0 0  0 0 0  0 0 0  0 0 0  0 0 0  0 0 0
0 0 0  0 0 0  0 0 0  0 0 0  0 0 0  0 0 0
0 0 0  0 0 0  0 0 0  0 0 0  0 0 0  0 0 0
0 0 0  0 0 0  0 0 0  0 0 0  0 0 0  0 0 0
0 0 0  179 179 179  179 179 179  179 179 179  178 178 178  179 179 179
178 178 178  178 178 178  178 178 178  178 178 178  178 178 178  178 178 178
178 178 178  179 179 179  179 179 179  179 179 179  179 179 179  179 179 179
179 179 179  179 179 179  179 179 179  179 179 179  179 179 179  179 179 179
179 179 179  179 179 179  179 179 179  179 179 179  179 179 179  179 179 179
179 179 179  42 39 40  21 17 16  33 29 28  33 29 28  24 22 20
28 26 26  129 128 129  179 179 179  179 179 179  179 179 179  179 179 179
179 179 179  179 179 179  179 179 179  179 179 179  179 179 179  179 179 179
179 179 179  47 43 44  21 18 17  33 29 28  33 29 28  20 16 15
30 28 26  179 179 179  179 179 179  179 179 179  179 179 179  179 179 179
179 179 179  74 72 73  23 20 19  30 26 25  36 32 31  29 25 24
22 19 18  79 76 76  179 179 179  179 179 179  179 179 179  179 179 179
179 179 179  179 179 179  179 179 179  179 179 179  179 179 179  179 179 179
179 179 179  86 84 84  19 16 16  29 25 24  36 31 30  26 23 22
19 18 18  133 133 133  179 179 179  179 179 179  179 179 179  179 179 179
179 179 179  179 179 179  179 179 179  179 179 179  179 179 179  179 179 179
179 179 179  179 179 179  179 179 179  179 179 179  179 179 179  179 179 179
179 179 179  0 0 0  0 0 0  0 0 0  0 0 0  0 0 0
0 0 0  0 0 0  0 0 0  0 0 0  0 0 0  0 0 0
0 0 0  0 0 0  0 0 0  0 0 0  0 0 0  0 0 0
0 0 0  0 0 0  0 0 0  0 0 0  0 0 0  0 0 0
0 0 0  0 0 0  0 0 0  0 0 0  0 0 0  0 0 0
0 0 0  0 0 0  0 0 0  0 0 0  0 0 0  0 0 0
0 0 0  0 0 0  0 0 0  0 0 0  0 0 0  0 0 0
0 0 0  0 0 0  0 0 0  0 0 0  0 0 0  179 179 179
179 179 179  179 179 179  178 178 178  179 179 179  179 179 179  179 179 179
179 179 179  179 179 179  179 179 179  179 179 179  179 179 179  179 179 179
179 179 179  179 179 179  179 179 179  179 179 179  179 179 179  179 179 179
179 179 179  179 179 179  179 179 179  179 179 179  179 179 179  179 179 179
179 179 179  179 179 179  179 179 179  179 179 179  179 179 179  179 179 179
179 179 179  179 179 179  179 179 179  178 178 178  179 179 179  179 179 179
179 179 179  0 0 0  0 0 0  0 0 0  0 0 0  0 0 0
0 0 0  0 0 0  0 0 0  0 0 0  0 0 0  0 0 0
0 0 0  0 0 0  0 0 0  0 0 0  0 0 0  0 0 0
0 0 0  0 0 0  0 0 0  0 0 0  0 0 0  0 0 0
0 0 0  0 0 0  0 0 0  0 0 0  0 0 0  0 0 0
0 0 0  0 0 0  0 0 0  0 0 0  0 0 0  0 0 0
0 0 0  0 0 0  0 0 0  0 0 0  0 0 0  0 0 0
0 0 0  0 0 0  0 0 0  0 0 0  0 0 0  0 0 0
0 0 0  0 0 0  0 0 0  0 0 0  0 0 0  0 0 0
0 0 0  0 0 0  179 179 179  179 179 179  178 178 178  179 179 179
178 178 178  178 178 178  178 178 178  178 178 178  178 178 178  178 178 178
178 178 178  179 179 179  179 179 179  179 179 179  179 179 179  179 179 179
179 179 179  179 179 179  179 179 179  179 179 179  179 179 179  179 179 179
179 179 179  179 179 179  179 179 179  179 179 179  179 179 179  179 179 179
179 179 179  36 35 34  22 18 17  34 30 29  33 29 28  23 21 20
36 33 33  152 151 151  179 179 179  179 179 179  179 179 179  179 179 179
179 179 179  179 179 179  179 179 179  179 179 179  179 179 179  179 179 179
179 179 179  71 69 70  20 17 16  30 26 25  34 29 29  22 17 16
24 21 22  179 179 179  179 179 179  179 179 179  179 179 179  179 179 179
179 179 179  65 64 64  25 21 20  32 28 27  35 31 30  27 23 22
23 21 20  112 111 111  179 179 179  179 179 179  179 179 179  179 179 179
179 179 179  179 179 179  179 179 179  179 179 179  179 179 179  179 179 179
179 179 179  123 123 123  21 19 20  26 22 21  36 31 30  28 24 23
19 16 16  126 125 126  179 179 179  179 179 179  179 179 179  179 179 179
179 179 179  179 179 179  179 179 179  179 179 179  179 179 179  179 179 179
179 179 179  179 179 179  179 179 179  179 179 179  179 179 179  179 179 179
179 179 179  0 0 0  0 0 0  0 0 0  0 0 0  0 0 0
0 0 0  0 0 0  0 0 0  0 0 0  0 0 0  0 0 0
0 0 0  0 0 0  0 0 0  0 0 0  0 0 0  0 0 0
0 0 0  0 0 0  0 0 0  0 0 0  0 0 0  0 0 0
0 0 0  0 0 0  0 0 0  0 0 0  0 0 0  0 0 0
0 0 0  0 0 0  0 0 0  0 0 0  0 0 0  0 0 0
0 0 0  0 0 0  0 0 0  0 0 0  0 0 0  0 0 0
0 0 0  0 0 0  0 0 0  0 0 0  0 0 0  0 0 0
179 179 179  179 179 179  178 178 178  179 179 179  179 179 179  179 179 179
179 179 179  179 179 179  179 179 179  179 179 179  179 179 179  179 179 179
179 179 179  179 179 179  179 179 179  179 179 179  179 179 179  179 179 179
179 179 179  179 179 179  179 179 179  179 179 179  179 179 179  179 179 179
179 179 179  179 179 179  179 179 179  179 179 179  179 179 179  179 179 179
179 179 179  179 179 179  179 179 179  178 178 178  179 179 179  0 0 0
0 0 0  0 0 0  0 0 0  0 0 0  0 0 0  0 0 0
0 0 0  0 0 0  0 0 0  0 0 0  0 0 0  0 0 0
0 0 0  0 0 0  0 0 0  0 0 0  0 0 0  0 0 0
0 0 0  0 0 0  0 0 0  0 0 0  0 0 0  0 0 0
0 0 0  0 0 0  0 0 0  0 0 0  0 0 0  0 0 0
0 0 0  0 0 0  0 0 0  0 0 0  0 0 0  0 0 0
0 0 0  0 0 0  0 0 0  0 0 0  0 0 0  0 0 0
0 0 0  0 0 0  0 0 0  0 0 0  0 0 0  0 0 0
0 0 0  0 0 0  0 0 0  0 0 0  0 0 0  0 0 0
0 0 0  0 0 0  0 0 0  0 0 0  178 178 178  178 178 178
178 178 178  178 178 178  178 178 178  178 178 178  177 177 177  177 177 177
177 177 177  179 179 179  179 179 179  179 179 179  179 179 179  179 179 179
179 179 179  179 179 179  179 179 179  179 179 179  179 179 179  179 179 179
179 179 179  179 179 179  179 179 179  179 179 179  179 179 179  179 179 179
179 179 179  36 35 34  22 18 17  33 29 28  33 29 28  23 20 19
36 33 33  152 151 151  179 179 179  179 179 179  179 179 179  179 179 179
179 179 179  179 179 179  179 179 179  179 179 179  179 179 179  179 179 179
179 179 179  68 67 67  20 18 17  31 27 26  35 31 30  23 19 18
24 21 22  179 179 179  179 179 179  179 179 179  179 179 179  179 179 179
179 179 179  65 64 64  25 21 20  32 28 27  35 31 30  27 23 22
23 21 20  109 108 108  178 178 178  179 179 179  179 179 179  179 179 179
179 179 179  179 179 179  179 179 179  179 179 179  179 179 179  179 179 179
179 179 179  123 123 123  21 19 20  25 21 20  37 33 32  27 23 22
19 16 16  123 123 123  179 179 179  179 179 179  179 179 179  179 179 179
179 179 179  179 179 179  179 179 179  179 179 179  179 179 179  179 179 179
179 179 179  179 179 179  179 179 179  179 179 179  179 179 179  179 179 179
179 179 179  0 0 0  0 0 0  0 0 0  0 0 0  0 0 0
0 0 0  0 0 0  0 0 0  0 0 0  0 0 0  0 0 0
0 0 0  0 0 0  0 0 0  0 0 0  0 0 0  0 0 0
0 0 0  0 0 0  0 0 0  0 0 0  0 0 0  0 0 0
0 0 0  0 0 0  0 0 0  0 0 0  0 0 0  0 0 0
0 0 0  0 0 0  0 0 0  0 0 0  0 0 0  0 0 0
0 0 0  0 0 0  0 0 0  0 0 0  0 0 0  0 0 0
0 0 0  0 0 0  0 0 0  0 0 0  0 0 0  0 0 0
0 0 0  0 0 0  178 178 178  179 179 179  179 179 179  179 179 179
179 179 179  179 179 179  179 179 179  179 179 179  179 179 179  179 179 179
179 179 179  179 179 179  179 179 179  179 179 179  179 179 179  179 179 179
179 179 179  179 179 179  179 179 179  179 179 179  179 179 179  179 179 179
179 179 179  179 179 179  179 179 179  179 179 179  179 179 179  179 179 179
179 179 179  179 179 179  179 179 179  178 178 178  0 0 0  0 0 0
0 0 0  0 0 0  0 0 0  0 0 0  0 0 0  0 0 0
0 0 0  0 0 0  0 0 0  0 0 0  0 0 0  0 0 0
0 0 0  0 0 0  0 0 0  0 0 0  0 0 0  0 0 0
0 0 0  0 0 0  0 0 0  0 0 0  0 0 0  0 0 0
0 0 0  0 0 0  0 0 0  0 0 0  0 0 0  0 0 0
0 0 0  0 0 0  0 0 0  0 0 0  0 0 0  0 0 0
0 0 0  0 0 0  0 0 0  0 0 0  0 0 0  0 0 0
0 0 0  0 0 0  0 0 0  0 0 0  0 0 0  0 0 0
0 0 0  0 0 0  0 0 0  0 0 0  0 0 0  0 0 0
0 0 0  0 0 0  0 0 0  0 0 0  0 0 0  0 0 0
177 177 177  177 177 177  177 177 177  177 177 177  176 176 176  176 176 176
176 176 176  179 179 179  179 179 179  179 179 179  179 179 179  179 179 179
179 179 179  179 179 179  179 179 179  179 179 179  179 179 179  179 179 179
179 179 179  179 179 179  179 179 179  179 179 179  179 179 179  179 179 179
179 179 179  42 39 40  18 16 15  32 28 27  35 31 30  27 23 22
29 25 24  129 128 129  179 179 179  179 179 179  179 179 179  179 179 179
179 179 179  179 179 179  179 179 179  179 179 179  179 179 179  179 179 179
179 179 179  47 43 44  18 17 15  32 28 27  34 30 29  21 17 16
29 26 28  179 179 179  179 179 179  179 179 179  179 179 179  179 179 179
179 179 179  74 72 73  22 20 19  29 25 24  37 33 32  28 24 23
22 19 18  79 76 76  179 179 179  179 179 179  179 179 179  179 179 179
179 179 179  179 179 179  179 179 179  179 179 179  179 179 179  179 179 179
179 179 179  79 76 76  23 19 18  31 27 26  36 32 31  25 23 21
20 18 19  129 128 129  179 179 179  179 179 179  179 179 179  179 179 179
179 179 179  179 179 179  179 179 179  179 179 179  179 179 179  179 179 179
179 179 179  179 179 179  179 179 179  179 179 179  179 179 179  179 179 179
179 179 179  0 0 0  0 0 0  0 0 0  0 0 0  0 0 0
0 0 0  0 0 0  0 0 0  0 0 0  0 0 0  0 0 0
0 0 0  0 0 0  0 0 0  0 0 0  0 0 0  0 0 0
0 0 0  0 0 0  0 0 0  0 0 0  0 0 0  0 0 0
0 0 0  0 0 0  0 0 0  0 0 0  0 0 0  0 0 0
0 0 0  0 0 0  0 0 0  0 0 0  0 0 0  0 0 0
0 0 0  0 0 0  0 0 0  0 0 0  0 0 0  0 0 0
0 0 0  0 0 0  0 0 0  0 0 0  0 0 0  0 0 0
0 0 0  0 0 0  0 0 0  179 179 179  179 179 179  179 179 179
179 179 179  179 179 179  179 179 179  179 179 179  179 179 179  179 179 179
179 179 179  179 179 179  179 179 179  179 179 179  179 179 179  179 179 179
179 179 179  179 179 179  179 179 179  179 179 179  179 179 179  179 179 179
179 179 179  179 179 179  179 179 179  179 179 179  179 179 179  179 179 179
179 179 179  179 179 179  0 0 0  0 0 0  0 0 0  0 0 0
0 0 0  0 0 0  0 0 0  0 0 0  0 0 0  0 0 0
0 0 0  0 0 0  0 0 0  0 0 0  0 0 0  0 0 0
0 0 0  0 0 0  0 0 0  0 0 0  0 0 0  0 0 0
0 0 0  0 0 0  0 0 0  0 0 0  0 0 0  0 0 0
0 0 0  0 0 0  0 0 0  0 0 0  0 0 0  0 0 0
0 0 0  0 0 0  0 0 0  0 0 0  0 0 0  0 0 0
0 0 0  0 0 0  0 0 0  0 0 0  0 0 0  0 0 0
0 0 0  0 0 0  0 0 0  0 0 0  0 0 0  0 0 0
0 0 0  0 0 0  0 0 0  0 0 0  0 0 0  0 0 0
0 0 0  0 0 0  0 0 0  0 0 0  0 0 0  0 0 0
0 0 0  0 0 0  0 0 0  0 0 0  175 175 175  175 175 175
175 175 175  179 179 179  179 179 179  179 179 179  179 179 179  179 179 179
179 179 179  179 179 179  179 179 179  179 179 179  179 179 179  179 179 179
179 179 179  179 179 179  179 179 179  179 179 179  179 179 179  179 179 179
179 179 179  65 64 64  14 12 12  29 26 25  36 32 31  29 25 24
23 20 19  95 95 95  179 179 179  179 179 179  179 179 179  179 179 179
179 179 179  179 179 179  179 179 179  179 179 179  179 179 179  179 179 179
178 178 178  23 20 19  26 23 22  36 33 33  33 29 28  18 16 15
43 42 42  179 179 179  179 179 179  179 179 179  179 179 179  179 179 179
179 179 179  99 97 97  21 19 20  27 25 23  35 31 30  32 29 28
21 20 19  47 43 44  177 177 177  179 179 179  179 179 179  179 179 179
179 179 179  179 179 179  179 179 179  179 179 179  179 179 179  179 179 179
178 178 178  37 34 33  26 22 21  35 32 31  33 29 28  25 23 21
23 23 21  145 145 145  179 179 179  179 179 179  179 179 179  179 179 179
179 179 179  179 179 179  179 179 179  179 179 179  179 179 179  179 179 179
179 179 179  179 179 179  179 179 179  179 179 179  179 179 179  179 179 179
0 0 0  0 0 0  0 0 0  0 0 0  0 0 0  0 0 0
0 0 0  0 0 0  0 0 0  0 0 0  0 0 0  0 0 0
0 0 0  0 0 0  0 0 0  0 0 0  0 0 0  0 0 0
0 0 0  0 0 0  0 0 0  0 0 0  0 0 0  0 0 0
0 0 0  0 0 0  0 0 0  0 0 0  0 0 0  0 0 0
0 0 0  0 0 0  0 0 0  0 0 0  0 0 0  0 0 0
0 0 0  0 0 0  0 0 0  0 0 0  0 0 0  0 0 0
0 0 0  0 0 0  0 0 0  0 0 0  0 0 0  0 0 0
0 0 0  0 0 0  0 0 0  0 0 0  0 0 0  179 179 179
179 179 179  179 179 179  179 179 179  179 179 179  179 179 179  179 179 179
179 179 179  179 179 179  179 179 179  179 179 179  179 179 179  179 179 179
179 179 179  179 179 179  179 179 179  179 179 179  179 179 179  179 179 179
179 179 179  179 179 179  179 179 179  179 179 179  179 179 179  179 179 179
0 0 0  0 0 0  0 0 0  0 0 0  0 0 0  0 0 0
0 0 0  0 0 0  0 0 0  0 0 0  0 0 0  0 0 0
0 0 0  0 0 0  0 0 0  0 0 0  0 0 0  0 0 0
0 0 0  0 0 0  0 0 0  0 0 0  0 0 0  0 0 0
0 0 0  0 0 0  0 0 0  0 0 0  0 0 0  0 0 0
0 0 0  0 0 0  0 0 0  0 0 0  0 0 0  0 0 0
0 0 0  0 0 0  0 0 0  0 0 0  0 0 0  0 0 0
0 0 0  0 0 0  0 0 0  0 0 0  0 0 0  0 0 0
0 0 0  0 0 0  0 0 0  0 0 0  0 0 0  0 0 0
0 0 0  0 0 0  0 0 0  0 0 0  0 0 0  0 0 0
0 0 0  0 0 0  0 0 0  0 0 0  0 0 0  0 0 0
0 0 0  0 0 0  0 0 0  0 0 0  0 0 0  0 0 0
0 0 0  0 0 0  179 179 179  179 179 179  179 179 179  179 179 179
179 179 179  179 179 179  179 179 179  179 179 179  179 179 179  179 179 179
179 179 179  179 179 179  179 179 179  179 179 179  179 179 179  179 179 179
179 179 179  129 128 129  18 16 15  24 22 20  33 29 28  32 28 27
22 19 18  36 33 33  170 169 169  179 179 179  179 179 179  179 179 179
179 179 179  179 179 179  179 179 179  179 179 179  179 179 179  173 173 173
60 59 59  19 17 16  30 26 25  35 31 30  27 23 22  16 14 14
102 101 102  179 179 179  179 179 179  179 179 179  179 179 179  179 179 179
179 179 179  156 155 155  28 27 26  18 17 15  37 33 32  32 29 28
25 23 21  23 23 21  99 97 97  178 178 178  179 179 179  179 179 179
179 179 179  179 179 179  179 179 179  179 179 179  179 179 179  176 176 176
86 84 84  24 19 20  26 22 21  35 31 29  30 26 24  19 15 14
42 39 40  166 166 166  179 179 179  179 179 179  179 179 179  179 179 179
179 179 179  179 179 179  179 179 179  179 179 179  179 179 179  179 179 179
179 179 179  179 179 179  179 179 179  179 179 179  179 179 179  179 179 179
0 0 0  0 0 0  0 0 0  0 0 0  0 0 0  0 0 0
0 0 0  0 0 0  0 0 0  0 0 0  0 0 0  0 0 0
0 0 0  0 0 0  0 0 0  0 0 0  0 0 0  0 0 0
0 0 0  0 0 0  0 0 0  0 0 0  0 0 0  0 0 0
0 0 0  0 0 0  0 0 0  0 0 0  0 0 0  0 0 0
0 0 0  0 0 0  0 0 0  0 0 0  0 0 0  0 0 0
0 0 0  0 0 0  0 0 0  0 0 0  0 0 0  0 0 0
0 0 0  0 0 0  0 0 0  0 0 0  0 0 0  0 0 0
0 0 0  0 0 0  0 0 0  0 0 0  0 0 0  0 0 0
0 0 0  0 0 0  179 179 179  179 179 179  179 179 179  179 179 179
179 179 179  179 179 179  179 179 179  179 179 179  179 179 179  179 179 179
179 179 179  179 179 179  179 179 179  179 179 179  179 179 179  179 179 179
179 179 179  179 179 179  179 179 179  179 179 179  0 0 0  0 0 0
0 0 0  0 0 0  0 0 0  0 0 0  0 0 0  0 0 0
0 0 0  0 0 0  0 0 0  0 0 0  0 0 0  0 0 0
0 0 0  0 0 0  0 0 0  0 0 0  0 0 0  0 0 0
0 0 0  0 0 0  0 0 0  0 0 0  0 0 0  0 0 0
0 0 0  0 0 0  0 0 0  0 0 0  0 0 0  0 0 0
0 0 0  0 0 0  0 0 0  0 0 0  0 0 0  0 0 0
0 0 0  0 0 0  0 0 0  0 0 0  0 0 0  0 0 0
0 0 0  0 0 0  0 0 0  0 0 0  0 0 0  0 0 0
0 0 0  0 0 0  0 0 0  0 0 0  0 0 0  0 0 0
0 0 0  0 0 0  0 0 0  0 0 0  0 0 0  0 0 0
0 0 0  0 0 0  0 0 0  0 0 0  0 0 0  0 0 0
0 0 0  0 0 0  0 0 0  0 0 0  0 0 0  0 0 0
0 0 0  0 0 0  179 179 179  179 179 179  179 179 179  179 179 179
179 179 179  179 179 179  179 179 179  179 179 179  179 179 179  179 179 179
179 179 179  179 179 179  179 179 179  179 179 179  179 179 179  179 179 179
179 179 179  179 179 179  33 31 31  20 18 17  34 30 29  35 30 29
29 25 24  18 16 17  50 48 47  156 155 155  179 179 179  179 179 179
179 179 179  179 179 179  179 179 179  179 179 179  166 166 166  65 64 64
21 18 19  29 25 24  35 31 30  33 29 28  22 19 18  23 21 22
179 179 179  179 179 179  179 179 179  179 179 179  179 179 179  179 179 179
179 179 179  179 179 179  55 52 53  17 17 15  31 27 26  36 32 31
32 29 28  22 19 19  30 28 30  119 118 118  179 179 179  179 179 179
179 179 179  179 179 179  179 179 179  179 179 179  175 175 175  92 90 91
26 23 23  25 21 20  34 30 29  35 31 29  27 24 22  17 17 15
76 75 75  178 178 178  179 179 179  179 179 179  179 179 179  179 179 179
179 179 179  179 179 179  179 179 179  179 179 179  179 179 179  179 179 179
179 179 179  179 179 179  179 179 179  179 179 179  179 179 179  179 179 179
0 0 0  0 0 0  0 0 0  0 0 0  0 0 0  0 0 0
0 0 0  0 0 0  0 0 0  0 0 0  0 0 0  0 0 0
0 0 0  0 0 0  0 0 0  0 0 0  0 0 0  0 0 0
0 0 0  0 0 0  0 0 0  0 0 0  0 0 0  0 0 0
0 0 0  0 0 0  0 0 0  0 0 0  0 0 0  0 0 0
0 0 0  0 0 0  0 0 0  0 0 0  0 0 0  0 0 0
0 0 0  0 0 0  0 0 0  0 0 0  0 0 0  0 0 0
0 0 0  0 0 0  0 0 0  0 0 0  0 0 0  0 0 0
0 0 0  0 0 0  0 0 0  0 0 0  0 0 0  0 0 0
0 0 0  0 0 0  0 0 0  0 0 0  0 0 0  0 0 0
0 0 0  178 178 178  179 179 179  179 179 179  179 179 179  179 179 179
179 179 179  179 179 179  179 179 179  179 179 179  178 178 178  0 0 0
0 0 0  0 0 0  0 0 0  0 0 0  0 0 0  0 0 0
0 0 0  0 0 0  0 0 0  0 0 0  0 0 0  0 0 0
0 0 0  0 0 0  0 0 0  0 0 0  0 0 0  0 0 0
0 0 0  0 0 0  0 0 0  0 0 0  0 0 0  0 0 0
0 0 0  0 0 0  0 0 0  0 0 0  0 0 0  0 0 0
0 0 0  0 0 0  0 0 0  0 0 0  0 0 0  0 0 0
0 0 0  0 0 0  0 0 0  0 0 0  0 0 0  0 0 0
0 0 0  0 0 0  0 0 0  0 0 0  0 0 0  0 0 0
0 0 0  0 0 0  0 0 0  0 0 0  0 0 0  0 0 0
0 0 0  0 0 0  0 0 0  0 0 0  0 0 0  0 0 0
0 0 0  0 0 0  0 0 0  0 0 0  0 0 0  0 0 0
0 0 0  0 0 0  0 0 0  0 0 0  0 0 0  0 0 0
0 0 0  0 0 0  0 0 0  0 0 0  0 0 0  0 0 0
0 0 0  0 0 0  0 0 0  179 179 179  179 179 179  179 179 179
179 179 179  179 179 179  179 179 179  179 179 179  179 179 179  179 179 179
179 179 179  179 179 179  179 179 179  179 179 179  179 179 179  179 179 179
179 179 179  179 179 179  106 104 105  16 15 15  25 22 23  37 33 32
34 30 29  27 25 23  19 15 14  33 31 31  88 87 87  165 165 164
179 179 179  179 179 179  173 173 173  112 111 111  42 39 40  21 18 19
26 23 22  35 31 30  35 31 30  30 26 25  18 15 16  60 59 59
179 179 179  179 179 179  179 179 179  179 179 179  179 179 179  179 179 179
179 179 179  179 179 179  129 128 129  23 21 22  22 19 19  35 31 31
36 32 31  30 28 26  22 19 18  25 25 24  71 69 70  148 148 148
179 179 179  179 179 179  179 179 179  142 141 141  60 59 59  24 21 22
23 21 20  33 29 28  36 32 31  33 29 28  20 18 16  30 28 26
138 138 138  179 179 179  179 179 179  179 179 179  179 179 179  179 179 179
179 179 179  179 179 179  179 179 179  179 179 179  179 179 179  179 179 179
179 179 179  179 179 179  179 179 179  179 179 179  179 179 179  179 179 179
0 0 0  0 0 0  0 0 0  0 0 0  0 0 0  0 0 0
0 0 0  0 0 0  0 0 0  0 0 0  0 0 0  0 0 0
0 0 0  0 0 0  0 0 0  0 0 0  0 0 0  0 0 0
0 0 0  0 0 0  0 0 0  0 0 0  0 0 0  0 0 0
0 0 0  0 0 0  0 0 0  0 0 0  0 0 0  0 0 0
0 0 0  0 0 0  0 0 0  0 0 0  0 0 0  0 0 0
0 0 0  0 0 0  0 0 0  0 0 0  0 0 0  0 0 0
0 0 0  0 0 0  0 0 0  0 0 0  0 0 0  0 0 0
0 0 0  0 0 0  0 0 0  0 0 0  0 0 0  0 0 0
0 0 0  0 0 0  0 0 0  0 0 0  0 0 0  0 0 0
0 0 0  0 0 0  0 0 0  0 0 0  0 0 0  0 0 0
0 0 0  0 0 0  0 0 0  0 0 0  0 0 0  0 0 0
0 0 0  0 0 0  0 0 0  0 0 0  0 0 0  0 0 0
0 0 0  0 0 0  0 0 0  0 0 0  0 0 0  0 0 0
0 0 0  0 0 0  0 0 0  0 0 0  0 0 0  0 0 0
0 0 0  0 0 0  0 0 0  0 0 0  0 0 0  0 0 0
0 0 0  0 0 0  0 0 0  0 0 0  0 0 0  0 0 0
0 0 0  0 0 0  0 0 0  0 0 0  0 0 0  0 0 0
0 0 0  0 0 0  0 0 0  0 0 0  0 0 0  0 0 0
0 0 0  0 0 0  0 0 0  0 0 0  0 0 0  0 0 0
0 0 0  0 0 0  0 0 0  0 0 0  0 0 0  0 0 0
0 0 0  0 0 0  0 0 0  0 0 0  0 0 0  0 0 0
0 0 0  0 0 0  0 0 0  0 0 0  0 0 0  0 0 0
0 0 0  0 0 0  0 0 0  0 0 0  0 0 0  0 0 0
0 0 0  0 0 0  0 0 0  0 0 0  0 0 0  0 0 0
0 0 0  0 0 0  0 0 0  179 179 179  179 179 179  179 179 179
179 179 179  179 179 179  179 179 179  179 179 179  179 179 179  179 179 179
179 179 179  179 179 179  179 179 179  179 179 179  179 179 179  179 179 179
179 179 179  179 179 179  177 177 177  47 43 44  16 14 14  28 25 23
37 33 32  34 30 29  30 26 24  23 19 18  23 20 19  28 27 26
38 37 36  42 39 40  32 29 29  23 21 20  21 19 17  28 25 24
33 29 28  36 32 31  32 28 27  20 17 16  28 26 26  138 138 138
179 179 179  179 179 179  179 179 179  179 179 179  179 179 179  179 179 179
179 179 179  179 179 179  179 179 179  74 72 73  17 15 16  23 21 22
34 30 29  35 31 30  34 30 29  23 22 20  21 20 21  28 25 26
36 35 34  43 42 42  36 35 34  27 24 24  21 19 17  23 21 20
32 29 28  35 31 30  36 32 31  22 19 18  19 17 16  83 82 83
178 178 178  179 179 179  179 179 179  179 179 179  179 179 179  179 179 179
179 179 179  179 179 179  179 179 179  179 179 179  179 179 179  179 179 179
179 179 179  179 179 179  179 179 179  179 179 179  179 179 179  179 179 179
0 0 0  0 0 0  0 0 0  0 0 0  0 0 0  0 0 0
0 0 0  0 0 0  0 0 0  0 0 0  0 0 0  0 0 0
0 0 0  0 0 0  0 0 0  0 0 0  0 0 0  0 0 0
0 0 0  0 0 0  0 0 0  0 0 0  0 0 0  0 0 0
0 0 0  0 0 0  0 0 0  0 0 0  0 0 0  0 0 0
0 0 0  0 0 0  0 0 0  0 0 0  0 0 0  0 0 0
0 0 0  0 0 0  0 0 0  0 0 0  0 0 0  0 0 0
0 0 0  0 0 0  0 0 0  0 0 0  0 0 0  0 0 0
0 0 0  0 0 0  0 0 0  0 0 0  0 0 0  0 0 0
0 0 0  0 0 0  0 0 0  0 0 0  0 0 0  0 0 0
0 0 0  0 0 0  0 0 0  0 0 0  0 0 0  0 0 0
0 0 0  0 0 0  0 0 0  0 0 0  0 0 0  0 0 0
0 0 0  0 0 0  0 0 0  0 0 0  0 0 0  0 0 0
0 0 0  0 0 0  0 0 0  0 0 0  0 0 0  0 0 0
0 0 0  0 0 0  0 0 0  0 0 0  0 0 0  0 0 0
0 0 0  0 0 0  0 0 0  0 0 0  0 0 0  0 0 0
0 0 0  0 0 0  0 0 0  0 0 0  0 0 0  0 0 0
0 0 0  0 0 0  0 0 0  0 0 0  0 0 0  0 0 0
0 0 0  0 0 0  0 0 0  0 0 0  0 0 0  0 0 0
0 0 0  0 0 0  0 0 0  0 0 0  0 0 0  0 0 0
0 0 0  0 0 0  0 0 0  0 0 0  0 0 0  0 0 0
0 0 0  0 0 0  0 0 0  0 0 0  0 0 0  0 0 0
0 0 0  0 0 0  0 0 0  0 0 0  0 0 0  0 0 0
0 0 0  0 0 0  0 0 0  0 0 0  0 0 0  0 0 0
0 0 0  0 0 0  0 0 0  0 0 0  0 0 0  0 0 0
0 0 0  0 0 0  0 0 0  179 179 179  179 179 179  179 179 179
179 179 179  179 179 179  179 179 179  179 179 179  179 179 179  179 179 179
179 179 179  179 179 179  179 179 179  179 179 179  179 179 179  179 179 179
179 179 179  179 179 179  179 179 179  148 148 148  29 26 28  16 13 13
30 26 25  35 31 30  35 31 30  33 30 29  27 23 22  20 18 16
21 20 19  21 20 19  22 17 18  26 21 22  33 29 28  37 33 32
32 28 27  34 30 29  21 18 17  19 18 18  95 95 95  177 177 177
179 179 179  179 179 179  179 179 179  179 179 179  179 179 179  179 179 179
179 179 179  179 179 179  179 179 179  175 175 175  60 59 59  14 12 12
26 22 21  37 33 32  32 28 27  36 32 31  30 26 25  21 17 16
22 19 18  23 20 18  22 18 17  22 18 17  30 26 25  37 33 32
35 32 31  36 32 31  23 19 18  17 15 13  60 59 59  175 175 175
179 179 179  179 179 179  179 179 179  179 179 179  179 179 179  179 179 179
179 179 179  179 179 179  179 179 179  179 179 179  179 179 179  179 179 179
179 179 179  179 179 179  179 179 179  179 179 179  179 179 179  179 179 179
0 0 0  0 0 0  0 0 0  0 0 0  0 0 0  0 0 0
0 0 0  0 0 0  0 0 0  0 0 0  0 0 0  0 0 0
0 0 0  0 0 0  0 0 0  0 0 0  0 0 0  0 0 0
0 0 0  0 0 0  0 0 0  0 0 0  0 0 0  0 0 0
0 0 0  0 0 0  0 0 0  0 0 0  0 0 0  0 0 0
0 0 0  0 0 0  0 0 0  0 0 0  0 0 0  0 0 0
0 0 0  0 0 0  0 0 0  0 0 0  0 0 0  0 0 0
0 0 0  0 0 0  0 0 0  0 0 0  0 0 0  0 0 0
0 0 0  0 0 0  0 0 0  0 0 0  0 0 0  0 0 0
0 0 0  0 0 0  0 0 0  0 0 0  0 0 0  0 0 0
0 0 0  0 0 0  0 0 0  0 0 0  0 0 0  0 0 0
0 0 0  0 0 0  0 0 0  0 0 0  0 0 0  0 0 0
0 0 0  0 0 0  0 0 0  0 0 0  0 0 0  0 0 0
0 0 0  0 0 0  0 0 0  0 0 0  0 0 0  0 0 0
0 0 0  0 0 0  0 0 0  0 0 0  0 0 0  0 0 0
0 0 0  0 0 0  0 0 0  0 0 0  0 0 0  0 0 0
0 0 0  0 0 0  0 0 0  0 0 0  0 0 0  0 0 0
0 0 0  0 0 0  0 0 0  0 0 0  0 0 0  0 0 0
0 0 0  0 0 0  0 0 0  0 0 0  0 0 0  0 0 0
0 0 0  0 0 0  0 0 0  0 0 0  0 0 0  0 0 0
0 0 0  0 0 0  0 0 0  0 0 0  0 0 0  0 0 0
0 0 0  0 0 0  0 0 0  0 0 0  0 0 0  0 0 0
0 0 0  0 0 0  0 0 0  0 0 0  0 0 0  0 0 0
0 0 0  0 0 0  0 0 0  0 0 0  0 0 0  0 0 0
0 0 0  0 0 0  0 0 0  0 0 0  0 0 0  0 0 0
0 0 0  0 0 0  0 0 0  179 179 179  179 179 179  179 179 179
179 179 179  179 179 179  179 179 179  179 179 179  179 179 179  179 179 179
179 179 179  179 179 179  179 179 179  179 179 179  179 179 179  179 179 179
179 179 179  179 179 179  179 179 179  179 179 179  114 114 114  25 25 24
17 17 15  27 25 23  32 29 28  36 32 32  36 32 31  36 32 31
34 30 29  34 30 29  36 32 31  36 32 32  35 31 31  32 29 29
32 29 29  19 18 18  18 16 17  81 80 80  179 179 179  179 179 179
179 179 179  179 179 179  179 179 179  179 179 179  179 179 179  179 179 179
179 179 179  179 179 179  179 179 179  179 179 179  179 179 179  47 43 44
16 14 14  22 20 19  32 29 28  34 30 29  35 32 31  36 32 31
35 31 30  36 32 31  33 29 28  37 33 32  36 32 31  33 29 28
32 28 27  22 20 19  16 15 15  56 55 55  179 179 179  179 179 179
179 179 179  179 179 179  179 179 179  179 179 179  179 179 179  179 179 179
179 179 179  179 179 179  179 179 179  179 179 179  179 179 179  179 179 179
179 179 179  179 179 179  179 179 179  179 179 179  179 179 179  0 0 0
0 0 0  0 0 0  0 0 0  0 0 0  0 0 0  0 0 0
0 0 0  0 0 0  0 0 0  0 0 0  0 0 0  0 0 0
0 0 0  0 0 0  0 0 0  0 0 0  0 0 0  0 0 0
0 0 0  0 0 0  0 0 0  0 0 0  0 0 0  0 0 0
0 0 0  0 0 0  0 0 0  0 0 0  0 0 0  0 0 0
0 0 0  0 0 0  0 0 0  0 0 0  0 0 0  0 0 0
0 0 0  0 0 0  0 0 0  0 0 0  0 0 0  0 0 0
0 0 0  0 0 0  0 0 0  0 0 0  0 0 0  0 0 0
0 0 0  0 0 0  0 0 0  0 0 0  0 0 0  0 0 0
0 0 0  0 0 0  0 0 0  0 0 0  0 0 0  0 0 0
0 0 0  0 0 0  0 0 0  0 0 0  0 0 0  0 0 0
0 0 0  0 0 0  0 0 0  0 0 0  0 0 0  0 0 0
0 0 0  0 0 0  0 0 0  0 0 0  0 0 0  0 0 0
0 0 0  0 0 0  0 0 0  0 0 0  0 0 0  0 0 0
0 0 0  0 0 0  0 0 0  0 0 0  0 0 0  0 0 0
0 0 0  0 0 0  0 0 0  0 0 0  0 0 0  0 0 0
0 0 0  0 0 0  0 0 0  0 0 0  0 0 0  0 0 0
0 0 0  0 0 0  0 0 0  0 0 0  0 0 0  0 0 0
0 0 0  0 0 0  0 0 0  0 0 0  0 0 0  0 0 0
0 0 0  0 0 0  0 0 0  0 0 0  0 0 0  0 0 0
0 0 0  0 0 0  0 0 0  0 0 0  0 0 0  0 0 0
0 0 0  0 0 0  0 0 0  0 0 0  0 0 0  0 0 0
0 0 0  0 0 0  0 0 0  0 0 0  0 0 0  0 0 0
0 0 0  0 0 0  0 0 0  0 0 0  0 0 0  0 0 0
0 0 0  0 0 0  0 0 0  0 0 0  0 0 0  0 0 0
0 0 0  0 0 0  0 0 0  0 0 0  179 179 179  179 179 179
179 179 179  179 179 179  179 179 179  179 179 179  179 179 179  179 179 179
179 179 179  179 179 179  179 179 179  179 179 179  179 179 179  179 179 179
179 179 179  179 179 179  179 179 179  179 179 179  179 179 179  123 123 123
33 33 33  16 15 15  17 17 15  23 21 20  29 25 24  32 28 27
33 29 28  34 30 29  31 27 26  31 26 27  28 25 24  21 18 19
18 15 16  28 25 26  99 97 97  179 179 179  179 179 179  179 179 179
179 179 179  179 179 179  179 179 179  179 179 179  179 179 179  179 179 179
179 179 179  179 179 179  179 179 179  179 179 179  179 179 179  160 160 160
55 52 53  19 18 18  17 15 16  22 21 19  27 24 22  32 28 27
31 27 26  33 29 28  31 27 26  30 26 25  32 28 27  25 22 23
20 17 16  23 21 22  74 72 73  179 179 179  179 179 179  179 179 179
179 179 179  179 179 179  179 179 179  179 179 179  179 179 179  179 179 179
179 179 179  179 179 179  179 179 179  179 179 179  179 179 179  179 179 179
179 179 179  179 179 179  179 179 179  179 179 179  179 179 179  0 0 0
0 0 0  0 0 0  0 0 0  0 0 0  0 0 0  0 0 0
0 0 0  0 0 0  0 0 0  0 0 0  0 0 0  0 0 0
0 0 0  0 0 0  0 0 0  0 0 0  0 0 0  0 0 0
0 0 0  0 0 0  0 0 0  0 0 0  0 0 0  0 0 0
0 0 0  0 0 0  0 0 0  0 0 0  0 0 0  0 0 0
0 0 0  0 0 0  0 0 0  0 0 0  0 0 0  0 0 0
0 0 0  0 0 0  0 0 0  0 0 0  0 0 0  0 0 0
0 0 0  0 0 0  0 0 0  0 0 0  0 0 0  0 0 0
0 0 0  0 0 0  0 0 0  0 0 0  0 0 0  0 0 0
0 0 0  0 0 0  0 0 0  0 0 0  0 0 0  0 0 0
0 0 0  0 0 0  0 0 0  0 0 0  0 0 0  0 0 0
0 0 0  0 0 0  0 0 0  0 0 0  0 0 0  0 0 0
0 0 0  0 0 0  0 0 0  0 0 0  0 0 0  0 0 0
0 0 0  0 0 0  0 0 0  0 0 0  0 0 0  0 0 0
0 0 0  0 0 0  0 0 0  0 0 0  0 0 0  0 0 0
0 0 0  0 0 0  0 0 0  0 0 0  0 0 0  0 0 0
0 0 0  0 0 0  0 0 0  0 0 0  0 0 0  0 0 0
0 0 0  0 0 0  0 0 0  0 0 0  0 0 0  0 0 0
0 0 0  0 0 0  0 0 0  0 0 0  0 0 0  0 0 0
0 0 0  0 0 0  0 0 0  0 0 0  0 0 0  0 0 0
0 0 0  0 0 0  0 0 0  0 0 0  0 0 0  0 0 0
0 0 0  0 0 0  0 0 0  0 0 0  0 0 0  0 0 0
0 0 0  0 0 0  0 0 0  0 0 0  0 0 0  0 0 0
0 0 0  0 0 0  0 0 0  0 0 0  0 0 0  0 0 0
0 0 0  0 0 0  0 0 0  0 0 0  0 0 0  0 0 0
0 0 0  0 0 0  0 0 0  0 0 0  179 179 179  179 179 179
179 179 179  179 179 179  179 179 179  179 179 179  179 179 179  179 179 179
179 179 179  179 179 179  179 179 179  179 179 179  179 179 179  179 179 179
179 179 179  179 179 179  179 179 179  179 179 179  179 179 179  179 179 179
166 166 166  68 67 67  29 26 28  16 15 15  16 14 14  20 16 15
23 19 18  25 21 20  22 17 16  21 17 16  20 17 16  25 25 24
55 52 53  150 149 149  179 179 179  179 179 179  179 179 179  179 179 179
179 179 179  179 179 179  179 179 179  179 179 179  179 179 179  179 179 179
179 179 179  179 179 179  179 179 179  179 179 179  179 179 179  179 179 179
171 171 171  88 87 87  36 35 34  19 18 18  16 15 15  18 16 17
21 18 17  21 18 17  23 19 20  22 18 17  22 19 18  26 23 22
43 42 42  112 111 111  178 178 178  179 179 179  179 179 179  179 179 179
179 179 179  179 179 179  179 179 179  179 179 179  179 179 179  179 179 179
179 179 179  179 179 179  179 179 179  179 179 179  179 179 179  179 179 179
179 179 179  179 179 179  179 179 179  179 179 179  179 179 179  0 0 0
0 0 0  0 0 0  0 0 0  0 0 0  0 0 0  0 0 0
0 0 0  0 0 0  0 0 0  0 0 0  0 0 0  0 0 0
0 0 0  0 0 0  0 0 0  0 0 0  0 0 0  0 0 0
0 0 0  0 0 0  0 0 0  0 0 0  0 0 0  0 0 0
0 0 0  0 0 0  0 0 0  0 0 0  0 0 0  0 0 0
0 0 0  0 0 0  0 0 0  0 0 0  0 0 0  0 0 0
0 0 0  0 0 0  0 0 0  0 0 0  0 0 0  0 0 0
0 0 0  0 0 0  0 0 0  0 0 0  0 0 0  0 0 0
0 0 0  0 0 0  0 0 0  0 0 0  0 0 0  0 0 0
0 0 0  0 0 0  0 0 0  0 0 0  0 0 0  0 0 0
0 0 0  0 0 0  0 0 0  0 0 0  0 0 0  0 0 0
0 0 0  0 0 0  0 0 0  0 0 0  0 0 0  0 0 0
0 0 0  0 0 0  0 0 0  0 0 0  0 0 0  0 0 0
0 0 0  0 0 0  0 0 0  0 0 0  0 0 0  0 0 0
0 0 0  0 0 0  0 0 0  0 0 0  0 0 0  0 0 0
0 0 0  0 0 0  0 0 0  0 0 0  0 0 0  0 0 0
0 0 0  0 0 0  0 0 0  0 0 0  0 0 0  0 0 0
0 0 0  0 0 0  0 0 0  0 0 0  0 0 0  0 0 0
0 0 0  0 0 0  0 0 0  0 0 0  0 0 0  0 0 0
0 0 0  0 0 0  0 0 0  0 0 0  0 0 0  0 0 0
0 0 0  0 0 0  0 0 0  0 0 0  0 0 0  0 0 0
0 0 0  0 0 0  0 0 0  0 0 0  0 0 0  0 0 0
0 0 0  0 0 0  0 0 0  0 0 0  0 0 0  0 0 0
0 0 0  0 0 0  0 0 0  0 0 0  0 0 0  0 0 0
0 0 0  0 0 0  0 0 0  0 0 0  0 0 0  0 0 0
0 0 0  0 0 0  0 0 0  0 0 0  179 179 179  179 179 179
179 179 179  179 179 179  179 179 179  179 179 179  179 179 179  179 179 179
179 179 179  179 179 179  179 179 179  179 179 179  179 179 179  179 179 179
179 179 179  179 179 179  179 179 179  179 179 179  179 179 179  179 179 179
179 179 179  179 179 179  157 157 157  88 87 87  56 55 55  42 39 40
36 33 33  35 31 31  42 38 37  52 50 50  79 76 76  133 133 133
177 177 177  179 179 179  179 179 179  179 179 179  179 179 179  179 179 179
179 179 179  179 179 179  179 179 179  179 179 179  179 179 179  179 179 179
179 179 179  179 179 179  179 179 179  179 179 179  179 179 179  179 179 179
179 179 179  179 179 179  160 160 160  99 97 97  65 64 64  43 42 42
36 35 34  36 33 33  38 37 36  48 46 45  68 67 67  109 108 108
165 165 164  179 179 179  179 179 179  179 179 179  179 179 179  179 179 179
179 179 179  179 179 179  179 179 179  179 179 179  179 179 179  179 179 179
179 179 179  179 179 179  179 179 179  179 179 179  179 179 179  179 179 179
179 179 179  179 179 179  179 179 179  179 179 179  0 0 0  0 0 0
0 0 0  0 0 0  0 0 0  0 0 0  0 0 0  0 0 0
0 0 0  0 0 0  0 0 0  0 0 0  0 0 0  0 0 0
0 0 0  0 0 0  0 0 0  0 0 0  0 0 0  0 0 0
0 0 0  0 0 0  0 0 0  0 0 0  0 0 0  0 0 0
0 0 0  0 0 0  0 0 0  0 0 0  0 0 0  0 0 0
0 0 0  0 0 0  0 0 0  0 0 0  0 0 0  0 0 0
0 0 0  0 0 0  0 0 0  0 0 0  0 0 0  0 0 0
0 0 0  0 0 0  0 0 0  0 0 0  0 0 0  0 0 0
0 0 0  0 0 0  0 0 0  0 0 0  0 0 0  0 0 0
0 0 0  0 0 0  0 0 0  0 0 0  0 0 0  0 0 0
0 0 0  0 0 0  0 0 0  0 0 0  0 0 0  0 0 0
0 0 0  0 0 0  0 0 0  0 0 0  0 0 0  0 0 0
0 0 0  0 0 0  0 0 0  0 0 0  0 0 0  0 0 0
0 0 0  0 0 0  0 0 0  0 0 0  0 0 0  0 0 0
0 0 0  0 0 0  0 0 0  0 0 0  0 0 0  0 0 0
0 0 0  0 0 0  0 0 0  0 0 0  0 0 0  0 0 0
0 0 0  0 0 0  0 0 0  0 0 0  0 0 0  0 0 0
0 0 0  0 0 0  0 0 0  0 0 0  0 0 0  0 0 0
0 0 0  0 0 0  0 0 0  0 0 0  0 0 0  0 0 0
0 0 0  0 0 0  0 0 0  0 0 0  0 0 0  0 0 0
0 0 0  0 0 0  0 0 0  0 0 0  0 0 0  0 0 0
0 0 0  0 0 0  0 0 0  0 0 0  0 0 0  0 0 0
0 0 0  0 0 0  0 0 0  0 0 0  0 0 0  0 0 0
0 0 0  0 0 0  0 0 0  0 0 0  0 0 0  0 0 0
0 0 0  0 0 0  0 0 0  0 0 0  0 0 0  0 0 0
0 0 0  0 0 0  0 0 0  0 0 0  0 0 0  179 179 179
179 179 179  179 179 179  179 179 179  179 179 179  179 179 179  179 179 179
179 179 179  179 179 179  179 179 179  179 179 179  179 179 179  179 179 179
179 179 179  179 179 179  179 179 179  179 179 179  179 179 179  179 179 179
179 179 179  179 179 179  179 179 179  179 179 179  176 176 176  165 165 164
157 157 157  154 154 154  163 162 163  173 173 173  179 179 179  179 179 179
179 179 179  179 179 179  179 179 179  179 179 179  179 179 179  179 179 179
179 179 179  179 179 179  179 179 179  179 179 179  179 179 179  179 179 179
179 179 179  179 179 179  179 179 179  179 179 179  179 179 179  179 179 179
179 179 179  179 179 179  179 179 179  179 179 179  178 178 178  167 167 167
157 157 157  154 154 154  160 160 160  171 171 171  179 179 179  179 179 179
179 179 179  179 179 179  179 179 179  179 179 179  179 179 179  179 179 179
179 179 179  179 179 179  179 179 179  179 179 179  179 179 179  179 179 179
179 179 179  179 179 179  179 179 179  179 179 179  179 179 179  179 179 179
179 179 179  179 179 179  179 179 179  179 179 179  0 0 0  0 0 0
0 0 0  0 0 0  0 0 0  0 0 0  0 0 0  0 0 0
0 0 0  0 0 0  0 0 0  0 0 0  0 0 0  0 0 0
0 0 0  0 0 0  0 0 0  0 0 0  0 0 0  0 0 0
0 0 0  0 0 0  0 0 0  0 0 0  0 0 0  0 0 0
0 0 0  0 0 0  0 0 0  0 0 0  0 0 0  0 0 0
0 0 0  0 0 0  0 0 0  0 0 0  0 0 0  0 0 0
0 0 0  0 0 0  0 0 0  0 0 0  0 0 0  0 0 0
0 0 0  0 0 0  0 0 0  0 0 0  0 0 0  0 0 0
0 0 0  0 0 0  0 0 0  0 0 0  0 0 0  0 0 0
0 0 0  0 0 0  0 0 0  0 0 0  0 0 0  0 0 0
0 0 0  0 0 0  0 0 0  0 0 0  0 0 0  0 0 0
0 0 0  0 0 0  0 0 0  0 0 0  0 0 0  0 0 0
0 0 0  0 0 0  0 0 0  0 0 0  0 0 0  0 0 0
0 0 0  0 0 0  0 0 0  0 0 0  0 0 0  0 0 0
0 0 0  0 0 0  0 0 0  0 0 0  0 0 0  0 0 0
0 0 0  0 0 0  0 0 0  0 0 0  0 0 0  0 0 0
0 0 0  0 0 0  0 0 0  0 0 0  0 0 0  0 0 0
0 0 0  0 0 0  0 0 0  0 0 0  0 0 0  0 0 0
0 0 0  0 0 0  0 0 0  0 0 0  0 0 0  0 0 0
0 0 0  0 0 0  0 0 0  0 0 0  0 0 0  0 0 0
0 0 0  0 0 0  0 0 0  0 0 0  0 0 0  0 0 0
0 0 0  0 0 0  0 0 0  0 0 0  0 0 0  0 0 0
0 0 0  0 0 0  0 0 0  0 0 0  0 0 0  0 0 0
0 0 0  0 0 0  0 0 0  0 0 0  0 0 0  0 0 0
0 0 0  0 0 0  0 0 0  0 0 0  0 0 0  0 0 0
0 0 0  0 0 0  0 0 0  0 0 0  0 0 0  179 179 179
179 179 179  179 179 179  179 179 179  179 179 179  179 179 179  179 179 179
179 179 179  179 179 179  179 179 179  179 179 179  179 179 179  179 179 179
179 179 179  179 179 179  179 179 179  179 179 179  179 179 179  179 179 179
179 179 179  179 179 179  179 179 179  179 179 179  179 179 179  179 179 179
179 179 179  179 179 179  179 179 179  179 179 179  179 179 179  179 179 179
179 179 179  179 179 179  179 179 179  179 179 179  179 179 179  179 179 179
179 179 179  179 179 179  179 179 179  179 179 179  179 179 179  179 179 179
179 179 179  179 179 179  179 179 179  179 179 179  179 179 179  179 179 179
179 179 179  179 179 179  179 179 179  179 179 179  179 179 179  179 179 179
179 179 179  179 179 179  179 179 179  179 179 179  179 179 179  179 179 179
179 179 179  179 179 179  179 179 179  179 179 179  179 179 179  179 179 179
179 179 179  179 179 179  179 179 179  179 179 179  179 179 179  179 179 179
179 179 179  179 179 179  179 179 179  179 179 179  179 179 179  179 179 179
179 179 179  179 179 179  179 179 179  0 0 0  0 0 0  0 0 0
0 0 0  0 0 0  0 0 0  0 0 0  0 0 0  0 0 0
0 0 0  0 0 0  0 0 0  0 0 0  0 0 0  0 0 0
0 0 0  0 0 0  0 0 0  0 0 0  0 0 0  0 0 0
0 0 0  0 0 0  0 0 0  0 0 0  0 0 0  0 0 0
0 0 0  0 0 0  0 0 0  0 0 0  0 0 0  0 0 0
0 0 0  0 0 0  0 0 0  0 0 0  0 0 0  0 0 0
0 0 0  0 0 0  0 0 0  0 0 0  0 0 0  0 0 0
0 0 0  0 0 0  0 0 0  0 0 0  0 0 0  0 0 0
0 0 0  0 0 0  0 0 0  0 0 0  0 0 0  0 0 0
0 0 0  0 0 0  0 0 0  0 0 0  0 0 0  0 0 0
0 0 0  0 0 0  0 0 0  0 0 0  0 0 0  0 0 0
0 0 0  0 0 0  0 0 0  0 0 0  0 0 0  0 0 0
0 0 0  0 0 0  0 0 0  0 0 0  0 0 0  0 0 0
0 0 0  0 0 0  0 0 0  0 0 0  0 0 0  0 0 0
0 0 0  0 0 0  0 0 0  0 0 0  0 0 0  0 0 0
0 0 0  0 0 0  0 0 0  0 0 0  0 0 0  0 0 0
0 0 0  0 0 0  0 0 0  0 0 0  0 0 0  0 0 0
0 0 0  0 0 0  0 0 0  0 0 0  0 0 0  0 0 0
0 0 0  0 0 0  0 0 0  0 0 0  0 0 0  0 0 0
0 0 0  0 0 0  0 0 0  0 0 0  0 0 0  0 0 0
0 0 0  0 0 0  0 0 0  0 0 0  0 0 0  0 0 0
0 0 0  0 0 0  0 0 0  0 0 0  0 0 0  0 0 0
0 0 0  0 0 0  0 0 0  0 0 0  0 0 0  0 0 0
0 0 0  0 0 0  0 0 0  0 0 0  0 0 0  0 0 0
0 0 0  0 0 0  0 0 0  0 0 0  0 0 0  0 0 0
0 0 0  0 0 0  0 0 0  0 0 0  0 0 0  0 0 0
179 179 179  179 179 179  179 179 179  179 179 179  179 179 179  179 179 179
179 179 179  179 179 179  179 179 179  179 179 179  179 179 179  179 179 179
179 179 179  179 179 179  179 179 179  179 179 179  179 179 179  179 179 179
179 179 179  179 179 179  179 179 179  179 179 179  179 179 179  179 179 179
179 179 179  179 179 179  179 179 179  179 179 179  179 179 179  179 179 179
179 179 179  179 179 179  179 179 179  179 179 179  179 179 179  179 179 179
179 179 179  179 179 179  179 179 179  179 179 179  179 179 179  179 179 179
179 179 179  179 179 179  179 179 179  179 179 179  179 179 179  179 179 179
179 179 179  179 179 179  179 179 179  179 179 179  179 179 179  179 179 179
179 179 179  179 179 179  179 179 179  179 179 179  179 179 179  179 179 179
179 179 179  179 179 179  179 179 179  179 179 179  179 179 179  179 179 179
179 179 179  179 179 179  179 179 179  179 179 179  179 179 179  179 179 179
179 179 179  179 179 179  179 179 179  179 179 179  179 179 179  179 179 179
179 179 179  179 179 179  179 179 179  0 0 0  0 0 0  0 0 0
0 0 0  0 0 0  0 0 0  0 0 0  0 0 0  0 0 0
0 0 0  0 0 0  0 0 0  0 0 0  0 0 0  0 0 0
0 0 0  0 0 0  0 0 0  0 0 0  0 0 0  0 0 0
0 0 0  0 0 0  0 0 0  0 0 0  0 0 0  0 0 0
0 0 0  0 0 0  0 0 0  0 0 0  0 0 0  0 0 0
0 0 0  0 0 0  0 0 0  0 0 0  0 0 0  0 0 0
0 0 0  0 0 0  0 0 0  0 0 0  0 0 0  0 0 0
0 0 0  0 0 0  0 0 0  0 0 0  0 0 0  0 0 0
0 0 0  0 0 0  0 0 0  0 0 0  0 0 0  0 0 0
0 0 0  0 0 0  0 0 0  0 0 0  0 0 0  0 0 0
0 0 0  0 0 0  0 0 0  0 0 0  0 0 0  0 0 0
0 0 0  0 0 0  0 0 0  0 0 0  0 0 0  0 0 0
0 0 0  0 0 0  0 0 0  0 0 0  0 0 0  0 0 0
0 0 0  0 0 0  0 0 0  0 0 0  0 0 0  0 0 0
0 0 0  0 0 0  0 0 0  0 0 0  0 0 0  0 0 0
0 0 0  0 0 0  0 0 0  0 0 0  0 0 0  0 0 0
0 0 0  0 0 0  0 0 0  0 0 0  0 0 0  0 0 0
0 0 0  0 0 0  0 0 0  0 0 0  0 0 0  0 0 0
0 0 0  0 0 0  0 0 0  0 0 0  0 0 0  0 0 0
0 0 0  0 0 0  0 0 0  0 0 0  0 0 0  0 0 0
0 0 0  0 0 0  0 0 0  0 0 0  0 0 0  0 0 0
0 0 0  0 0 0  0 0 0  0 0 0  0 0 0  0 0 0
0 0 0  0 0 0  0 0 0  0 0 0  0 0 0  0 0 0
0 0 0  0 0 0  0 0 0  0 0 0  0 0 0  0 0 0
0 0 0  0 0 0  0 0 0  0 0 0  0 0 0  0 0 0
0 0 0  0 0 0  0 0 0  0 0 0  0 0 0  0 0 0
179 179 179  179 179 179  179 179 179  179 179 179  179 179 179  179 179 179
179 179 179  179 179 179  179 179 179  179 179 179  179 179 179  179 179 179
179 179 179  179 179 179  179 179 179  179 179 179  179 179 179  179 179 179
179 179 179  179 179 179  179 179 179  179 179 179  179 179 179  179 179 179
179 179 179  179 179 179  179 179 179  179 179 179  179 179 179  179 179 179
179 179 179  179 179 179  179 179 179  179 179 179  179 179 179  179 179 179
179 179 179  179 179 179  179 179 179  179 179 179  179 179 179  179 179 179
179 179 179  179 179 179  179 179 179  179 179 179  179 179 179  179 179 179
179 179 179  179 179 179  179 179 179  179 179 179  179 179 179  179 179 179
179 179 179  179 179 179  179 179 179  179 179 179  179 179 179  179 179 179
179 179 179  179 179 179  179 179 179  179 179 179  179 179 179  179 179 179
179 179 179  179 179 179  179 179 179  179 179 179  179 179 179  179 179 179
179 179 179  179 179 179  179 179 179  179 179 179  179 179 179  179 179 179
179 179 179  179 179 179  0 0 0  0 0 0  0 0 0  0 0 0
0 0 0  0 0 0  0 0 0  0 0 0  0 0 0  0 0 0
0 0 0  0 0 0  0 0 0  0 0 0  0 0 0  0 0 0
0 0 0  0 0 0  0 0 0  0 0 0  0 0 0  0 0 0
0 0 0  0 0 0  0 0 0  0 0 0  0 0 0  0 0 0
0 0 0  0 0 0  0 0 0  0 0 0  0 0 0  0 0 0
0 0 0  0 0 0  0 0 0  0 0 0  0 0 0  0 0 0
0 0 0  0 0 0  0 0 0  0 0 0  0 0 0  0 0 0
0 0 0  0 0 0  0 0 0  0 0 0  0 0 0  0 0 0
0 0 0  0 0 0  0 0 0  0 0 0  0 0 0  0 0 0
0 0 0  0 0 0  0 0 0  0 0 0  0 0 0  0 0 0
0 0 0  0 0 0  0 0 0  0 0 0  0 0 0  0 0 0
0 0 0  0 0 0  0 0 0  0 0 0  0 0 0  0 0 0
0 0 0  0 0 0  0 0 0  0 0 0  0 0 0  0 0 0
0 0 0  0 0 0  0 0 0  0 0 0  0 0 0  0 0 0
0 0 0  0 0 0  0 0 0  0 0 0  0 0 0  0 0 0
0 0 0  0 0 0  0 0 0  0 0 0  0 0 0  0 0 0
0 0 0  0 0 0  0 0 0  0 0 0  0 0 0  0 0 0
0 0 0  0 0 0  0 0 0  0 0 0  0 0 0  0 0 0
0 0 0  0 0 0  0 0 0  0 0 0  0 0 0  0 0 0
0 0 0  0 0 0  0 0 0  0 0 0  0 0 0  0 0 0
0 0 0  0 0 0  0 0 0  0 0 0  0 0 0  0 0 0
0 0 0  0 0 0  0 0 0  0 0 0  0 0 0  0 0 0
0 0 0  0 0 0  0 0 0  0 0 0  0 0 0  0 0 0
0 0 0  0 0 0  0 0 0  0 0 0  0 0 0  0 0 0
0 0 0  0 0 0  0 0 0  0 0 0  0 0 0  0 0 0
0 0 0  0 0 0  0 0 0  0 0 0  0 0 0  0 0 0
0 0 0  179 179 179  179 179 179  179 179 179  179 179 179  179 179 179
179 179 179  179 179 179  179 179 179  179 179 179  179 179 179  179 179 179
179 179 179  179 179 179  179 179 179  179 179 179  179 179 179  179 179 179
179 179 179  179 179 179  179 179 179  179 179 179  179 179 179  179 179 179
179 179 179  179 179 179  179 179 179  179 179 179  179 179 179  179 179 179
179 179 179  179 179 179  179 179 179  179 179 179  179 179 179  179 179 179
179 179 179  179 179 179  179 179 179  179 179 179  179 179 179  179 179 179
179 179 179  179 179 179  179 179 179  179 179 179  179 179 179  179 179 179
179 179 179  179 179 179  179 179 179  179 179 179  179 179 179  179 179 179
179 179 179  179 179 179  179 179 179  179 179 179  179 179 179  179 179 179
179 179 179  179 179 179  179 179 179  179 179 179  179 179 179  179 179 179
179 179 179  179 179 179  179 179 179  179 179 179  179 179 179  179 179 179
179 179 179  179 179 179  179 179 179  179 179 179  179 179 179  179 179 179
179 179 179  179 179 179  0 0 0  0 0 0  0 0 0  0 0 0
0 0 0  0 0 0  0 0 0  0 0 0  0 0 0  0 0 0
0 0 0  0 0 0  0 0 0  0 0 0  0 0 0  0 0 0
0 0 0  0 0 0  0 0 0  0 0 0  0 0 0  0 0 0
0 0 0  0 0 0  0 0 0  0 0 0  0 0 0  0 0 0
0 0 0  0 0 0  0 0 0  0 0 0  0 0 0  0 0 0
0 0 0  0 0 0  0 0 0  0 0 0  0 0 0  0 0 0
0 0 0  0 0 0  0 0 0  0 0 0  0 0 0  0 0 0
0 0 0  0 0 0  0 0 0  0 0 0  0 0 0  0 0 0
0 0 0  0 0 0  0 0 0  0 0 0  0 0 0  0 0 0
0 0 0  0 0 0  0 0 0  0 0 0  0 0 0  0 0 0
0 0 0  0 0 0  0 0 0  0 0 0  0 0 0  0 0 0
0 0 0  0 0 0  0 0 0  0 0 0  0 0 0  0 0 0
0 0 0  0 0 0  0 0 0  0 0 0  0 0 0  0 0 0
0 0 0  0 0 0  0 0 0  0 0 0  0 0 0  0 0 0
0 0 0  0 0 0  0 0 0  0 0 0  0 0 0  0 0 0
0 0 0  0 0 0  0 0 0  0 0 0  0 0 0  0 0 0
0 0 0  0 0 0  0 0 0  0 0 0  0 0 0  0 0 0
0 0 0  0 0 0  0 0 0  0 0 0  0 0 0  0 0 0
0 0 0  0 0 0  0 0 0  0 0 0  0 0 0  0 0 0
0 0 0  0 0 0  0 0 0  0 0 0  0 0 0  0 0 0
0 0 0  0 0 0  0 0 0  0 0 0  0 0 0  0 0 0
0 0 0  0 0 0  0 0 0  0 0 0  0 0 0  0 0 0
0 0 0  0 0 0  0 0 0  0 0 0  0 0 0  0 0 0
0 0 0  0 0 0  0 0 0  0 0 0  0 0 0  0 0 0
0 0 0  0 0 0  0 0 0  0 0 0  0 0 0  0 0 0
0 0 0  0 0 0  0 0 0  0 0 0  0 0 0  0 0 0
0 0 0  0 0 0  179 179 179  179 179 179  179 179 179  179 179 179
179 179 179  179 179 179  179 179 179  179 179 179  179 179 179  179 179 179
179 179 179  179 179 179  179 179 179  179 179 179  179 179 179  179 179 179
179 179 179  179 179 179  179 179 179  179 179 179  179 179 179  179 179 179
179 179 179  179 179 179  179 179 179  179 179 179  179 179 179  179 179 179
179 179 179  179 179 179  179 179 179  179 179 179  179 179 179  179 179 179
179 179 179  179 179 179  179 179 179  179 179 179  179 179 179  179 179 179
179 179 179  179 179 179  179 179 179  179 179 179  179 179 179  179 179 179
179 179 179  179 179 179  179 179 179  179 179 179  179 179 179  179 179 179
179 179 179  179 179 179  179 179 179  179 179 179  179 179 179  179 179 179
179 179 179  179 179 179  179 179 179  179 179 179  179 179 179  179 179 179
179 179 179  179 179 179  179 179 179  179 179 179  179 179 179  179 179 179
179 179 179  179 179 179  179 179 179  179 179 179  179 179 179  179 179 179
179 179 179  0 0 0  0 0 0  0 0 0  0 0 0  0 0 0
0 0 0  0 0 0  0 0 0  0 0 0  0 0 0  0 0 0
0 0 0  0 0 0  0 0 0  0 0 0  0 0 0  0 0 0
0 0 0  0 0 0  0 0 0  0 0 0  0 0 0  0 0 0
0 0 0  0 0 0  0 0 0  0 0 0  0 0 0  0 0 0
0 0 0  0 0 0  0 0 0  0 0 0  0 0 0  0 0 0
0 0 0  0 0 0  0 0 0  0 0 0  0 0 0  0 0 0
0 0 0  0 0 0  0 0 0  0 0 0  0 0 0  0 0 0
0 0 0  0 0 0  0 0 0  0 0 0  0 0 0  0 0 0
0 0 0  0 0 0  0 0 0  0 0 0  0 0 0  0 0 0
0 0 0  0 0 0  0 0 0  0 0 0  0 0 0  0 0 0
0 0 0  0 0 0  0 0 0  0 0 0  0 0 0  0 0 0
0 0 0  0 0 0  0 0 0  0 0 0  0 0 0  0 0 0
0 0 0  0 0 0  0 0 0  0 0 0  0 0 0  0 0 0
0 0 0  0 0 0  0 0 0  0 0 0  0 0 0  0 0 0
0 0 0  0 0 0  0 0 0  0 0 0  0 0 0  0 0 0
0 0 0  0 0 0  0 0 0  0 0 0  0 0 0  0 0 0
0 0 0  0 0 0  0 0 0  0 0 0  0 0 0  0 0 0
0 0 0  0 0 0  0 0 0  0 0 0  0 0 0  0 0 0
0 0 0  0 0 0  0 0 0  0 0 0  0 0 0  0 0 0
0 0 0  0 0 0  0 0 0  0 0 0  0 0 0  0 0 0
0 0 0  0 0 0  0 0 0  0 0 0  0 0 0  0 0 0
0 0 0  0 0 0  0 0 0  0 0 0  0 0 0  0 0 0
0 0 0  0 0 0  0 0 0  0 0 0  0 0 0  0 0 0
0 0 0  0 0 0  0 0 0  0 0 0  0 0 0  0 0 0
0 0 0  0 0 0  0 0 0  0 0 0  0 0 0  0 0 0
0 0 0  0 0 0  0 0 0  0 0 0  0 0 0  0 0 0
0 0 0  0 0 0  179 179 179  179 179 179  179 179 179  179 179 179
179 179 179  179 179 179  179 179 179  179 179 179  179 179 179  179 179 179
179 179 179  179 179 179  179 179 179  179 179 179  179 179 179  179 179 179
179 179 179  179 179 179  179 179 179  179 179 179  179 179 179  179 179 179
179 179 179  179 179 179  179 179 179  179 179 179  179 179 179  179 179 179
179 179 179  179 179 179  179 179 179  179 179 179  179 179 179  179 179 179
179 179 179  179 179 179  179 179 179  179 179 179  179 179 179  179 179 179
179 179 179  179 179 179  179 179 179  179 179 179  179 179 179  179 179 179
179 179 179  179 179 179  179 179 179  179 179 179  179 179 179  179 179 179
179 179 179  179 179 179  179 179 179  179 179 179  179 179 179  179 179 179
179 179 179  179 179 179  179 179 179  179 179 179  179 179 179  179 179 179
179 179 179  179 179 179  179 179 179  179 179 179  179 179 179  179 179 179
179 179 179  179 179 179  179 179 179  179 179 179  179 179 179  179 179 179
0 0 0  0 0 0  0 0 0  0 0 0  0 0 0  0 0 0
0 0 0  0 0 0  0 0 0  0 0 0  0 0 0  0 0 0
0 0 0  0 0 0  0 0 0  0 0 0  0 0 0  0 0 0
0 0 0  0 0 0  0 0 0  0 0 0  0 0 0  0 0 0
0 0 0  0 0 0  0 0 0  0 0 0  0 0 0  0 0 0
0 0 0  0 0 0  0 0 0  0 0 0  0 0 0  0 0 0
0 0 0  0 0 0  0 0 0  0 0 0  0 0 0  0 0 0
0 0 0  0 0 0  0 0 0  0 0 0  0 0 0  0 0 0
0 0 0  0 0 0  0 0 0  0 0 0  0 0 0  0 0 0
0 0 0  0 0 0  0 0 0  0 0 0  0 0 0  0 0 0
0 0 0  0 0 0  0 0 0  0 0 0  0 0 0  0 0 0
0 0 0  0 0 0  0 0 0  0 0 0  0 0 0  0 0 0
0 0 0  0 0 0  0 0 0  0 0 0  0 0 0  0 0 0
0 0 0  0 0 0  0 0 0  0 0 0  0 0 0  0 0 0
0 0 0  0 0 0  0 0 0  0 0 0  0 0 0  0 0 0
0 0 0  0 0 0  0 0 0  0 0 0  0 0 0  0 0 0
0 0 0  0 0 0  0 0 0  0 0 0  0 0 0  0 0 0
0 0 0  0 0 0  0 0 0  0 0 0  0 0 0  0 0 0
0 0 0  0 0 0  0 0 0  0 0 0  0 0 0  0 0 0
0 0 0  0 0 0  0 0 0  0 0 0  0 0 0  0 0 0
0 0 0  0 0 0  0 0 0  0 0 0  0 0 0  0 0 0
0 0 0  0 0 0  0 0 0  0 0 0  0 0 0  0 0 0
0 0 0  0 0 0  0 0 0  0 0 0  0 0 0  0 0 0
0 0 0  0 0 0  0 0 0  0 0 0  0 0 0  0 0 0
0 0 0  0 0 0  0 0 0  0 0 0  0 0 0  0 0 0
0 0 0  0 0 0  0 0 0  0 0 0  0 0 0  0 0 0
0 0 0  0 0 0  0 0 0  0 0 0  0 0 0  0 0 0
0 0 0  0 0 0  0 0 0  179 179 179  179 179 179  179 179 179
179 179 179  179 179 179  179 179 179  179 179 179  179 179 179  179 179 179
179 179 179  179 179 179  179 179 179  179 179 179  179 179 179  179 179 179
179 179 179  179 179 179  179 179 179  179 179 179  179 179 179  179 179 179
179 179 179  179 179 179  179 179 179  179 179 179  179 179 179  179 179 179
179 179 179  179 179 179  179 179 179  179 179 179  179 179 179  179 179 179
179 179 179  179 179 179  179 179 179  179 179 179  179 179 179  179 179 179
179 179 179  179 179 179  179 179 179  179 179 179  179 179 179  179 179 179
179 179 179  179 179 179  179 179 179  179 179 179  179 179 179  179 179 179
179 179 179  179 179 179  179 179 179  179 179 179  179 179 179  179 179 179
179 179 179  179 179 179  179 179 179  179 179 179  179 179 179  179 179 179
179 179 179  179 179 179  179 179 179  179 179 179  179 179 179  179 179 179
179 179 179  179 179 179  179 179 179  179 179 179  179 179 179  0 0 0
0 0 0  0 0 0  0 0 0  0 0 0  0 0 0  0 0 0
0 0 0  0 0 0  0 0 0  0 0 0  0 0 0  0 0 0
0 0 0  0 0 0  0 0 0  0 0 0  0 0 0  0 0 0
0 0 0  0 0 0  0 0 0  0 0 0  0 0 0  0 0 0
0 0 0  0 0 0  0 0 0  0 0 0  0 0 0  0 0 0
0 0 0  0 0 0  0 0 0  0 0 0  0 0 0  0 0 0
0 0 0  0 0 0  0 0 0  0 0 0  0 0 0  0 0 0
0 0 0  0 0 0  0 0 0  0 0 0  0 0 0  0 0 0
0 0 0  0 0 0  0 0 0  0 0 0  0 0 0  0 0 0
0 0 0  0 0 0  0 0 0  0 0 0  0 0 0  0 0 0
0 0 0  0 0 0  0 0 0  0 0 0  0 0 0  0 0 0
0 0 0  0 0 0  0 0 0  0 0 0  0 0 0  0 0 0
0 0 0  0 0 0  0 0 0  0 0 0  0 0 0  0 0 0
0 0 0  0 0 0  0 0 0  0 0 0  0 0 0  0 0 0
0 0 0  0 0 0  0 0 0  0 0 0  0 0 0  0 0 0
0 0 0  0 0 0  0 0 0  0 0 0  0 0 0  0 0 0
0 0 0  0 0 0  0 0 0  0 0 0  0 0 0  0 0 0
0 0 0  0 0 0  0 0 0  0 0 0  0 0 0  0 0 0
0 0 0  0 0 0  0 0 0  0 0 0  0 0 0  0 0 0
0 0 0  0 0 0  0 0 0  0 0 0  0 0 0  0 0 0
0 0 0  0 0 0  0 0 0  0 0 0  0 0 0  0 0 0
0 0 0  0 0 0  0 0 0  0 0 0  0 0 0  0 0 0
0 0 0  0 0 0  0 0 0  0 0 0  0 0 0  0 0 0
0 0 0  0 0 0  0 0 0  0 0 0  0 0 0  0 0 0
0 0 0  0 0 0  0 0 0  0 0 0  0 0 0  0 0 0
0 0 0  0 0 0  0 0 0  0 0 0  0 0 0  0 0 0
0 0 0  0 0 0  0 0 0  0 0 0  0 0 0  0 0 0
0 0 0  0 0 0  0 0 0  0 0 0  179 179 179  179 179 179
179 179 179  179 179 179  179 179 179  179 179 179  179 179 179  179 179 179
179 179 179  179 179 179  179 179 179  179 179 179  179 179 179  179 179 179
179 179 179  179 179 179  179 179 179  179 179 179  179 179 179  179 179 179
179 179 179  179 179 179  179 179 179  179 179 179  179 179 179  179 179 179
179 179 179  179 179 179  179 179 179  179 179 179  179 179 179  179 179 179
179 179 179  179 179 179  179 179 179  179 179 179  179 179 179  179 179 179
179 179 179  179 179 179  179 179 179  179 179 179  179 179 179  179 179 179
179 179 179  179 179 179  179 179 179  179 179 179  179 179 179  179 179 179
179 179 179  179 179 179  179 179 179  179 179 179  179 179 179  179 179 179
179 179 179  179 179 179  179 179 179  179 179 179  179 179 179  179 179 179
179 179 179  179 179 179  179 179 179  179 179 179  179 179 179  179 179 179
179 179 179  179 179 179  179 179 179  179 179 179  0 0 0  0 0 0
0 0 0  0 0 0  0 0 0  0 0 0  0 0 0  0 0 0
0 0 0  0 0 0  0 0 0  0 0 0  0 0 0  0 0 0
0 0 0  0 0 0  0 0 0  0 0 0  0 0 0  0 0 0
0 0 0  0 0 0  0 0 0  0 0 0  0 0 0  0 0 0
0 0 0  0 0 0  0 0 0  0 0 0  0 0 0  0 0 0
0 0 0  0 0 0  0 0 0  0 0 0  0 0 0  0 0 0
0 0 0  0 0 0  0 0 0  0 0 0  0 0 0  0 0 0
0 0 0  0 0 0  0 0 0  0 0 0  0 0 0  0 0 0
0 0 0  0 0 0  0 0 0  0 0 0  0 0 0  0 0 0
0 0 0  0 0 0  0 0 0  0 0 0  0 0 0  0 0 0
0 0 0  0 0 0  0 0 0  0 0 0  0 0 0  0 0 0
0 0 0  0 0 0  0 0 0  0 0 0  0 0 0  0 0 0
0 0 0  0 0 0  0 0 0  0 0 0  0 0 0  0 0 0
0 0 0  0 0 0  0 0 0  0 0 0  0 0 0  0 0 0
0 0 0  0 0 0  0 0 0  0 0 0  0 0 0  0 0 0
0 0 0  0 0 0  0 0 0  0 0 0  0 0 0  0 0 0
0 0 0  0 0 0  0 0 0  0 0 0  0 0 0  0 0 0
0 0 0  0 0 0  0 0 0  0 0 0  0 0 0  0 0 0
0 0 0  0 0 0  0 0 0  0 0 0  0 0 0  0 0 0
0 0 0  0 0 0  0 0 0  0 0 0  0 0 0  0 0 0
0 0 0  0 0 0  0 0 0  0 0 0  0 0 0  0 0 0
0 0 0  0 0 0  0 0 0  0 0 0  0 0 0  0 0 0
0 0 0  0 0 0  0 0 0  0 0 0  0 0 0  0 0 0
0 0 0  0 0 0  0 0 0  0 0 0  0 0 0  0 0 0
0 0 0  0 0 0  0 0 0  0 0 0  0 0 0  0 0 0
0 0 0  0 0 0  0 0 0  0 0 0  0 0 0  0 0 0
0 0 0  0 0 0  0 0 0  0 0 0  0 0 0  0 0 0
0 0 0  0 0 0  0 0 0  0 0 0  0 0 0  179 179 179
179 179 179  179 179 179  179 179 179  178 178 178  179 179 179  179 179 179
179 179 179  179 179 179  179 179 179  179 179 179  179 179 179  179 179 179
179 179 179  179 179 179  179 179 179  179 179 179  179 179 179  179 179 179
178 178 178  178 178 178  179 179 179  178 178 178  179 179 179  179 179 179
179 179 179  179 179 179  179 179 179  179 179 179  179 179 179  179 179 179
179 179 179  179 179 179  179 179 179  179 179 179  179 179 179  179 179 179
179 179 179  179 179 179  179 179 179  179 179 179  179 179 179  179 179 179
179 179 179  179 179 179  179 179 179  179 179 179  179 179 179  178 178 178
178 178 178  178 178 178  178 178 178  178 178 178  179 179 179  179 179 179
179 179 179  179 179 179  179 179 179  179 179 179  179 179 179  179 179 179
179 179 179  179 179 179  179 179 179  179 179 179  179 179 179  179 179 179
179 179 179  179 179 179  179 179 179  0 0 0  0 0 0  0 0 0
0 0 0  0 0 0  0 0 0  0 0 0  0 0 0  0 0 0
0 0 0  0 0 0  0 0 0  0 0 0  0 0 0  0 0 0
0 0 0  0 0 0  0 0 0  0 0 0  0 0 0  0 0 0
0 0 0  0 0 0  0 0 0  0 0 0  0 0 0  0 0 0
0 0 0  0 0 0  0 0 0  0 0 0  0 0 0  0 0 0
0 0 0  0 0 0  0 0 0  0 0 0  0 0 0  0 0 0
0 0 0  0 0 0  0 0 0  0 0 0  0 0 0  0 0 0
0 0 0  0 0 0  0 0 0  0 0 0  0 0 0  0 0 0
0 0 0  0 0 0  0 0 0  0 0 0  0 0 0  0 0 0
0 0 0  0 0 0  0 0 0  0 0 0  0 0 0  0 0 0
0 0 0  0 0 0  0 0 0  0 0 0  0 0 0  0 0 0
0 0 0  0 0 0  0 0 0  0 0 0  0 0 0  0 0 0
0 0 0  0 0 0  0 0 0  0 0 0  0 0 0  0 0 0
0 0 0  0 0 0  0 0 0  0 0 0  0 0 0  0 0 0
0 0 0  0 0 0  0 0 0  0 0 0  0 0 0  0 0 0
0 0 0  0 0 0  0 0 0  0 0 0  0 0 0  0 0 0
0 0 0  0 0 0  0 0 0  0 0 0  0 0 0  0 0 0
0 0 0  0 0 0  0 0 0  0 0 0  0 0 0  0 0 0
0 0 0  0 0 0  0 0 0  0 0 0  0 0 0  0 0 0
0 0 0  0 0 0  0 0 0  0 0 0  0 0 0  0 0 0
0 0 0  0 0 0  0 0 0  0 0 0  0 0 0  0 0 0
0 0 0  0 0 0  0 0 0  0 0 0  0 0 0  0 0 0
0 0 0  0 0 0  0 0 0  0 0 0  0 0 0  0 0 0
0 0 0  0 0 0  0 0 0  0 0 0  0 0 0  0 0 0
0 0 0  0 0 0  0 0 0  0 0 0  0 0 0  0 0 0
0 0 0  0 0 0  0 0 0  0 0 0  0 0 0  0 0 0
0 0 0  0 0 0  0 0 0  0 0 0  0 0 0  0 0 0
0 0 0  0 0 0  0 0 0  0 0 0  0 0 0  0 0 0
179 179 179  179 179 179  179 179 179  178 178 178  179 179 179  179 179 179
179 179 179  179 179 179  179 179 179  179 179 179  179 179 179  179 179 179
179 179 179  179 179 179  178 178 178  178 178 178  178 178 178  178 178 178
178 178 178  178 178 178  178 178 178  178 178 178  178 178 178  178 178 178
179 179 179  179 179 179  179 179 179  179 179 179  179 179 179  179 179 179
179 179 179  179 179 179  179 179 179  179 179 179  179 179 179  179 179 179
179 179 179  179 179 179  179 179 179  179 179 179  179 179 179  179 179 179
179 179 179  179 179 179  178 178 178  178 178 178  178 178 178  178 178 178
178 178 178  178 178 178  178 178 178  178 178 178  178 178 178  178 178 178
178 178 178  179 179 179  179 179 179  179 179 179  179 179 179  179 179 179
179 179 179  179 179 179  179 179 179  179 179 179  179 179 179  179 179 179
179 179 179  179 179 179  0 0 0  0 0 0  0 0 0  0 0 0
0 0 0  0 0 0  0 0 0  0 0 0  0 0 0  0 0 0
0 0 0  0 0 0  0 0 0  0 0 0  0 0 0  0 0 0
0 0 0  0 0 0  0 0 0  0 0 0  0 0 0  0 0 0
0 0 0  0 0 0  0 0 0  0 0 0  0 0 0  0 0 0
0 0 0  0 0 0  0 0 0  0 0 0  0 0 0  0 0 0
0 0 0  0 0 0  0 0 0  0 0 0  0 0 0  0 0 0
0 0 0  0 0 0  0 0 0  0 0 0  0 0 0  0 0 0
0 0 0  0 0 0  0 0 0  0 0 0  0 0 0  0 0 0
0 0 0  0 0 0  0 0 0  0 0 0  0 0 0  0 0 0
0 0 0  0 0 0  0 0 0  0 0 0  0 0 0  0 0 0
0 0 0  0 0 0  0 0 0  0 0 0  0 0 0  0 0 0
0 0 0  0 0 0  0 0 0  0 0 0  0 0 0  0 0 0
0 0 0  0 0 0  0 0 0  0 0 0  0 0 0  0 0 0
0 0 0  0 0 0  0 0 0  0 0 0  0 0 0  0 0 0
0 0 0  0 0 0  0 0 0  0 0 0  0 0 0  0 0 0
0 0 0  0 0 0  0 0 0  0 0 0  0 0 0  0 0 0
0 0 0  0 0 0  0 0 0  0 0 0  0 0 0  0 0 0
0 0 0  0 0 0  0 0 0  0 0 0  0 0 0  0 0 0
0 0 0  0 0 0  0 0 0  0 0 0  0 0 0  0 0 0
0 0 0  0 0 0  0 0 0  0 0 0  0 0 0  0 0 0
0 0 0  0 0 0  0 0 0  0 0 0  0 0 0  0 0 0
0 0 0  0 0 0  0 0 0  0 0 0  0 0 0  0 0 0
0 0 0  0 0 0  0 0 0  0 0 0  0 0 0  0 0 0
0 0 0  0 0 0  0 0 0  0 0 0  0 0 0  0 0 0
0 0 0  0 0 0  0 0 0  0 0 0  0 0 0  0 0 0
0 0 0  0 0 0  0 0 0  0 0 0  0 0 0  0 0 0
0 0 0  0 0 0  0 0 0  0 0 0  0 0 0  0 0 0
0 0 0  0 0 0  0 0 0  0 0 0  0 0 0  0 0 0
0 0 0  0 0 0  179 179 179  178 178 178  179 179 179  179 179 179
179 179 179  179 179 179  179 179 179  179 179 179  179 179 179  179 179 179
179 179 179  178 178 178  178 178 178  178 178 178  178 178 178  178 178 178
178 178 178  178 178 178  178 178 178  178 178 178  178 178 178  178 178 178
178 178 178  179 179 179  179 179 179  179 179 179  179 179 179  179 179 179
179 179 179  179 179 179  179 179 179  179 179 179  179 179 179  179 179 179
179 179 179  179 179 179  179 179 179  179 179 179  179 179 179  179 179 179
178 178 178  178 178 178  178 178 178  178 178 178  178 178 178  178 178 178
178 178 178  178 178 178  178 178 178  178 178 178  178 178 178  178 178 178
178 178 178  178 178 178  179 179 179  179 179 179  179 179 179  179 179 179
179 179 179  179 179 179  179 179 179  179 179 179  179 179 179  179 179 179
179 179 179  0 0 0  0 0 0  0 0 0  0 0 0  0 0 0
0 0 0  0 0 0  0 0 0  0 0 0  0 0 0  0 0 0
0 0 0  0 0 0  0 0 0  0 0 0  0 0 0  0 0 0
0 0 0  0 0 0  0 0 0  0 0 0  0 0 0  0 0 0
0 0 0  0 0 0  0 0 0  0 0 0  0 0 0  0 0 0
0 0 0  0 0 0  0 0 0  0 0 0  0 0 0  0 0 0
0 0 0  0 0 0  0 0 0  0 0 0  0 0 0  0 0 0
0 0 0  0 0 0  0 0 0  0 0 0  0 0 0  0 0 0
0 0 0  0 0 0  0 0 0  0 0 0  0 0 0  0 0 0
0 0 0  0 0 0  0 0 0  0 0 0  0 0 0  0 0 0
0 0 0  0 0 0  0 0 0  0 0 0  0 0 0  0 0 0
0 0 0  0 0 0  0 0 0  0 0 0  0 0 0  0 0 0
0 0 0  0 0 0  0 0 0  0 0 0  0 0 0  0 0 0
0 0 0  0 0 0  0 0 0  0 0 0  0 0 0  0 0 0
0 0 0  0 0 0  0 0 0  0 0 0  0 0 0  0 0 0
0 0 0  0 0 0  0 0 0  0 0 0  0 0 0  0 0 0
0 0 0  0 0 0  0 0 0  0 0 0  0 0 0  0 0 0
0 0 0  0 0 0  0 0 0  0 0 0  0 0 0  0 0 0
0 0 0  0 0 0  0 0 0  0 0 0  0 0 0  0 0 0
0 0 0  0 0 0  0 0 0  0 0 0  0 0 0  0 0 0
0 0 0  0 0 0  0 0 0  0 0 0  0 0 0  0 0 0
0 0 0  0 0 0  0 0 0  0 0 0  0 0 0  0 0 0
0 0 0  0 0 0  0 0 0  0 0 0  0 0 0  0 0 0
0 0 0  0 0 0  0 0 0  0 0 0  0 0 0  0 0 0
0 0 0  0 0 0  0 0 0  0 0 0  0 0 0  0 0 0
0 0 0  0 0 0  0 0 0  0 0 0  0 0 0  0 0 0
0 0 0  0 0 0  0 0 0  0 0 0  0 0 0  0 0 0
0 0 0  0 0 0  0 0 0  0 0 0  0 0 0  0 0 0
0 0 0  0 0 0  0 0 0  0 0 0  0 0 0  0 0 0
0 0 0  0 0 0  0 0 0  178 178 178  179 179 179  179 179 179
179 179 179  179 179 179  179 179 179  179 179 179  179 179 179  179 179 179
179 179 179  178 178 178  178 178 178  178 178 178  178 178 178  178 178 178
178 178 178  178 178 178  178 178 178  178 178 178  178 178 178  178 178 178
178 178 178  179 179 179  179 179 179  179 179 179  179 179 179  179 179 179
179 179 179  179 179 179  179 179 179  179 179 179  179 179 179  179 179 179
179 179 179  179 179 179  179 179 179  179 179 179  179 179 179  179 179 179
179 179 179  178 178 178  178 178 178  178 178 178  178 178 178  178 178 178
178 178 178  178 178 178  178 178 178  178 178 178  178 178 178  178 178 178
178 178 178  178 178 178  179 179 179  179 179 179  179 179 179  179 179 179
179 179 179  179 179 179  179 179 179  179 179 179  179 179 179  179 179 179
0 0 0  0 0 0  0 0 0  0 0 0  0 0 0  0 0 0
0 0 0  0 0 0  0 0 0  0 0 0  0 0 0  0 0 0
0 0 0  0 0 0  0 0 0  0 0 0  0 0 0  0 0 0
0 0 0  0 0 0  0 0 0  0 0 0  0 0 0  0 0 0
0 0 0  0 0 0  0 0 0  0 0 0  0 0 0  0 0 0
0 0 0  0 0 0  0 0 0  0 0 0  0 0 0  0 0 0
0 0 0  0 0 0  0 0 0  0 0 0  0 0 0  0 0 0
0 0 0  0 0 0  0 0 0  0 0 0  0 0 0  0 0 0
0 0 0  0 0 0  0 0 0  0 0 0  0 0 0  0 0 0
0 0 0  0 0 0  0 0 0  0 0 0  0 0 0  0 0 0
0 0 0  0 0 0  0 0 0  0 0 0  0 0 0  0 0 0
0 0 0  0 0 0  0 0 0  0 0 0  0 0 0  0 0 0
0 0 0  0 0 0  0 0 0  0 0 0  0 0 0  0 0 0
0 0 0  0 0 0  0 0 0  0 0 0  0 0 0  0 0 0
0 0 0  0 0 0  0 0 0  0 0 0  0 0 0  0 0 0
0 0 0  0 0 0  0 0 0  0 0 0  0 0 0  0 0 0
0 0 0  0 0 0  0 0 0  0 0 0  0 0 0  0 0 0
0 0 0  0 0 0  0 0 0  0 0 0  0 0 0  0 0 0
0 0 0  0 0 0  0 0 0  0 0 0  0 0 0  0 0 0
0 0 0  0 0 0  0 0 0  0 0 0  0 0 0  0 0 0
0 0 0  0 0 0  0 0 0  0 0 0  0 0 0  0 0 0
0 0 0  0 0 0  0 0 0  0 0 0  0 0 0  0 0 0
0 0 0  0 0 0  0 0 0  0 0 0  0 0 0  0 0 0
0 0 0  0 0 0  0 0 0  0 0 0  0 0 0  0 0 0
0 0 0  0 0 0  0 0 0  0 0 0  0 0 0  0 0 0
0 0 0  0 0 0  0 0 0  0 0 0  0 0 0  0 0 0
0 0 0  0 0 0  0 0 0  0 0 0  0 0 0  0 0 0
0 0 0  0 0 0  0 0 0  0 0 0  0 0 0  0 0 0
0 0 0  0 0 0  0 0 0  0 0 0  0 0 0  0 0 0
0 0 0  0 0 0  0 0 0  0 0 0  0 0 0  179 179 179
179 179 179  179 179 179  179 179 179  179 179 179  179 179 179  179 179 179
179 179 179  178 178 178  178 178 178  178 178 178  178 178 178  178 178 178
178 178 178  178 178 178  178 178 178  178 178 178  178 178 178  178 178 178
178 178 178  179 179 179  179 179 179  179 179 179  179 179 179  179 179 179
179 179 179  179 179 179  179 179 179  179 179 179  179 179 179  179 179 179
179 179 179  179 179 179  179 179 179  179 179 179  179 179 179  179 179 179
179 179 179  178 178 178  178 178 178  178 178 178  178 178 178  178 178 178
178 178 178  178 178 178  178 178 178  178 178 178  178 178 178  178 178 178
178 178 178  178 178 178  179 179 179  179 179 179  179 179 179  179 179 179
179 179 179  179 179 179  179 179 179  179 179 179  0 0 0  0 0 0
0 0 0  0 0 0  0 0 0  0 0 0  0 0 0  0 0 0
0 0 0  0 0 0  0 0 0  0 0 0  0 0 0  0 0 0
0 0 0  0 0 0  0 0 0  0 0 0  0 0 0  0 0 0
0 0 0  0 0 0  0 0 0  0 0 0  0 0 0  0 0 0
0 0 0  0 0 0  0 0 0  0 0 0  0 0 0  0 0 0
0 0 0  0 0 0  0 0 0  0 0 0  0 0 0  0 0 0
0 0 0  0 0 0  0 0 0  0 0 0  0 0 0  0 0 0
0 0 0  0 0 0  0 0 0  0 0 0  0 0 0  0 0 0
0 0 0  0 0 0  0 0 0  0 0 0  0 0 0  0 0 0
0 0 0  0 0 0  0 0 0  0 0 0  0 0 0  0 0 0
0 0 0  0 0 0  0 0 0  0 0 0  0 0 0  0 0 0
0 0 0  0 0 0  0 0 0  0 0 0  0 0 0  0 0 0
0 0 0  0 0 0  0 0 0  0 0 0  0 0 0  0 0 0
0 0 0  0 0 0  0 0 0  0 0 0  0 0 0  0 0 0
0 0 0  0 0 0  0 0 0  0 0 0  0 0 0  0 0 0
0 0 0  0 0 0  0 0 0  0 0 0  0 0 0  0 0 0
0 0 0  0 0 0  0 0 0  0 0 0  0 0 0  0 0 0
0 0 0  0 0 0  0 0 0  0 0 0  0 0 0  0 0 0
0 0 0  0 0 0  0 0 0  0 0 0  0 0 0  0 0 0
0 0 0  0 0 0  0 0 0  0 0 0  0 0 0  0 0 0
0 0 0  0 0 0  0 0 0  0 0 0  0 0 0  0 0 0
0 0 0  0 0 0  0 0 0  0 0 0  0 0 0  0 0 0
0 0 0  0 0 0  0 0 0  0 0 0  0 0 0  0 0 0
0 0 0  0 0 0  0 0 0  0 0 0  0 0 0  0 0 0
0 0 0  0 0 0  0 0 0  0 0 0  0 0 0  0 0 0
0 0 0  0 0 0  0 0 0  0 0 0  0 0 0  0 0 0
0 0 0  0 0 0  0 0 0  0 0 0  0 0 0  0 0 0
0 0 0  0 0 0  0 0 0  0 0 0  0 0 0  0 0 0
0 0 0  0 0 0  0 0 0  0 0 0  0 0 0  0 0 0
0 0 0  0 0 0  0 0 0  0 0 0  0 0 0  0 0 0
0 0 0  179 179 179  179 179 179  179 179 179  179 179 179  178 178 178
178 178 178  178 178 178  178 178 178  178 178 178  178 178 178  178 178 178
178 178 178  178 178 178  178 178 178  178 178 178  178 178 178  178 178 178
178 178 178  178 178 178  178 178 178  179 179 179  179 179 179  179 179 179
179 179 179  179 179 179  0 0 0  0 0 0  0 0 0  0 0 0
0 0 0  179 179 179  179 179 179  178 178 178  179 179 179  178 178 178
178 178 178  178 178 178  178 178 178  178 178 178  178 178 178  178 178 178
178 178 178  178 178 178  178 178 178  178 178 178  178 178 178  178 178 178
178 178 178  178 178 178  178 178 178  178 178 178  179 179 179  178 178 178
179 179 179  179 179 179  0 0 0  0 0 0  0 0 0  0 0 0
0 0 0  0 0 0  0 0 0  0 0 0  0 0 0  0 0 0
0 0 0  0 0 0  0 0 0  0 0 0  0 0 0  0 0 0
0 0 0  0 0 0  0 0 0  0 0 0  0 0 0  0 0 0
0 0 0  0 0 0  0 0 0  0 0 0  0 0 0  0 0 0
0 0 0  0 0 0  0 0 0  0 0 0  0 0 0  0 0 0
0 0 0  0 0 0  0 0 0  0 0 0  0 0 0  0 0 0
0 0 0  0 0 0  0 0 0  0 0 0  0 0 0  0 0 0
0 0 0  0 0 0  0 0 0  0 0 0  0 0 0  0 0 0
0 0 0  0 0 0  0 0 0  0 0 0  0 0 0  0 0 0
0 0 0  0 0 0  0 0 0  0 0 0  0 0 0  0 0 0
0 0 0  0 0 0  0 0 0  0 0 0  0 0 0  0 0 0
0 0 0  0 0 0  0 0 0  0 0 0  0 0 0  0 0 0
0 0 0  0 0 0  0 0 0  0 0 0  0 0 0  0 0 0
0 0 0  0 0 0  0 0 0  0 0 0  0 0 0  0 0 0
0 0 0  0 0 0  0 0 0  0 0 0  0 0 0  0 0 0
0 0 0  0 0 0  0 0 0  0 0 0  0 0 0  0 0 0
0 0 0  0 0 0  0 0 0  0 0 0  0 0 0  0 0 0
0 0 0  0 0 0  0 0 0  0 0 0  0 0 0  0 0 0
0 0 0  0 0 0  0 0 0  0 0 0  0 0 0  0 0 0
0 0 0  0 0 0  0 0 0  0 0 0  0 0 0  0 0 0
0 0 0  0 0 0  0 0 0  0 0 0  0 0 0  0 0 0
0 0 0  0 0 0  0 0 0  0 0 0  0 0 0  0 0 0
0 0 0  0 0 0  0 0 0  0 0 0  0 0 0  0 0 0
0 0 0  0 0 0  0 0 0  0 0 0  0 0 0  0 0 0
0 0 0  0 0 0  0 0 0  0 0 0  0 0 0  0 0 0
0 0 0  0 0 0  0 0 0  0 0 0  0 0 0  0 0 0
0 0 0  0 0 0  0 0 0  0 0 0  0 0 0  0 0 0
0 0 0  0 0 0  0 0 0  0 0 0  0 0 0  0 0 0
0 0 0  0 0 0  0 0 0  0 0 0  0 0 0  0 0 0
0 0 0  0 0 0  0 0 0  0 0 0  0 0 0  0 0 0
0 0 0  0 0 0  0 0 0  178 178 178  178 178 178  178 178 178
178 178 178  178 178 178  177 177 177  177 177 177  177 177 177  177 177 177
177 177 177  177 177 177  177 177 177  177 177 177  177 177 177  178 178 178
178 178 178  178 178 178  178 178 178  178 178 178  178 178 178  0 0 0
0 0 0  0 0 0  0 0 0  0 0 0  0 0 0  0 0 0
0 0 0  0 0 0  0 0 0  0 0 0  178 178 178  178 178 178
178 178 178  178 178 178  177 177 177  177 177 177  177 177 177  177 177 177
177 177 177  177 177 177  177 177 177  177 177 177  177 177 177  177 177 177
177 177 177  178 178 178  178 178 178  178 178 178  178 178 178  0 0 0
0 0 0  0 0 0  0 0 0  0 0 0  0 0 0  0 0 0
0 0 0  0 0 0  0 0 0  0 0 0  0 0 0  0 0 0
0 0 0  0 0 0  0 0 0  0 0 0  0 0 0  0 0 0
0 0 0  0 0 0  0 0 0  0 0 0  0 0 0  0 0 0
0 0 0  0 0 0  0 0 0  0 0 0  0 0 0  0 0 0
0 0 0  0 0 0  0 0 0  0 0 0  0 0 0  0 0 0
0 0 0  0 0 0  0 0 0  0 0 0  0 0 0  0 0 0
0 0 0  0 0 0  0 0 0  0 0 0  0 0 0  0 0 0
0 0 0  0 0 0  0 0 0  0 0 0  0 0 0  0 0 0
0 0 0  0 0 0  0 0 0  0 0 0  0 0 0  0 0 0
0 0 0  0 0 0  0 0 0  0 0 0  0 0 0  0 0 0
0 0 0  0 0 0  0 0 0  0 0 0  0 0 0  0 0 0
0 0 0  0 0 0  0 0 0  0 0 0  0 0 0  0 0 0
0 0 0  0 0 0  0 0 0  0 0 0  0 0 0  0 0 0
0 0 0  0 0 0  0 0 0  0 0 0  0 0 0  0 0 0
0 0 0  0 0 0  0 0 0  0 0 0  0 0 0  0 0 0
0 0 0  0 0 0  0 0 0  0 0 0  0 0 0  0 0 0
0 0 0  0 0 0  0 0 0  0 0 0  0 0 0  0 0 0
0 0 0  0 0 0  0 0 0  0 0 0  0 0 0  0 0 0
0 0 0  0 0 0  0 0 0  0 0 0  0 0 0  0 0 0
0 0 0  0 0 0  0 0 0  0 0 0  0 0 0  0 0 0
0 0 0  0 0 0  0 0 0  0 0 0  0 0 0  0 0 0
0 0 0  0 0 0  0 0 0  0 0 0  0 0 0  0 0 0
0 0 0  0 0 0  0 0 0  0 0 0  0 0 0  0 0 0
0 0 0  0 0 0  0 0 0  0 0 0  0 0 0  0 0 0
0 0 0  0 0 0  0 0 0  0 0 0  0 0 0  0 0 0
0 0 0  0 0 0  0 0 0  0 0 0  0 0 0  0 0 0
0 0 0  0 0 0  0 0 0  0 0 0  0 0 0  0 0 0
0 0 0  0 0 0  0 0 0  0 0 0  0 0 0  0 0 0
0 0 0  0 0 0  0 0 0  0 0 0  0 0 0  0 0 0
0 0 0  0 0 0  0 0 0  0 0 0  0 0 0  0 0 0
0 0 0  0 0 0  0 0 0  0 0 0  0 0 0  0 0 0
0 0 0  177 177 177  177 177 177  177 177 177  176 176 176  176 176 176
176 176 176  176 176 176  176 176 176  176 176 176  177 177 177  177 177 177
177 177 177  0 0 0  0 0 0  0 0 0  0 0 0  0 0 0
0 0 0  0 0 0  0 0 0  0 0 0  0 0 0  0 0 0
0 0 0  0 0 0  0 0 0  0 0 0  0 0 0  0 0 0
0 0 0  0 0 0  177 177 177  177 177 177  176 176 176  176 176 176
176 176 176  176 176 176  176 176 176  176 176 176  176 176 176  176 176 176
177 177 177  0 0 0  0 0 0  0 0 0  0 0 0  0 0 0
0 0 0  0 0 0  0 0 0  0 0 0  0 0 0  0 0 0
0 0 0  0 0 0  0 0 0  0 0 0  0 0 0  0 0 0
0 0 0  0 0 0  0 0 0  0 0 0  0 0 0  0 0 0
0 0 0  0 0 0  0 0 0  0 0 0  0 0 0  0 0 0
0 0 0  0 0 0  0 0 0  0 0 0  0 0 0  0 0 0
0 0 0  0 0 0  0 0 0  0 0 0  0 0 0  0 0 0
0 0 0  0 0 0  0 0 0  0 0 0  0 0 0  0 0 0
0 0 0  0 0 0  0 0 0  0 0 0  0 0 0  0 0 0
0 0 0  0 0 0  0 0 0  0 0 0  0 0 0  0 0 0
0 0 0  0 0 0  0 0 0  0 0 0  0 0 0  0 0 0
0 0 0  0 0 0  0 0 0  0 0 0  0 0 0  0 0 0
0 0 0  0 0 0  0 0 0  0 0 0  0 0 0  0 0 0
0 0 0  0 0 0  0 0 0  0 0 0  0 0 0  0 0 0
0 0 0  0 0 0  0 0 0  0 0 0  0 0 0  0 0 0
0 0 0  0 0 0  0 0 0  0 0 0  0 0 0  0 0 0
0 0 0  0 0 0  0 0 0  0 0 0  0 0 0  0 0 0
0 0 0  0 0 0  0 0 0  0 0 0  0 0 0  0 0 0
0 0 0  0 0 0  0 0 0  0 0 0  0 0 0  0 0 0
0 0 0  0 0 0  0 0 0  0 0 0  0 0 0  0 0 0
0 0 0  0 0 0  0 0 0  0 0 0  0 0 0  0 0 0
0 0 0  0 0 0  0 0 0  0 0 0  0 0 0  0 0 0
0 0 0  0 0 0  0 0 0  0 0 0  0 0 0  0 0 0
0 0 0  0 0 0  0 0 0  0 0 0  0 0 0  0 0 0
0 0 0  0 0 0  0 0 0  0 0 0  0 0 0  0 0 0
0 0 0  0 0 0  0 0 0  0 0 0  0 0 0  0 0 0
0 0 0  0 0 0  0 0 0  0 0 0  0 0 0  0 0 0
0 0 0  0 0 0  0 0 0  0 0 0  0 0 0  0 0 0
0 0 0  0 0 0  0 0 0  0 0 0  0 0 0  0 0 0
0 0 0  0 0 0  0 0 0  0 0 0  0 0 0  0 0 0
0 0 0  0 0 0  0 0 0  0 0 0  0 0 0  0 0 0
0 0 0  0 0 0  0 0 0  0 0 0  0 0 0  0 0 0
0 0 0  0 0 0  0 0 0  0 0 0  0 0 0  0 0 0
0 0 0  0 0 0  0 0 0  0 0 0  0 0 0  0 0 0
0 0 0  0 0 0  0 0 0  0 0 0  0 0 0  0 0 0
0 0 0  0 0 0  0 0 0  0 0 0  0 0 0  0 0 0
0 0 0  0 0 0  0 0 0  0 0 0  0 0 0  0 0 0
0 0 0  0 0 0  0 0 0  0 0 0  0 0 0  0 0 0
0 0 0  0 0 0  0 0 0  0 0 0  0 0 0  0 0 0
0 0 0  0 0 0  0 0 0  0 0 0  0 0 0  0 0 0
0 0 0  0 0 0  0 0 0  0 0 0  0 0 0  0 0 0
0 0 0  0 0 0  0 0 0  0 0 0  0 0 0  0 0 0
0 0 0  0 0 0  0 0 0  0 0 0  0 0 0  0 0 0
0 0 0  0 0 0  0 0 0  0 0 0  0 0 0  0 0 0
0 0 0  0 0 0  0 0 0  0 0 0  0 0 0  0 0 0
0 0 0  0 0 0  0 0 0  0 0 0  0 0 0  0 0 0
0 0 0  0 0 0  0 0 0  0 0 0  0 0 0  0 0 0
0 0 0  0 0 0  0 0 0  0 0 0  0 0 0  0 0 0
0 0 0  0 0 0  0 0 0  0 0 0  0 0 0  0 0 0
0 0 0  0 0 0  0 0 0  0 0 0  0 0 0  0 0 0
0 0 0  0 0 0  0 0 0  0 0 0  0 0 0  0 0 0
0 0 0  0 0 0  0 0 0  0 0 0  0 0 0  0 0 0
0 0 0  0 0 0  0 0 0  0 0 0  0 0 0  0 0 0
0 0 0  0 0 0  0 0 0  0 0 0  0 0 0  0 0 0
0 0 0  0 0 0  0 0 0  0 0 0  0 0 0  0 0 0
0 0 0  0 0 0  0 0 0  0 0 0  0 0 0  0 0 0
0 0 0  0 0 0  0 0 0  0 0 0  0 0 0  0 0 0
0 0 0  0 0 0  0 0 0  0 0 0  0 0 0  0 0 0
0 0 0  0 0 0  0 0 0  0 0 0  0 0 0  0 0 0
0 0 0  0 0 0  0 0 0  0 0 0  0 0 0  0 0 0
0 0 0  0 0 0  0 0 0  0 0 0  0 0 0  0 0 0
0 0 0  0 0 0  0 0 0  0 0 0  0 0 0  0 0 0
0 0 0  0 0 0  0 0 0  0 0 0  0 0 0  0 0 0
0 0 0  0 0 0  0 0 0  0 0 0  0 0 0  0 0 0
0 0 0  0 0 0  0 0 0  0 0 0  0 0 0  0 0 0
0 0 0  0 0 0  0 0 0  0 0 0  0 0 0  0 0 0
0 0 0  0 0 0  0 0 0  0 0 0  0 0 0  0 0 0
0 0 0  0 0 0  0 0 0  0 0 0  0 0 0  0 0 0
0 0 0  0 0 0  0 0 0  0 0 0  0 0 0  0 0 0
0 0 0  0 0 0  0 0 0  0 0 0  0 0 0  0 0 0
0 0 0  0 0 0  0 0 0  0 0 0  0 0 0  0 0 0
0 0 0  0 0 0  0 0 0  0 0 0  0 0 0  0 0 0
0 0 0  0 0 0  0 0 0  0 0 0  0 0 0  0 0 0
0 0 0  0 0 0  0 0 0  0 0 0  0 0 0  0 0 0
0 0 0  0 0 0  0 0 0  0 0 0  0 0 0  0 0 0
0 0 0  0 0 0  0 0 0  0 0 0  0 0 0  0 0 0
0 0 0  0 0 0  0 0 0  0 0 0  0 0 0  0 0 0
0 0 0  0 0 0  0 0 0  0 0 0  0 0 0  0 0 0
0 0 0  0 0 0  0 0 0  0 0 0  0 0 0  0 0 0
0 0 0  0 0 0  0 0 0  0 0 0  0 0 0  0 0 0
0 0 0  0 0 0  0 0 0  0 0 0  0 0 0  0 0 0
0 0 0  0 0 0  0 0 0  0 0 0  0 0 0  0 0 0
0 0 0  0 0 0  0 0 0  0 0 0  0 0 0  0 0 0
0 0 0  0 0 0  0 0 0  0 0 0  0 0 0  0 0 0
0 0 0  0 0 0  0 0 0  0 0 0  0 0 0  0 0 0
0 0 0  0 0 0  0 0 0  0 0 0  0 0 0  0 0 0
0 0 0  0 0 0  0 0 0  0 0 0  0 0 0  0 0 0
0 0 0  0 0 0  0 0 0  0 0 0  0 0 0  0 0 0
0 0 0  0 0 0  0 0 0  0 0 0  0 0 0  0 0 0
0 0 0  0 0 0  0 0 0  0 0 0  0 0 0  0 0 0
0 0 0  0 0 0  0 0 0  0 0 0  0 0 0  0 0 0
0 0 0  0 0 0  0 0 0  0 0 0  0 0 0  0 0 0
0 0 0  0 0 0  0 0 0  0 0 0  0 0 0  0 0 0
0 0 0  0 0 0  0 0 0  0 0 0  0 0 0  0 0 0
0 0 0  0 0 0  0 0 0  0 0 0  0 0 0  0 0 0
0 0 0  0 0 0  0 0 0  0 0 0  0 0 0  0 0 0
0 0 0  0 0 0  0 0 0  0 0 0  0 0 0  0 0 0
0 0 0  0 0 0  0 0 0  0 0 0  0 0 0  0 0 0
0 0 0  0 0 0  0 0 0  0 0 0  0 0 0  0 0 0
0 0 0  0 0 0  0 0 0  0 0 0  0 0 0  0 0 0
0 0 0  0 0 0  0 0 0  0 0 0  0 0 0  0 0 0
0 0 0  0 0 0  0 0 0  0 0 0  0 0 0  0 0 0
0 0 0  0 0 0  0 0 0  0 0 0  0 0 0  0 0 0
0 0 0  0 0 0  0 0 0  0 0 0  0 0 0  0 0 0
0 0 0  0 0 0  0 0 0  0 0 0  0 0 0  0 0 0
0 0 0  0 0 0  0 0 0  0 0 0  0 0 0  0 0 0
0 0 0  0 0 0  0 0 0  0 0 0  0 0 0  0 0 0
0 0 0  0 0 0  0 0 0  0 0 0  0 0 0  0 0 0
0 0 0  0 0 0  0 0 0  0 0 0  0 0 0  0 0 0
0 0 0  0 0 0  0 0 0  0 0 0  0 0 0  0 0 0
0 0 0  0 0 0  0 0 0  0 0 0  0 0 0  0 0 0
0 0 0  0 0 0  0 0 0  0 0 0  0 0 0  0 0 0
0 0 0  0 0 0  0 0 0  0 0 0  0 0 0  0 0 0
0 0 0  0 0 0  0 0 0  0 0 0  0 0 0  0 0 0
0 0 0  0 0 0  0 0 0  0 0 0  0 0 0  0 0 0
0 0 0  0 0 0  0 0 0  0 0 0  0 0 0  0 0 0
0 0 0  0 0 0  0 0 0  0 0 0  0 0 0  0 0 0
0 0 0  0 0 0  0 0 0  0 0 0  0 0 0  0 0 0
0 0 0  0 0 0  0 0 0  0 0 0  0 0 0  0 0 0
0 0 0  0 0 0  0 0 0  0 0 0  0 0 0  0 0 0
0 0 0  0 0 0  0 0 0  0 0 0  0 0 0  0 0 0
0 0 0  0 0 0  0 0 0  0 0 0  0 0 0  0 0 0
0 0 0  0 0 0  0 0 0  0 0 0  0 0 0  0 0 0
0 0 0  0 0 0  0 0 0  0 0 0  0 0 0  0 0 0
0 0 0  0 0 0  0 0 0  0 0 0  0 0 0  0 0 0
0 0 0  0 0 0  0 0 0  0 0 0  0 0 0  0 0 0
0 0 0  0 0 0  0 0 0  0 0 0  0 0 0  0 0 0
0 0 0  0 0 0  0 0 0  0 0 0  0 0 0  0 0 0
0 0 0  0 0 0  0 0 0  0 0 0  0 0 0  0 0 0
0 0 0  0 0 0  0 0 0  0 0 0  0 0 0  0 0 0
0 0 0  0 0 0  0 0 0  0 0 0  0 0 0  0 0 0
0 0 0  0 0 0  0 0 0  0 0 0  0 0 0  0 0 0
0 0 0  0 0 0  0 0 0  0 0 0  0 0 0  0 0 0
0 0 0  0 0 0  0 0 0  0 0 0  0 0 0  0 0 0
0 0 0  0 0 0  0 0 0  0 0 0  0 0 0  0 0 0
0 0 0  0 0 0  0 0 0  0 0 0  0 0 0  0 0 0
0 0 0  0 0 0  0 0 0  0 0 0  0 0 0  0 0 0
0 0 0  0 0 0  0 0 0  0 0 0  0 0 0  0 0 0
0 0 0  0 0 0  0 0 0  0 0 0  0 0 0  0 0 0
0 0 0  0 0 0  0 0 0  0 0 0  0 0 0  0 0 0
0 0 0  0 0 0  0 0 0  0 0 0  0 0 0  0 0 0
0 0 0  0 0 0  0 0 0  0 0 0  0 0 0  0 0 0
0 0 0  0 0 0  0 0 0  0 0 0  0 0 0  0 0 0
0 0 0  0 0 0  0 0 0  0 0 0  0 0 0  0 0 0
0 0 0  0 0 0  0 0 0  0 0 0  0 0 0  0 0 0
0 0 0  0 0 0  0 0 0  0 0 0  0 0 0  0 0 0
0 0 0  0 0 0  0 0 0  0 0 0  0 0 0  0 0 0
0 0 0  0 0 0  0 0 0  0 0 0  0 0 0  0 0 0
0 0 0  0 0 0  0 0 0  0 0 0  0 0 0  0 0 0
0 0 0  0 0 0  0 0 0  0 0 0  0 0 0  0 0 0
0 0 0  0 0 0  0 0 0  0 0 0  0 0 0  0 0 0
0 0 0  0 0 0  0 0 0  0 0 0  0 0 0  0 0 0
0 0 0  0 0 0  0 0 0  0 0 0  0 0 0  0 0 0
0 0 0  0 0 0  0 0 0  0 0 0  0 0 0  0 0 0
0 0 0  0 0 0  0 0 0  0 0 0  0 0 0  0 0 0
0 0 0  0 0 0  0 0 0  0 0 0  0 0 0  0 0 0
0 0 0  0 0 0  0 0 0  0 0 0  0 0 0  0 0 0
0 0 0  0 0 0  0 0 0  0 0 0  0 0 0  0 0 0
0 0 0  0 0 0  0 0 0  0 0 0  0 0 0  0 0 0
0 0 0  0 0 0  0 0 0  0 0 0  0 0 0  0 0 0
0 0 0  0 0 0  0 0 0  0 0 0  0 0 0  0 0 0
0 0 0  0 0 0  0 0 0  0 0 0  0 0 0  0 0 0
0 0 0  0 0 0  0 0 0  0 0 0  0 0 0  0 0 0
0 0 0  0 0 0  0 0 0  0 0 0  0 0 0  0 0 0
0 0 0  0 0 0  0 0 0  0 0 0  0 0 0  0 0 0
0 0 0  0 0 0  0 0 0  0 0 0  0 0 0  0 0 0
0 0 0  0 0 0  0 0 0  0 0 0  0 0 0  0 0 0
0 0 0  0 0 0  0 0 0  0 0 0  0 0 0  0 0 0
0 0 0  0 0 0  0 0 0  0 0 0  0 0 0  0 0 0
0 0 0  0 0 0  0 0 0  0 0 0  0 0 0  0 0 0
0 0 0  0 0 0  0 0 0  0 0 0  0 0 0  0 0 0
0 0 0  0 0 0  0 0 0  0 0 0  0 0 0  0 0 0
0 0 0  0 0 0  0 0 0  0 0 0  0 0 0  0 0 0
0 0 0  0 0 0  0 0 0  0 0 0  0 0 0  0 0 0
0 0 0  0 0 0  0 0 0  0 0 0  0 0 0  0 0 0
0 0 0  0 0 0  0 0 0  0 0 0  0 0 0  0 0 0
0 0 0  0 0 0  0 0 0  0 0 0  0 0 0  0 0 0
0 0 0  0 0 0  0 0 0  0 0 0  0 0 0  0 0 0
0 0 0  0 0 0  0 0 0  0 0 0  0 0 0  0 0 0
0 0 0  0 0 0  0 0 0  0 0 0  0 0 0  0 0 0
0 0 0  0 0 0  0 0 0  0 0 0  0 0 0  0 0 0
0 0 0  0 0 0  0 0 0  0 0 0  0 0 0  0 0 0
0 0 0  0 0 0  0 0 0  0 0 0  0 0 0  0 0 0
0 0 0  0 0 0  0 0 0  0 0 0  0 0 0  0 0 0
0 0 0  0 0 0  0 0 0  0 0 0  0 0 0  0 0 0
0 0 0  0 0 0  0 0 0  0 0 0  0 0 0  0 0 0
0 0 0  0 0 0  0 0 0  0 0 0  0 0 0  0 0 0
0 0 0  0 0 0  0 0 0  0 0 0  0 0 0  0 0 0
0 0 0  0 0 0  0 0 0  0 0 0  0 0 0  0 0 0
0 0 0  0 0 0  0 0 0  0 0 0  0 0 0  0 0 0
0 0 0  0 0 0  0 0 0  0 0 0  0 0 0  0 0 0
0 0 0  0 0 0  0 0 0  0 0 0  0 0 0  0 0 0
0 0 0  0 0 0  0 0 0  0 0 0  0 0 0  0 0 0
0 0 0  0 0 0  0 0 0  0 0 0  0 0 0  0 0 0
0 0 0  0 0 0  0 0 0  0 0 0  0 0 0  0 0 0
0 0 0  0 0 0  0 0 0  0 0 0  0 0 0  0 0 0
0 0 0  0 0 0  0 0 0  0 0 0  0 0 0  0 0 0
0 0 0  0 0 0  0 0 0  0 0 0  0 0 0  0 0 0
0 0 0  0 0 0  0 0 0  0 0 0  0 0 0  0 0 0
0 0 0  0 0 0  0 0 0  0 0 0  0 0 0  0 0 0
0 0 0  0 0 0  0 0 0  0 0 0  0 0 0  0 0 0
0 0 0  0 0 0  0 0 0  0 0 0  0 0 0  0 0 0
0 0 0  0 0 0  0 0 0  0 0 0  0 0 0  0 0 0
0 0 0  0 0 0  0 0 0  0 0 0  0 0 0  0 0 0
0 0 0  0 0 0  0 0 0  0 0 0  0 0 0  0 0 0
0 0 0  0 0 0  0 0 0  0 0 0  0 0 0  0 0 0
0 0 0  0 0 0  0 0 0  0 0 0  0 0 0  0 0 0
0 0 0  0 0 0  0 0 0  0 0 0  0 0 0  0 0 0
0 0 0  0 0 0  0 0 0  0 0 0  0 0 0  0 0 0
0 0 0  0 0 0  0 0 0  0 0 0  0 0 0  0 0 0
0 0 0  0 0 0  0 0 0  0 0 0  0 0 0  0 0 0
0 0 0  0 0 0  0 0 0  0 0 0  0 0 0  0 0 0
0 0 0  0 0 0  0 0 0  0 0 0  0 0 0  0 0 0
0 0 0  0 0 0  0 0 0  0 0 0  0 0 0  0 0 0
0 0 0  0 0 0  0 0 0  0 0 0  0 0 0  0 0 0
0 0 0  0 0 0  0 0 0  0 0 0  0 0 0  0 0 0
0 0 0  0 0 0  0 0 0  0 0 0  0 0 0  0 0 0
0 0 0  0 0 0  0 0 0  0 0 0  0 0 0  0 0 0
0 0 0  0 0 0  0 0 0  0 0 0  0 0 0  0 0 0
0 0 0  0 0 0  0 0 0  0 0 0  0 0 0  0 0 0
0 0 0  0 0 0  0 0 0  0 0 0  0 0 0  0 0 0
0 0 0  0 0 0  0 0 0  0 0 0  0 0 0  0 0 0
0 0 0  0 0 0  0 0 0  0 0 0  0 0 0  0 0 0
0 0 0  0 0 0  0 0 0  0 0 0  0 0 0  0 0 0
0 0 0  0 0 0  0 0 0  0 0 0  0 0 0  0 0 0
0 0 0  0 0 0  0 0 0  0 0 0  0 0 0  0 0 0
0 0 0  0 0 0  0 0 0  0 0 0  0 0 0  0 0 0
0 0 0  0 0 0  0 0 0  0 0 0  0 0 0  0 0 0
0 0 0  0 0 0  0 0 0  0 0 0  0 0 0  0 0 0
0 0 0  0 0 0  0 0 0  0 0 0  0 0 0  0 0 0
0 0 0  0 0 0  0 0 0  0 0 0  0 0 0  0 0 0
0 0 0  0 0 0  0 0 0  0 0 0  0 0 0  0 0 0
0 0 0  0 0 0  0 0 0  0 0 0  0 0 0  0 0 0
0 0 0  0 0 0  0 0 0  0 0 0  0 0 0  0 0 0
0 0 0  0 0 0  0 0 0  0 0 0  0 0 0  0 0 0
0 0 0  0 0 0  0 0 0  0 0 0  0 0 0  0 0 0
0 0 0  0 0 0  0 0 0  0 0 0  0 0 0  0 0 0
0 0 0  0 0 0  0 0 0  0 0 0  0 0 0  0 0 0
0 0 0  0 0 0  0 0 0  0 0 0  0 0 0  0 0 0
0 0 0  0 0 0  0 0 0  0 0 0  0 0 0  0 0 0
0 0 0  0 0 0  0 0 0  0 0 0  0 0 0  0 0 0
0 0 0  0 0 0  0 0 0  0 0 0  0 0 0  0 0 0
0 0 0  0 0 0  0 0 0  0 0 0  0 0 0  0 0 0
0 0 0  0 0 0  0 0 0  0 0 0  0 0 0  0 0 0
0 0 0  0 0 0  0 0 0  0 0 0  0 0 0  0 0 0
0 0 0  0 0 0  0 0 0  0 0 0  0 0 0  0 0 0
0 0 0  0 0 0  0 0 0  0 0 0  0 0 0  0 0 0
0 0 0  0 0 0  0 0 0  0 0 0  0 0 0  0 0 0
0 0 0  0 0 0  0 0 0  0 0 0  0 0 0  0 0 0
0 0 0  0 0 0  0 0 0  0 0 0  0 0 0  0 0 0
0 0 0  0 0 0  0 0 0  0 0 0  0 0 0  0 0 0
0 0 0  0 0 0  0 0 0  0 0 0  0 0 0  0 0 0
0 0 0  0 0 0  0 0 0  0 0 0  0 0 0  0 0 0
0 0 0  0 0 0  0 0 0  0 0 0  0 0 0  0 0 0
0 0 0  0 0 0  0 0 0  0 0 0  0 0 0  0 0 0
0 0 0  0 0 0  0 0 0  0 0 0  0 0 0  0 0 0
0 0 0  0 0 0  0 0 0  0 0 0  0 0 0  0 0 0
0 0 0  0 0 0  0 0 0  0 0 0  0 0 0  0 0 0
0 0 0  0 0 0  0 0 0  0 0 0  0 0 0  0 0 0
0 0 0  0 0 0  0 0 0  0 0 0  0 0 0  0 0 0
0 0 0  0 0 0  0 0 0  0 0 0  0 0 0  0 0 0
0 0 0  0 0 0  0 0 0  0 0 0  0 0 0  0 0 0
0 0 0  0 0 0  0 0 0  0 0 0  0 0 0  0 0 0
0 0 0  0 0 0  0 0 0  0 0 0  0 0 0  0 0 0
0 0 0  0 0 0  0 0 0  0 0 0  0 0 0  0 0 0
0 0 0  0 0 0  0 0 0  0 0 0  0 0 0  0 0 0
0 0 0  0 0 0  0 0 0  0 0 0  0 0 0  0 0 0
0 0 0  0 0 0  0 0 0  0 0 0  0 0 0  0 0 0
0 0 0  0 0 0  0 0 0  0 0 0  0 0 0  0 0 0
0 0 0  0 0 0  0 0 0  0 0 0  0 0 0  0 0 0
0 0 0  0 0 0  0 0 0  0 0 0  0 0 0  0 0 0
0 0 0  0 0 0  0 0 0  0 0 0  0 0 0  0 0 0
0 0 0  0 0 0  0 0 0  0 0 0  0 0 0  0 0 0
0 0 0  0 0 0  0 0 0  0 0 0  0 0 0  0 0 0
0 0 0  0 0 0  0 0 0  0 0 0  0 0 0  0 0 0
0 0 0  0 0 0  0 0 0  0 0 0  0 0 0  0 0 0
0 0 0  0 0 0  0 0 0  0 0 0  0 0 0  0 0 0
0 0 0  0 0 0  0 0 0  0 0 0  0 0 0  0 0 0
0 0 0  0 0 0  0 0 0  0 0 0  0 0 0  0 0 0
0 0 0  0 0 0  0 0 0  0 0 0  0 0 0  0 0 0
0 0 0  0 0 0  0 0 0  0 0 0  0 0 0  0 0 0
0 0 0  0 0 0  0 0 0  0 0 0  0 0 0  0 0 0
0 0 0  0 0 0  0 0 0  0 0 0  0 0 0  0 0 0
0 0 0  0 0 0  0 0 0  0 0 0  0 0 0  0 0 0
0 0 0  0 0 0  0 0 0  0 0 0  0 0 0  0 0 0
0 0 0  0 0 0  0 0 0  0 0 0  0 0 0  0 0 0
0 0 0  0 0 0  0 0 0  0 0 0  0 0 0  0 0 0
0 0 0  0 0 0  0 0 0  0 0 0  0 0 0  0 0 0
0 0 0  0 0 0  0 0 0  0 0 0  0 0 0  0 0 0
0 0 0  0 0 0  0 0 0  0 0 0  0 0 0  0 0 0
0 0 0  0 0 0  0 0 0  0 0 0  0 0 0  0 0 0
0 0 0  0 0 0  0 0 0  0 0 0  0 0 0  0 0 0
0 0 0  0 0 0  0 0 0  0 0 0  0 0 0  0 0 0
0 0 0  0 0 0  0 0 0  0 0 0  0 0 0  0 0 0
0 0 0  0 0 0  0 0 0  0 0 0  0 0 0  0 0 0
0 0 0  0 0 0  0 0 0  0 0 0  0 0 0  0 0 0
0 0 0  0 0 0  0 0 0  0 0 0  0 0 0  0 0 0
0 0 0  0 0 0  0 0 0  0 0 0  0 0 0  0 0 0
0 0 0  0 0 0  0 0 0  0 0 0  0 0 0  0 0 0
0 0 0  0 0 0  0 0 0  0 0 0  0 0 0  0 0 0
0 0 0  0 0 0  0 0 0  0 0 0  0 0 0  0 0 0
0 0 0  0 0 0  0 0 0  0 0 0  0 0 0  0 0 0
0 0 0  0 0 0  0 0 0  0 0 0  0 0 0  0 0 0
0 0 0  0 0 0  0 0 0  0 0 0  0 0 0  0 0 0
0 0 0  0 0 0  0 0 0  0 0 0  0 0 0  0 0 0
0 0 0  0 0 0  0 0 0  0 0 0  0 0 0  0 0 0
0 0 0  0 0 0  0 0 0  0 0 0  0 0 0  0 0 0
0 0 0  0 0 0  0 0 0  0 0 0  0 0 0  0 0 0
0 0 0  0 0 0  0 0 0  0 0 0  0 0 0  0 0 0
0 0 0  0 0 0  0 0 0  0 0 0  0 0 0  0 0 0
0 0 0  0 0 0  0 0 0  0 0 0  0 0 0  0 0 0
0 0 0  0 0 0  0 0 0  0 0 0  0 0 0  0 0 0
0 0 0  0 0 0  0 0 0  0 0 0  0 0 0  0 0 0
0 0 0  0 0 0  0 0 0  0 0 0  0 0 0  0 0 0
0 0 0  0 0 0  0 0 0  0 0 0  0 0 0  0 0 0
0 0 0  0 0 0  0 0 0  0 0 0  0 0 0  0 0 0
0 0 0  0 0 0  0 0 0  0 0 0  0 0 0  0 0 0
0 0 0  0 0 0  0 0 0  0 0 0  0 0 0  0 0 0
0 0 0  0 0 0  0 0 0  0 0 0  0 0 0  0 0 0
0 0 0  0 0 0  0 0 0  0 0 0  0 0 0  0 0 0
0 0 0  0 0 0  0 0 0  0 0 0  0 0 0  0 0 0
0 0 0  0 0 0  0 0 0  0 0 0  0 0 0  0 0 0
0 0 0  0 0 0  0 0 0  0 0 0  0 0 0  0 0 0
0 0 0  0 0 0  0 0 0  0 0 0  0 0 0  0 0 0
0 0 0  0 0 0  0 0 0  0 0 0  0 0 0  0 0 0
0 0 0  0 0 0  0 0 0  0 0 0  0 0 0  0 0 0
0 0 0  0 0 0  0 0 0  0 0 0  0 0 0  0 0 0
0 0 0  0 0 0  0 0 0  0 0 0  0 0 0  0 0 0
0 0 0  0 0 0  0 0 0  0 0 0  0 0 0  0 0 0
0 0 0  0 0 0  0 0 0  0 0 0  0 0 0  0 0 0
0 0 0  0 0 0  0 0 0  0 0 0  0 0 0  0 0 0
0 0 0  0 0 0  0 0 0  0 0 0  0 0 0  0 0 0
0 0 0  0 0 0  0 0 0  0 0 0  0 0 0  0 0 0
0 0 0  0 0 0  0 0 0  0 0 0  0 0 0  0 0 0
0 0 0  0 0 0  0 0 0  0 0 0  0 0 0  0 0 0
0 0 0  0 0 0  0 0 0  0 0 0  0 0 0  0 0 0
0 0 0  0 0 0  0 0 0  0 0 0  0 0 0  0 0 0
0 0 0  0 0 0  0 0 0  0 0 0  0 0 0  0 0 0
0 0 0  0 0 0  0 0 0  0 0 0  0 0 0  0 0 0
0 0 0  0 0 0  0 0 0  0 0 0  0 0 0  0 0 0
0 0 0  0 0 0  0 0 0  0 0 0  0 0 0  0 0 0
0 0 0  0 0 0  0 0 0  0 0 0  0 0 0  0 0 0
0 0 0  0 0 0  0 0 0  0 0 0  0 0 0  0 0 0
0 0 0  0 0 0  0 0 0  0 0 0  0 0 0  0 0 0
0 0 0  0 0 0  0 0 0  0 0 0  0 0 0  0 0 0
0 0 0  0 0 0  0 0 0  0 0 0  0 0 0  0 0 0
0 0 0  0 0 0  0 0 0  0 0 0  0 0 0  0 0 0
0 0 0  0 0 0  0 0 0  0 0 0  0 0 0  0 0 0
0 0 0  0 0 0  0 0 0  0 0 0  0 0 0  0 0 0
0 0 0  0 0 0  0 0 0  0 0 0  0 0 0  0 0 0
0 0 0  0 0 0  0 0 0  0 0 0  0 0 0  0 0 0
0 0 0  0 0 0  0 0 0  0 0 0  0 0 0  0 0 0
0 0 0  0 0 0  0 0 0  0 0 0  0 0 0  0 0 0
0 0 0  0 0 0  0 0 0  0 0 0  0 0 0  0 0 0
0 0 0  0 0 0  0 0 0  0 0 0  0 0 0  0 0 0
0 0 0  0 0 0  0 0 0  0 0 0  0 0 0  0 0 0
0 0 0  0 0 0  0 0 0  0 0 0  0 0 0  0 0 0
0 0 0  0 0 0  0 0 0  0 0 0  0 0 0  0 0 0
0 0 0  0 0 0  0 0 0  0 0 0  0 0 0  0 0 0
0 0 0  0 0 0  0 0 0  0 0 0  0 0 0  0 0 0
0 0 0  0 0 0  0 0 0  0 0 0  0 0 0  0 0 0
0 0 0  0 0 0  0 0 0  0 0 0  0 0 0  0 0 0
0 0 0  0 0 0  0 0 0  0 0 0  0 0 0  0 0 0
0 0 0  0 0 0  0 0 0  0 0 0  0 0 0  0 0 0
0 0 0  0 0 0  0 0 0  0 0 0  0 0 0  0 0 0
0 0 0  0 0 0  0 0 0  0 0 0  0 0 0  0 0 0
0 0 0  0 0 0  0 0 0  0 0 0  0 0 0  0 0 0
0 0 0  0 0 0  0 0 0  0 0 0  0 0 0  0 0 0
0 0 0  0 0 0  0 0 0  0 0 0  0 0 0  0 0 0
